(G-CODE GENERATED BY FLATCAM v8.991 - www.flatcam.org - Version Date: 2019/12/27)

(Name: 01-First2Passes)
(Type: G-code from Geometry)
(Units: MM)

(Created on Wednesday, 12 February 2020 at 10:15)

(TOOL DIAMETER: 0.55 mm)
(Feedrate: 120.0 mm/min)
(Feedrate_Z: 60.0 mm/min)
(Feedrate rapids 1500.0 mm/min)

(Z_Cut: -0.07 mm)
(Z_Move: 2.0 mm)
(Z Toolchange: 15.0 mm)
(X,Y Toolchange: 0.0000, 0.0000 mm)
(Z Start: None mm)
(Z End: 15.0 mm)
(Steps per circle: 64)
(Preprocessor Geometry: default)

(X range:    2.2066 ...   33.1502  mm)
(Y range:    4.3265 ...   40.0336  mm)

(Spindle Speed: None RPM)
G21
G90
G94




G01 F120.00
G00 Z2.0000

M03
G00 X10.5961 Y9.2371
G01 F60.00
G01 Z-0.0700
G01 F120.00
G01 X10.5787 Y9.2464
G01 X10.4953 Y9.2964
G01 X10.4504 Y9.3264
G01 X10.3723 Y9.3843
G01 X10.3306 Y9.4185
G01 X10.2586 Y9.4838
G01 X10.2204 Y9.5220
G01 X10.1551 Y9.5940
G01 X10.1209 Y9.6357
G01 X10.0630 Y9.7138
G01 X10.0330 Y9.7587
G01 X9.9830 Y9.8421
G01 X9.9576 Y9.8897
G01 X9.9279 Y9.9524
G01 X9.9260 Y9.2371
G01 X10.5961 Y9.2371
G00 Z2.0000
G00 X9.9314 Y11.2385
G01 F60.00
G01 Z-0.0700
G01 F120.00
G01 X9.9576 Y11.2939
G01 X9.9830 Y11.3415
G01 X10.0330 Y11.4249
G01 X10.0630 Y11.4698
G01 X10.1209 Y11.5479
G01 X10.1551 Y11.5896
G01 X10.2204 Y11.6616
G01 X10.2586 Y11.6998
G01 X10.3306 Y11.7651
G01 X10.3723 Y11.7993
G01 X10.4504 Y11.8572
G01 X10.4573 Y11.8618
G01 X10.4504 Y11.8664
G01 X10.3723 Y11.9243
G01 X10.3306 Y11.9585
G01 X10.2586 Y12.0238
G01 X10.2204 Y12.0620
G01 X10.1551 Y12.1340
G01 X10.1209 Y12.1757
G01 X10.0630 Y12.2538
G01 X10.0330 Y12.2987
G01 X9.9830 Y12.3821
G01 X9.9576 Y12.4297
G01 X9.9347 Y12.4780
G01 X9.9314 Y11.2385
G00 Z2.0000
G00 X12.2328 Y11.4767
G01 F60.00
G01 Z-0.0700
G01 F120.00
G01 X12.2135 Y11.4960
G01 X12.1415 Y11.5613
G01 X12.1206 Y11.5784
G01 X12.0426 Y11.6363
G01 X12.0201 Y11.6513
G01 X11.9367 Y11.7013
G01 X11.9129 Y11.7140
G01 X11.8251 Y11.7556
G01 X11.8001 Y11.7659
G01 X11.7086 Y11.7987
G01 X11.6828 Y11.8065
G01 X11.5885 Y11.8301
G01 X11.5620 Y11.8354
G01 X11.4658 Y11.8497
G01 X11.4390 Y11.8523
G01 X11.3419 Y11.8571
G01 X11.3149 Y11.8571
G01 X11.2178 Y11.8523
G01 X11.1910 Y11.8497
G01 X11.0948 Y11.8354
G01 X11.0683 Y11.8301
G01 X10.9740 Y11.8065
G01 X10.9482 Y11.7987
G01 X10.8567 Y11.7659
G01 X10.8317 Y11.7556
G01 X10.7439 Y11.7140
G01 X10.7201 Y11.7013
G01 X10.6367 Y11.6513
G01 X10.6142 Y11.6363
G01 X10.5362 Y11.5784
G01 X10.5153 Y11.5613
G01 X10.4433 Y11.4960
G01 X10.4242 Y11.4769
G01 X10.3589 Y11.4049
G01 X10.3418 Y11.3840
G01 X10.2839 Y11.3060
G01 X10.2689 Y11.2835
G01 X10.2189 Y11.2001
G01 X10.2062 Y11.1763
G01 X10.1646 Y11.0885
G01 X10.1543 Y11.0635
G01 X10.1215 Y10.9720
G01 X10.1137 Y10.9462
G01 X10.0901 Y10.8519
G01 X10.0848 Y10.8254
G01 X10.0705 Y10.7292
G01 X10.0679 Y10.7024
G01 X10.0631 Y10.6053
G01 X10.0631 Y10.5783
G01 X10.0679 Y10.4812
G01 X10.0705 Y10.4544
G01 X10.0848 Y10.3582
G01 X10.0901 Y10.3317
G01 X10.1137 Y10.2374
G01 X10.1215 Y10.2116
G01 X10.1543 Y10.1201
G01 X10.1646 Y10.0951
G01 X10.2062 Y10.0073
G01 X10.2189 Y9.9835
G01 X10.2689 Y9.9001
G01 X10.2839 Y9.8776
G01 X10.3418 Y9.7996
G01 X10.3589 Y9.7787
G01 X10.4242 Y9.7067
G01 X10.4433 Y9.6876
G01 X10.5153 Y9.6223
G01 X10.5362 Y9.6052
G01 X10.6142 Y9.5473
G01 X10.6367 Y9.5323
G01 X10.7201 Y9.4823
G01 X10.7439 Y9.4696
G01 X10.8317 Y9.4280
G01 X10.8567 Y9.4177
G01 X10.9482 Y9.3849
G01 X10.9740 Y9.3771
G01 X11.0683 Y9.3535
G01 X11.0948 Y9.3482
G01 X11.1910 Y9.3339
G01 X11.2178 Y9.3313
G01 X11.3149 Y9.3265
G01 X11.3419 Y9.3265
G01 X11.4390 Y9.3313
G01 X11.4658 Y9.3339
G01 X11.5620 Y9.3482
G01 X11.5885 Y9.3535
G01 X11.6828 Y9.3771
G01 X11.7086 Y9.3849
G01 X11.8001 Y9.4177
G01 X11.8251 Y9.4280
G01 X11.9129 Y9.4696
G01 X11.9367 Y9.4823
G01 X12.0201 Y9.5323
G01 X12.0426 Y9.5473
G01 X12.1206 Y9.6052
G01 X12.1415 Y9.6223
G01 X12.2135 Y9.6876
G01 X12.2328 Y9.7069
G01 X13.0186 Y9.7069
G01 X13.0795 Y9.6517
G01 X13.1003 Y9.6346
G01 X13.1754 Y9.5789
G01 X13.1978 Y9.5640
G01 X13.2780 Y9.5159
G01 X13.3018 Y9.5032
G01 X13.3863 Y9.4632
G01 X13.4113 Y9.4529
G01 X13.4993 Y9.4214
G01 X13.5251 Y9.4136
G01 X13.6158 Y9.3908
G01 X13.6422 Y9.3856
G01 X13.7347 Y9.3719
G01 X13.7615 Y9.3692
G01 X13.8549 Y9.3646
G01 X13.8819 Y9.3646
G01 X13.9753 Y9.3692
G01 X14.0021 Y9.3719
G01 X14.0946 Y9.3856
G01 X14.1210 Y9.3908
G01 X14.2117 Y9.4136
G01 X14.2375 Y9.4214
G01 X14.3255 Y9.4529
G01 X14.3505 Y9.4632
G01 X14.4350 Y9.5032
G01 X14.4588 Y9.5159
G01 X14.5390 Y9.5640
G01 X14.5614 Y9.5789
G01 X14.6365 Y9.6346
G01 X14.6573 Y9.6517
G01 X14.7266 Y9.7145
G01 X14.7457 Y9.7336
G01 X14.8085 Y9.8029
G01 X14.8256 Y9.8237
G01 X14.8813 Y9.8988
G01 X14.8962 Y9.9212
G01 X14.9443 Y10.0014
G01 X14.9570 Y10.0252
G01 X14.9970 Y10.1097
G01 X15.0073 Y10.1347
G01 X15.0388 Y10.2227
G01 X15.0466 Y10.2485
G01 X15.0694 Y10.3392
G01 X15.0746 Y10.3656
G01 X15.0883 Y10.4581
G01 X15.0910 Y10.4849
G01 X15.0956 Y10.5783
G01 X15.0956 Y10.6053
G01 X15.0910 Y10.6987
G01 X15.0883 Y10.7255
G01 X15.0746 Y10.8180
G01 X15.0694 Y10.8444
G01 X15.0466 Y10.9351
G01 X15.0388 Y10.9609
G01 X15.0073 Y11.0489
G01 X14.9970 Y11.0739
G01 X14.9570 Y11.1584
G01 X14.9443 Y11.1822
G01 X14.8962 Y11.2624
G01 X14.8813 Y11.2848
G01 X14.8256 Y11.3599
G01 X14.8085 Y11.3807
G01 X14.7457 Y11.4500
G01 X14.7266 Y11.4691
G01 X14.6573 Y11.5319
G01 X14.6365 Y11.5490
G01 X14.5614 Y11.6047
G01 X14.5390 Y11.6196
G01 X14.4588 Y11.6677
G01 X14.4350 Y11.6804
G01 X14.3505 Y11.7204
G01 X14.3255 Y11.7307
G01 X14.2375 Y11.7622
G01 X14.2117 Y11.7700
G01 X14.1210 Y11.7928
G01 X14.0946 Y11.7980
G01 X14.0021 Y11.8117
G01 X13.9753 Y11.8144
G01 X13.8819 Y11.8190
G01 X13.8549 Y11.8190
G01 X13.7615 Y11.8144
G01 X13.7347 Y11.8117
G01 X13.6422 Y11.7980
G01 X13.6158 Y11.7928
G01 X13.5251 Y11.7700
G01 X13.4993 Y11.7622
G01 X13.4113 Y11.7307
G01 X13.3863 Y11.7204
G01 X13.3018 Y11.6804
G01 X13.2780 Y11.6677
G01 X13.1978 Y11.6196
G01 X13.1754 Y11.6047
G01 X13.1003 Y11.5490
G01 X13.0795 Y11.5319
G01 X13.0186 Y11.4767
G01 X12.2328 Y11.4767
G00 Z2.0000
G00 X12.3409 Y11.7517
G01 F60.00
G01 Z-0.0700
G01 F120.00
G01 X12.9144 Y11.7517
G01 X12.9365 Y11.7699
G01 X13.0116 Y11.8255
G01 X13.0565 Y11.8555
G01 X13.0669 Y11.8618
G01 X13.0565 Y11.8681
G01 X13.0116 Y11.8981
G01 X12.9365 Y11.9537
G01 X12.9144 Y11.9719
G01 X12.3409 Y11.9719
G01 X12.3262 Y11.9585
G01 X12.2845 Y11.9243
G01 X12.2064 Y11.8664
G01 X12.1995 Y11.8618
G01 X12.2064 Y11.8572
G01 X12.2845 Y11.7993
G01 X12.3262 Y11.7651
G01 X12.3409 Y11.7517
G00 Z2.0000
G00 X12.2328 Y14.0167
G01 F60.00
G01 Z-0.0700
G01 F120.00
G01 X12.2135 Y14.0360
G01 X12.1415 Y14.1013
G01 X12.1206 Y14.1184
G01 X12.0426 Y14.1763
G01 X12.0201 Y14.1913
G01 X11.9367 Y14.2413
G01 X11.9129 Y14.2540
G01 X11.8251 Y14.2956
G01 X11.8001 Y14.3059
G01 X11.7086 Y14.3387
G01 X11.6828 Y14.3465
G01 X11.5885 Y14.3701
G01 X11.5620 Y14.3754
G01 X11.4658 Y14.3897
G01 X11.4390 Y14.3923
G01 X11.3419 Y14.3971
G01 X11.3149 Y14.3971
G01 X11.2178 Y14.3923
G01 X11.1910 Y14.3897
G01 X11.0948 Y14.3754
G01 X11.0683 Y14.3701
G01 X10.9740 Y14.3465
G01 X10.9482 Y14.3387
G01 X10.8567 Y14.3059
G01 X10.8317 Y14.2956
G01 X10.7439 Y14.2540
G01 X10.7201 Y14.2413
G01 X10.6367 Y14.1913
G01 X10.6142 Y14.1763
G01 X10.5362 Y14.1184
G01 X10.5153 Y14.1013
G01 X10.4433 Y14.0360
G01 X10.4242 Y14.0169
G01 X10.3589 Y13.9449
G01 X10.3418 Y13.9240
G01 X10.2839 Y13.8460
G01 X10.2689 Y13.8235
G01 X10.2189 Y13.7401
G01 X10.2062 Y13.7163
G01 X10.1646 Y13.6285
G01 X10.1543 Y13.6035
G01 X10.1215 Y13.5120
G01 X10.1137 Y13.4862
G01 X10.0901 Y13.3919
G01 X10.0848 Y13.3654
G01 X10.0705 Y13.2692
G01 X10.0679 Y13.2424
G01 X10.0631 Y13.1453
G01 X10.0631 Y13.1183
G01 X10.0679 Y13.0212
G01 X10.0705 Y12.9944
G01 X10.0848 Y12.8982
G01 X10.0901 Y12.8717
G01 X10.1137 Y12.7774
G01 X10.1215 Y12.7516
G01 X10.1543 Y12.6601
G01 X10.1646 Y12.6351
G01 X10.2062 Y12.5473
G01 X10.2189 Y12.5235
G01 X10.2689 Y12.4401
G01 X10.2839 Y12.4176
G01 X10.3418 Y12.3396
G01 X10.3589 Y12.3187
G01 X10.4242 Y12.2467
G01 X10.4433 Y12.2276
G01 X10.5153 Y12.1623
G01 X10.5362 Y12.1452
G01 X10.6142 Y12.0873
G01 X10.6367 Y12.0723
G01 X10.7201 Y12.0223
G01 X10.7439 Y12.0096
G01 X10.8317 Y11.9680
G01 X10.8567 Y11.9577
G01 X10.9482 Y11.9249
G01 X10.9740 Y11.9171
G01 X11.0683 Y11.8935
G01 X11.0948 Y11.8882
G01 X11.1910 Y11.8739
G01 X11.2178 Y11.8713
G01 X11.3149 Y11.8665
G01 X11.3419 Y11.8665
G01 X11.4390 Y11.8713
G01 X11.4658 Y11.8739
G01 X11.5620 Y11.8882
G01 X11.5885 Y11.8935
G01 X11.6828 Y11.9171
G01 X11.7086 Y11.9249
G01 X11.8001 Y11.9577
G01 X11.8251 Y11.9680
G01 X11.9129 Y12.0096
G01 X11.9367 Y12.0223
G01 X12.0201 Y12.0723
G01 X12.0426 Y12.0873
G01 X12.1206 Y12.1452
G01 X12.1415 Y12.1623
G01 X12.2135 Y12.2276
G01 X12.2328 Y12.2469
G01 X13.0186 Y12.2469
G01 X13.0795 Y12.1917
G01 X13.1003 Y12.1746
G01 X13.1754 Y12.1189
G01 X13.1978 Y12.1040
G01 X13.2780 Y12.0559
G01 X13.3018 Y12.0432
G01 X13.3863 Y12.0032
G01 X13.4113 Y11.9929
G01 X13.4993 Y11.9614
G01 X13.5251 Y11.9536
G01 X13.6158 Y11.9308
G01 X13.6422 Y11.9256
G01 X13.7347 Y11.9119
G01 X13.7615 Y11.9092
G01 X13.8549 Y11.9046
G01 X13.8819 Y11.9046
G01 X13.9753 Y11.9092
G01 X14.0021 Y11.9119
G01 X14.0946 Y11.9256
G01 X14.1210 Y11.9308
G01 X14.2117 Y11.9536
G01 X14.2375 Y11.9614
G01 X14.3255 Y11.9929
G01 X14.3505 Y12.0032
G01 X14.4350 Y12.0432
G01 X14.4588 Y12.0559
G01 X14.5390 Y12.1040
G01 X14.5614 Y12.1189
G01 X14.6365 Y12.1746
G01 X14.6573 Y12.1917
G01 X14.7266 Y12.2545
G01 X14.7457 Y12.2736
G01 X14.8085 Y12.3429
G01 X14.8256 Y12.3637
G01 X14.8813 Y12.4388
G01 X14.8962 Y12.4612
G01 X14.9443 Y12.5414
G01 X14.9570 Y12.5652
G01 X14.9970 Y12.6497
G01 X15.0073 Y12.6747
G01 X15.0388 Y12.7627
G01 X15.0466 Y12.7885
G01 X15.0694 Y12.8792
G01 X15.0746 Y12.9056
G01 X15.0883 Y12.9981
G01 X15.0910 Y13.0249
G01 X15.0956 Y13.1183
G01 X15.0956 Y13.1453
G01 X15.0910 Y13.2387
G01 X15.0883 Y13.2655
G01 X15.0746 Y13.3580
G01 X15.0694 Y13.3844
G01 X15.0466 Y13.4751
G01 X15.0388 Y13.5009
G01 X15.0073 Y13.5889
G01 X14.9970 Y13.6139
G01 X14.9570 Y13.6984
G01 X14.9443 Y13.7222
G01 X14.8962 Y13.8024
G01 X14.8813 Y13.8248
G01 X14.8256 Y13.8999
G01 X14.8085 Y13.9207
G01 X14.7457 Y13.9900
G01 X14.7266 Y14.0091
G01 X14.6573 Y14.0719
G01 X14.6365 Y14.0890
G01 X14.5614 Y14.1447
G01 X14.5390 Y14.1596
G01 X14.4588 Y14.2077
G01 X14.4350 Y14.2204
G01 X14.3505 Y14.2604
G01 X14.3255 Y14.2707
G01 X14.2375 Y14.3022
G01 X14.2117 Y14.3100
G01 X14.1210 Y14.3328
G01 X14.0946 Y14.3380
G01 X14.0021 Y14.3517
G01 X13.9753 Y14.3544
G01 X13.8819 Y14.3590
G01 X13.8549 Y14.3590
G01 X13.7615 Y14.3544
G01 X13.7347 Y14.3517
G01 X13.6422 Y14.3380
G01 X13.6158 Y14.3328
G01 X13.5251 Y14.3100
G01 X13.4993 Y14.3022
G01 X13.4113 Y14.2707
G01 X13.3863 Y14.2604
G01 X13.3018 Y14.2204
G01 X13.2780 Y14.2077
G01 X13.1978 Y14.1596
G01 X13.1754 Y14.1447
G01 X13.1003 Y14.0890
G01 X13.0795 Y14.0719
G01 X13.0186 Y14.0167
G01 X12.2328 Y14.0167
G00 Z2.0000
G00 X12.1995 Y14.4018
G01 F60.00
G01 Z-0.0700
G01 F120.00
G01 X12.2064 Y14.3972
G01 X12.2845 Y14.3393
G01 X12.3262 Y14.3051
G01 X12.3409 Y14.2917
G01 X12.9144 Y14.2917
G01 X12.9365 Y14.3099
G01 X13.0116 Y14.3655
G01 X13.0565 Y14.3955
G01 X13.0669 Y14.4018
G01 X13.0565 Y14.4081
G01 X13.0116 Y14.4381
G01 X12.9365 Y14.4937
G01 X12.9144 Y14.5119
G01 X12.3409 Y14.5119
G01 X12.3262 Y14.4985
G01 X12.2845 Y14.4643
G01 X12.2064 Y14.4064
G01 X12.1995 Y14.4018
G00 Z2.0000
G00 X12.2328 Y16.5567
G01 F60.00
G01 Z-0.0700
G01 F120.00
G01 X12.2135 Y16.5760
G01 X12.1415 Y16.6413
G01 X12.1206 Y16.6584
G01 X12.0426 Y16.7163
G01 X12.0201 Y16.7313
G01 X11.9367 Y16.7813
G01 X11.9129 Y16.7940
G01 X11.8251 Y16.8356
G01 X11.8001 Y16.8459
G01 X11.7086 Y16.8787
G01 X11.6828 Y16.8865
G01 X11.5885 Y16.9101
G01 X11.5620 Y16.9154
G01 X11.4658 Y16.9297
G01 X11.4390 Y16.9323
G01 X11.3419 Y16.9371
G01 X11.3149 Y16.9371
G01 X11.2178 Y16.9323
G01 X11.1910 Y16.9297
G01 X11.0948 Y16.9154
G01 X11.0683 Y16.9101
G01 X10.9740 Y16.8865
G01 X10.9482 Y16.8787
G01 X10.8567 Y16.8459
G01 X10.8317 Y16.8356
G01 X10.7439 Y16.7940
G01 X10.7201 Y16.7813
G01 X10.6367 Y16.7313
G01 X10.6142 Y16.7163
G01 X10.5362 Y16.6584
G01 X10.5153 Y16.6413
G01 X10.4433 Y16.5760
G01 X10.4242 Y16.5569
G01 X10.3589 Y16.4849
G01 X10.3418 Y16.4640
G01 X10.2839 Y16.3860
G01 X10.2689 Y16.3635
G01 X10.2189 Y16.2801
G01 X10.2062 Y16.2563
G01 X10.1646 Y16.1685
G01 X10.1543 Y16.1435
G01 X10.1215 Y16.0520
G01 X10.1137 Y16.0262
G01 X10.0901 Y15.9319
G01 X10.0848 Y15.9054
G01 X10.0705 Y15.8092
G01 X10.0679 Y15.7824
G01 X10.0631 Y15.6853
G01 X10.0631 Y15.6583
G01 X10.0679 Y15.5612
G01 X10.0705 Y15.5344
G01 X10.0848 Y15.4382
G01 X10.0901 Y15.4117
G01 X10.1137 Y15.3174
G01 X10.1215 Y15.2916
G01 X10.1543 Y15.2001
G01 X10.1646 Y15.1751
G01 X10.2062 Y15.0873
G01 X10.2189 Y15.0635
G01 X10.2689 Y14.9801
G01 X10.2839 Y14.9576
G01 X10.3418 Y14.8796
G01 X10.3589 Y14.8587
G01 X10.4242 Y14.7867
G01 X10.4433 Y14.7676
G01 X10.5153 Y14.7023
G01 X10.5362 Y14.6852
G01 X10.6142 Y14.6273
G01 X10.6367 Y14.6123
G01 X10.7201 Y14.5623
G01 X10.7439 Y14.5496
G01 X10.8317 Y14.5080
G01 X10.8567 Y14.4977
G01 X10.9482 Y14.4649
G01 X10.9740 Y14.4571
G01 X11.0683 Y14.4335
G01 X11.0948 Y14.4282
G01 X11.1910 Y14.4139
G01 X11.2178 Y14.4113
G01 X11.3149 Y14.4065
G01 X11.3419 Y14.4065
G01 X11.4390 Y14.4113
G01 X11.4658 Y14.4139
G01 X11.5620 Y14.4282
G01 X11.5885 Y14.4335
G01 X11.6828 Y14.4571
G01 X11.7086 Y14.4649
G01 X11.8001 Y14.4977
G01 X11.8251 Y14.5080
G01 X11.9129 Y14.5496
G01 X11.9367 Y14.5623
G01 X12.0201 Y14.6123
G01 X12.0426 Y14.6273
G01 X12.1206 Y14.6852
G01 X12.1415 Y14.7023
G01 X12.2135 Y14.7676
G01 X12.2328 Y14.7869
G01 X13.0186 Y14.7869
G01 X13.0795 Y14.7317
G01 X13.1003 Y14.7146
G01 X13.1754 Y14.6589
G01 X13.1978 Y14.6440
G01 X13.2780 Y14.5959
G01 X13.3018 Y14.5832
G01 X13.3863 Y14.5432
G01 X13.4113 Y14.5329
G01 X13.4993 Y14.5014
G01 X13.5251 Y14.4936
G01 X13.6158 Y14.4708
G01 X13.6422 Y14.4656
G01 X13.7347 Y14.4519
G01 X13.7615 Y14.4492
G01 X13.8549 Y14.4446
G01 X13.8819 Y14.4446
G01 X13.9753 Y14.4492
G01 X14.0021 Y14.4519
G01 X14.0946 Y14.4656
G01 X14.1210 Y14.4708
G01 X14.2117 Y14.4936
G01 X14.2375 Y14.5014
G01 X14.3255 Y14.5329
G01 X14.3505 Y14.5432
G01 X14.4350 Y14.5832
G01 X14.4588 Y14.5959
G01 X14.5390 Y14.6440
G01 X14.5614 Y14.6589
G01 X14.6365 Y14.7146
G01 X14.6573 Y14.7317
G01 X14.7266 Y14.7945
G01 X14.7457 Y14.8136
G01 X14.8085 Y14.8829
G01 X14.8256 Y14.9037
G01 X14.8813 Y14.9788
G01 X14.8962 Y15.0012
G01 X14.9443 Y15.0814
G01 X14.9570 Y15.1052
G01 X14.9970 Y15.1897
G01 X15.0073 Y15.2147
G01 X15.0388 Y15.3027
G01 X15.0466 Y15.3285
G01 X15.0694 Y15.4192
G01 X15.0746 Y15.4456
G01 X15.0883 Y15.5381
G01 X15.0910 Y15.5649
G01 X15.0956 Y15.6583
G01 X15.0956 Y15.6853
G01 X15.0910 Y15.7787
G01 X15.0883 Y15.8055
G01 X15.0746 Y15.8980
G01 X15.0694 Y15.9244
G01 X15.0466 Y16.0151
G01 X15.0388 Y16.0409
G01 X15.0073 Y16.1289
G01 X14.9970 Y16.1539
G01 X14.9570 Y16.2384
G01 X14.9443 Y16.2622
G01 X14.8962 Y16.3424
G01 X14.8813 Y16.3648
G01 X14.8256 Y16.4399
G01 X14.8085 Y16.4607
G01 X14.7457 Y16.5300
G01 X14.7266 Y16.5491
G01 X14.6573 Y16.6119
G01 X14.6365 Y16.6290
G01 X14.5614 Y16.6847
G01 X14.5390 Y16.6996
G01 X14.4588 Y16.7477
G01 X14.4350 Y16.7604
G01 X14.3505 Y16.8004
G01 X14.3255 Y16.8107
G01 X14.2375 Y16.8422
G01 X14.2117 Y16.8500
G01 X14.1210 Y16.8728
G01 X14.0946 Y16.8780
G01 X14.0021 Y16.8917
G01 X13.9753 Y16.8944
G01 X13.8819 Y16.8990
G01 X13.8549 Y16.8990
G01 X13.7615 Y16.8944
G01 X13.7347 Y16.8917
G01 X13.6422 Y16.8780
G01 X13.6158 Y16.8728
G01 X13.5251 Y16.8500
G01 X13.4993 Y16.8422
G01 X13.4113 Y16.8107
G01 X13.3863 Y16.8004
G01 X13.3018 Y16.7604
G01 X13.2780 Y16.7477
G01 X13.1978 Y16.6996
G01 X13.1754 Y16.6847
G01 X13.1003 Y16.6290
G01 X13.0795 Y16.6119
G01 X13.0186 Y16.5567
G01 X12.2328 Y16.5567
G00 Z2.0000
G00 X12.3409 Y16.8317
G01 F60.00
G01 Z-0.0700
G01 F120.00
G01 X12.9144 Y16.8317
G01 X12.9365 Y16.8499
G01 X13.0116 Y16.9055
G01 X13.0565 Y16.9355
G01 X13.0669 Y16.9418
G01 X13.0565 Y16.9481
G01 X13.0116 Y16.9781
G01 X12.9365 Y17.0337
G01 X12.9144 Y17.0519
G01 X12.3409 Y17.0519
G01 X12.3262 Y17.0385
G01 X12.2845 Y17.0043
G01 X12.2064 Y16.9464
G01 X12.1995 Y16.9418
G01 X12.2064 Y16.9372
G01 X12.2845 Y16.8793
G01 X12.3262 Y16.8451
G01 X12.3409 Y16.8317
G00 Z2.0000
G00 X12.2328 Y19.0967
G01 F60.00
G01 Z-0.0700
G01 F120.00
G01 X12.2135 Y19.1160
G01 X12.1415 Y19.1813
G01 X12.1206 Y19.1984
G01 X12.0426 Y19.2563
G01 X12.0201 Y19.2713
G01 X11.9367 Y19.3213
G01 X11.9129 Y19.3340
G01 X11.8251 Y19.3756
G01 X11.8001 Y19.3859
G01 X11.7086 Y19.4187
G01 X11.6828 Y19.4265
G01 X11.5885 Y19.4501
G01 X11.5620 Y19.4554
G01 X11.4658 Y19.4697
G01 X11.4390 Y19.4723
G01 X11.3419 Y19.4771
G01 X11.3149 Y19.4771
G01 X11.2178 Y19.4723
G01 X11.1910 Y19.4697
G01 X11.0948 Y19.4554
G01 X11.0683 Y19.4501
G01 X10.9740 Y19.4265
G01 X10.9482 Y19.4187
G01 X10.8567 Y19.3859
G01 X10.8317 Y19.3756
G01 X10.7439 Y19.3340
G01 X10.7201 Y19.3213
G01 X10.6367 Y19.2713
G01 X10.6142 Y19.2563
G01 X10.5362 Y19.1984
G01 X10.5153 Y19.1813
G01 X10.4433 Y19.1160
G01 X10.4242 Y19.0969
G01 X10.3589 Y19.0249
G01 X10.3418 Y19.0040
G01 X10.2839 Y18.9260
G01 X10.2689 Y18.9035
G01 X10.2189 Y18.8201
G01 X10.2062 Y18.7963
G01 X10.1646 Y18.7085
G01 X10.1543 Y18.6835
G01 X10.1215 Y18.5920
G01 X10.1137 Y18.5662
G01 X10.0901 Y18.4719
G01 X10.0848 Y18.4454
G01 X10.0705 Y18.3492
G01 X10.0679 Y18.3224
G01 X10.0631 Y18.2253
G01 X10.0631 Y18.1983
G01 X10.0679 Y18.1012
G01 X10.0705 Y18.0744
G01 X10.0848 Y17.9782
G01 X10.0901 Y17.9517
G01 X10.1137 Y17.8574
G01 X10.1215 Y17.8316
G01 X10.1543 Y17.7401
G01 X10.1646 Y17.7151
G01 X10.2062 Y17.6273
G01 X10.2189 Y17.6035
G01 X10.2689 Y17.5201
G01 X10.2839 Y17.4976
G01 X10.3418 Y17.4196
G01 X10.3589 Y17.3987
G01 X10.4242 Y17.3267
G01 X10.4433 Y17.3076
G01 X10.5153 Y17.2423
G01 X10.5362 Y17.2252
G01 X10.6142 Y17.1673
G01 X10.6367 Y17.1523
G01 X10.7201 Y17.1023
G01 X10.7439 Y17.0896
G01 X10.8317 Y17.0480
G01 X10.8567 Y17.0377
G01 X10.9482 Y17.0049
G01 X10.9740 Y16.9971
G01 X11.0683 Y16.9735
G01 X11.0948 Y16.9682
G01 X11.1910 Y16.9539
G01 X11.2178 Y16.9513
G01 X11.3149 Y16.9465
G01 X11.3419 Y16.9465
G01 X11.4390 Y16.9513
G01 X11.4658 Y16.9539
G01 X11.5620 Y16.9682
G01 X11.5885 Y16.9735
G01 X11.6828 Y16.9971
G01 X11.7086 Y17.0049
G01 X11.8001 Y17.0377
G01 X11.8251 Y17.0480
G01 X11.9129 Y17.0896
G01 X11.9367 Y17.1023
G01 X12.0201 Y17.1523
G01 X12.0426 Y17.1673
G01 X12.1206 Y17.2252
G01 X12.1415 Y17.2423
G01 X12.2135 Y17.3076
G01 X12.2328 Y17.3269
G01 X13.0186 Y17.3269
G01 X13.0795 Y17.2717
G01 X13.1003 Y17.2546
G01 X13.1754 Y17.1989
G01 X13.1978 Y17.1840
G01 X13.2780 Y17.1359
G01 X13.3018 Y17.1232
G01 X13.3863 Y17.0832
G01 X13.4113 Y17.0729
G01 X13.4993 Y17.0414
G01 X13.5251 Y17.0336
G01 X13.6158 Y17.0108
G01 X13.6422 Y17.0056
G01 X13.7347 Y16.9919
G01 X13.7615 Y16.9892
G01 X13.8549 Y16.9846
G01 X13.8819 Y16.9846
G01 X13.9753 Y16.9892
G01 X14.0021 Y16.9919
G01 X14.0946 Y17.0056
G01 X14.1210 Y17.0108
G01 X14.2117 Y17.0336
G01 X14.2375 Y17.0414
G01 X14.3255 Y17.0729
G01 X14.3505 Y17.0832
G01 X14.4350 Y17.1232
G01 X14.4588 Y17.1359
G01 X14.5390 Y17.1840
G01 X14.5614 Y17.1989
G01 X14.6365 Y17.2546
G01 X14.6573 Y17.2717
G01 X14.7266 Y17.3345
G01 X14.7457 Y17.3536
G01 X14.8085 Y17.4229
G01 X14.8256 Y17.4437
G01 X14.8813 Y17.5188
G01 X14.8962 Y17.5412
G01 X14.9443 Y17.6214
G01 X14.9570 Y17.6452
G01 X14.9970 Y17.7297
G01 X15.0073 Y17.7547
G01 X15.0388 Y17.8427
G01 X15.0466 Y17.8685
G01 X15.0694 Y17.9592
G01 X15.0746 Y17.9856
G01 X15.0883 Y18.0781
G01 X15.0910 Y18.1049
G01 X15.0956 Y18.1983
G01 X15.0956 Y18.2253
G01 X15.0910 Y18.3187
G01 X15.0883 Y18.3455
G01 X15.0746 Y18.4380
G01 X15.0694 Y18.4644
G01 X15.0466 Y18.5551
G01 X15.0388 Y18.5809
G01 X15.0073 Y18.6689
G01 X14.9970 Y18.6939
G01 X14.9570 Y18.7784
G01 X14.9443 Y18.8022
G01 X14.8962 Y18.8824
G01 X14.8813 Y18.9048
G01 X14.8256 Y18.9799
G01 X14.8085 Y19.0007
G01 X14.7457 Y19.0700
G01 X14.7266 Y19.0891
G01 X14.6573 Y19.1519
G01 X14.6365 Y19.1690
G01 X14.5614 Y19.2247
G01 X14.5390 Y19.2396
G01 X14.4588 Y19.2877
G01 X14.4350 Y19.3004
G01 X14.3505 Y19.3404
G01 X14.3255 Y19.3507
G01 X14.2375 Y19.3822
G01 X14.2117 Y19.3900
G01 X14.1210 Y19.4128
G01 X14.0946 Y19.4180
G01 X14.0021 Y19.4317
G01 X13.9753 Y19.4344
G01 X13.8819 Y19.4390
G01 X13.8549 Y19.4390
G01 X13.7615 Y19.4344
G01 X13.7347 Y19.4317
G01 X13.6422 Y19.4180
G01 X13.6158 Y19.4128
G01 X13.5251 Y19.3900
G01 X13.4993 Y19.3822
G01 X13.4113 Y19.3507
G01 X13.3863 Y19.3404
G01 X13.3018 Y19.3004
G01 X13.2780 Y19.2877
G01 X13.1978 Y19.2396
G01 X13.1754 Y19.2247
G01 X13.1003 Y19.1690
G01 X13.0795 Y19.1519
G01 X13.0186 Y19.0967
G01 X12.2328 Y19.0967
G00 Z2.0000
G00 X11.9478 Y19.6217
G01 F60.00
G01 Z-0.0700
G01 F120.00
G01 X12.0305 Y19.5826
G01 X12.0781 Y19.5572
G01 X12.1615 Y19.5072
G01 X12.2064 Y19.4772
G01 X12.2845 Y19.4193
G01 X12.3262 Y19.3851
G01 X12.3409 Y19.3717
G01 X12.9144 Y19.3717
G01 X12.9365 Y19.3899
G01 X13.0116 Y19.4455
G01 X13.0565 Y19.4755
G01 X13.0669 Y19.4818
G01 X13.0565 Y19.4881
G01 X13.0116 Y19.5181
G01 X12.9365 Y19.5737
G01 X12.8948 Y19.6080
G01 X12.8834 Y19.6183
G01 X11.9478 Y19.6217
G00 Z2.0000
G00 X9.4101 Y19.6311
G01 F60.00
G01 Z-0.0700
G01 F120.00
G01 X9.4949 Y19.5909
G01 X9.5426 Y19.5655
G01 X9.6267 Y19.5150
G01 X9.6716 Y19.4850
G01 X9.7504 Y19.4266
G01 X9.7921 Y19.3923
G01 X9.8649 Y19.3264
G01 X9.9030 Y19.2883
G01 X9.9689 Y19.2155
G01 X10.0032 Y19.1738
G01 X10.0641 Y19.0913
G01 X10.1209 Y19.1679
G01 X10.1551 Y19.2096
G01 X10.2204 Y19.2816
G01 X10.2586 Y19.3198
G01 X10.3306 Y19.3851
G01 X10.3723 Y19.4193
G01 X10.4504 Y19.4772
G01 X10.4953 Y19.5072
G01 X10.5787 Y19.5572
G01 X10.6263 Y19.5826
G01 X10.7142 Y19.6242
G01 X10.7191 Y19.6263
G01 X9.4101 Y19.6311
G00 Z2.0000
G00 X7.4898 Y19.0571
G01 F60.00
G01 Z-0.0700
G01 F120.00
G01 X7.5152 Y19.0950
G01 X7.5736 Y19.1738
G01 X7.6079 Y19.2155
G01 X7.6738 Y19.2883
G01 X7.7119 Y19.3264
G01 X7.7847 Y19.3923
G01 X7.8264 Y19.4266
G01 X7.9052 Y19.4850
G01 X7.9501 Y19.5150
G01 X8.0342 Y19.5655
G01 X8.0819 Y19.5909
G01 X8.1706 Y19.6329
G01 X8.1771 Y19.6356
G01 X7.4337 Y19.6383
G01 X7.4337 Y19.2278
G01 X7.4330 Y19.2008
G01 X7.4299 Y19.1390
G01 X7.4821 Y19.0686
G01 X7.4898 Y19.0571
G00 Z2.0000
G00 X7.9028 Y17.2953
G01 F60.00
G01 Z-0.0700
G01 F120.00
G01 X7.8781 Y8.0776
G01 X7.8784 Y8.0637
G01 X7.8812 Y8.0063
G01 X7.8822 Y7.9925
G01 X7.8840 Y7.9771
G01 X7.8924 Y7.9202
G01 X7.8947 Y7.9065
G01 X7.8981 Y7.8914
G01 X7.9120 Y7.8356
G01 X7.9161 Y7.8207
G01 X7.9204 Y7.8075
G01 X7.9397 Y7.7534
G01 X7.9447 Y7.7404
G01 X7.9509 Y7.7262
G01 X7.9754 Y7.6742
G01 X7.9816 Y7.6618
G01 X7.9892 Y7.6483
G01 X8.0187 Y7.5990
G01 X8.0261 Y7.5872
G01 X8.0350 Y7.5745
G01 X8.0692 Y7.5283
G01 X8.0787 Y7.5161
G01 X8.0878 Y7.5056
G01 X8.1263 Y7.4630
G01 X8.1359 Y7.4529
G01 X8.1471 Y7.4422
G01 X8.1896 Y7.4035
G01 X8.2001 Y7.3944
G01 X8.2123 Y7.3849
G01 X8.2584 Y7.3506
G01 X8.2697 Y7.3425
G01 X8.2828 Y7.3342
G01 X8.3320 Y7.3046
G01 X8.3441 Y7.2977
G01 X8.3579 Y7.2907
G01 X8.4098 Y7.2661
G01 X8.4225 Y7.2604
G01 X8.4370 Y7.2548
G01 X8.4911 Y7.2354
G01 X8.5042 Y7.2310
G01 X8.5191 Y7.2268
G01 X8.5749 Y7.2128
G01 X8.5884 Y7.2097
G01 X8.6037 Y7.2070
G01 X8.6605 Y7.1985
G01 X8.6759 Y7.1966
G01 X8.6897 Y7.1956
G01 X8.7471 Y7.1927
G01 X8.7626 Y7.1923
G01 X12.9924 Y7.1923
G01 X13.0102 Y7.1745
G01 X13.0795 Y7.1117
G01 X13.1003 Y7.0946
G01 X13.1754 Y7.0389
G01 X13.1978 Y7.0240
G01 X13.2780 Y6.9759
G01 X13.3018 Y6.9632
G01 X13.3863 Y6.9232
G01 X13.4113 Y6.9129
G01 X13.4993 Y6.8814
G01 X13.5251 Y6.8736
G01 X13.6158 Y6.8508
G01 X13.6422 Y6.8456
G01 X13.7347 Y6.8319
G01 X13.7615 Y6.8292
G01 X13.8549 Y6.8246
G01 X13.8819 Y6.8246
G01 X13.9753 Y6.8292
G01 X14.0021 Y6.8319
G01 X14.0946 Y6.8456
G01 X14.1210 Y6.8508
G01 X14.2117 Y6.8736
G01 X14.2375 Y6.8814
G01 X14.3255 Y6.9129
G01 X14.3505 Y6.9232
G01 X14.4350 Y6.9632
G01 X14.4588 Y6.9759
G01 X14.5390 Y7.0240
G01 X14.5614 Y7.0389
G01 X14.6365 Y7.0946
G01 X14.6573 Y7.1117
G01 X14.7266 Y7.1745
G01 X14.7457 Y7.1936
G01 X14.8085 Y7.2629
G01 X14.8256 Y7.2837
G01 X14.8813 Y7.3588
G01 X14.8962 Y7.3812
G01 X14.9443 Y7.4614
G01 X14.9570 Y7.4852
G01 X14.9970 Y7.5697
G01 X15.0073 Y7.5947
G01 X15.0388 Y7.6827
G01 X15.0466 Y7.7085
G01 X15.0694 Y7.7992
G01 X15.0746 Y7.8256
G01 X15.0883 Y7.9181
G01 X15.0910 Y7.9449
G01 X15.0956 Y8.0383
G01 X15.0956 Y8.0653
G01 X15.0910 Y8.1587
G01 X15.0883 Y8.1855
G01 X15.0746 Y8.2780
G01 X15.0694 Y8.3044
G01 X15.0466 Y8.3951
G01 X15.0388 Y8.4209
G01 X15.0073 Y8.5089
G01 X14.9970 Y8.5339
G01 X14.9570 Y8.6184
G01 X14.9443 Y8.6422
G01 X14.8962 Y8.7224
G01 X14.8813 Y8.7448
G01 X14.8256 Y8.8199
G01 X14.8085 Y8.8407
G01 X14.7457 Y8.9100
G01 X14.7266 Y8.9291
G01 X14.6573 Y8.9919
G01 X14.6365 Y9.0090
G01 X14.5614 Y9.0647
G01 X14.5390 Y9.0796
G01 X14.4588 Y9.1277
G01 X14.4350 Y9.1404
G01 X14.3505 Y9.1804
G01 X14.3255 Y9.1907
G01 X14.2375 Y9.2222
G01 X14.2117 Y9.2300
G01 X14.1210 Y9.2528
G01 X14.0946 Y9.2580
G01 X14.0021 Y9.2717
G01 X13.9753 Y9.2744
G01 X13.8819 Y9.2790
G01 X13.8549 Y9.2790
G01 X13.7615 Y9.2744
G01 X13.7347 Y9.2717
G01 X13.6422 Y9.2580
G01 X13.6158 Y9.2528
G01 X13.5251 Y9.2300
G01 X13.4993 Y9.2222
G01 X13.4113 Y9.1907
G01 X13.3863 Y9.1804
G01 X13.3018 Y9.1404
G01 X13.2780 Y9.1277
G01 X13.1978 Y9.0796
G01 X13.1754 Y9.0647
G01 X13.1003 Y9.0090
G01 X13.0795 Y8.9919
G01 X13.0466 Y8.9621
G01 X9.6503 Y8.9621
G01 X9.6726 Y17.2941
G01 X9.6802 Y17.3009
G01 X9.6993 Y17.3200
G01 X9.7652 Y17.3927
G01 X9.7823 Y17.4136
G01 X9.8407 Y17.4924
G01 X9.8557 Y17.5149
G01 X9.9062 Y17.5990
G01 X9.9189 Y17.6228
G01 X9.9609 Y17.7115
G01 X9.9712 Y17.7365
G01 X10.0043 Y17.8289
G01 X10.0121 Y17.8547
G01 X10.0359 Y17.9499
G01 X10.0412 Y17.9764
G01 X10.0556 Y18.0734
G01 X10.0582 Y18.1003
G01 X10.0631 Y18.1983
G01 X10.0631 Y18.2253
G01 X10.0582 Y18.3233
G01 X10.0556 Y18.3502
G01 X10.0412 Y18.4472
G01 X10.0359 Y18.4737
G01 X10.0121 Y18.5689
G01 X10.0043 Y18.5947
G01 X9.9712 Y18.6871
G01 X9.9609 Y18.7121
G01 X9.9189 Y18.8008
G01 X9.9062 Y18.8246
G01 X9.8557 Y18.9087
G01 X9.8407 Y18.9312
G01 X9.7823 Y19.0100
G01 X9.7652 Y19.0309
G01 X9.6993 Y19.1036
G01 X9.6802 Y19.1227
G01 X9.6075 Y19.1886
G01 X9.5866 Y19.2057
G01 X9.5078 Y19.2641
G01 X9.4853 Y19.2791
G01 X9.4012 Y19.3296
G01 X9.3774 Y19.3423
G01 X9.2887 Y19.3843
G01 X9.2637 Y19.3946
G01 X9.1713 Y19.4277
G01 X9.1455 Y19.4355
G01 X9.0503 Y19.4593
G01 X9.0238 Y19.4646
G01 X8.9268 Y19.4790
G01 X8.8999 Y19.4816
G01 X8.8019 Y19.4865
G01 X8.7749 Y19.4865
G01 X8.6769 Y19.4816
G01 X8.6500 Y19.4790
G01 X8.5530 Y19.4646
G01 X8.5265 Y19.4593
G01 X8.4313 Y19.4355
G01 X8.4055 Y19.4277
G01 X8.3131 Y19.3946
G01 X8.2881 Y19.3843
G01 X8.1994 Y19.3423
G01 X8.1756 Y19.3296
G01 X8.0915 Y19.2791
G01 X8.0690 Y19.2641
G01 X7.9902 Y19.2057
G01 X7.9693 Y19.1886
G01 X7.8966 Y19.1227
G01 X7.8775 Y19.1036
G01 X7.8116 Y19.0309
G01 X7.7945 Y19.0100
G01 X7.7361 Y18.9312
G01 X7.7211 Y18.9087
G01 X7.6706 Y18.8246
G01 X7.6579 Y18.8008
G01 X7.6159 Y18.7121
G01 X7.6056 Y18.6871
G01 X7.5725 Y18.5947
G01 X7.5647 Y18.5689
G01 X7.5409 Y18.4737
G01 X7.5356 Y18.4472
G01 X7.5212 Y18.3502
G01 X7.5186 Y18.3233
G01 X7.5137 Y18.2253
G01 X7.5137 Y18.1983
G01 X7.5186 Y18.1003
G01 X7.5212 Y18.0734
G01 X7.5356 Y17.9764
G01 X7.5409 Y17.9499
G01 X7.5647 Y17.8547
G01 X7.5725 Y17.8289
G01 X7.6056 Y17.7365
G01 X7.6159 Y17.7115
G01 X7.6579 Y17.6228
G01 X7.6706 Y17.5990
G01 X7.7211 Y17.5149
G01 X7.7361 Y17.4924
G01 X7.7945 Y17.4136
G01 X7.8116 Y17.3927
G01 X7.8775 Y17.3200
G01 X7.8966 Y17.3009
G01 X7.9028 Y17.2953
G00 Z2.0000
G00 X10.0641 Y17.3323
G01 F60.00
G01 Z-0.0700
G01 F120.00
G01 X10.0032 Y17.2498
G01 X9.9689 Y17.2081
G01 X9.9473 Y17.1842
G01 X9.9451 Y16.3475
G01 X9.9576 Y16.3739
G01 X9.9830 Y16.4215
G01 X10.0330 Y16.5049
G01 X10.0630 Y16.5498
G01 X10.1209 Y16.6279
G01 X10.1551 Y16.6696
G01 X10.2204 Y16.7416
G01 X10.2586 Y16.7798
G01 X10.3306 Y16.8451
G01 X10.3723 Y16.8793
G01 X10.4504 Y16.9372
G01 X10.4573 Y16.9418
G01 X10.4504 Y16.9464
G01 X10.3723 Y17.0043
G01 X10.3306 Y17.0385
G01 X10.2586 Y17.1038
G01 X10.2204 Y17.1420
G01 X10.1551 Y17.2140
G01 X10.1209 Y17.2557
G01 X10.0641 Y17.3323
G00 Z2.0000
G00 X9.9382 Y13.7930
G01 F60.00
G01 Z-0.0700
G01 F120.00
G01 X9.9576 Y13.8339
G01 X9.9830 Y13.8815
G01 X10.0330 Y13.9649
G01 X10.0630 Y14.0098
G01 X10.1209 Y14.0879
G01 X10.1551 Y14.1296
G01 X10.2204 Y14.2016
G01 X10.2586 Y14.2398
G01 X10.3306 Y14.3051
G01 X10.3723 Y14.3393
G01 X10.4504 Y14.3972
G01 X10.4573 Y14.4018
G01 X10.4504 Y14.4064
G01 X10.3723 Y14.4643
G01 X10.3306 Y14.4985
G01 X10.2586 Y14.5638
G01 X10.2204 Y14.6020
G01 X10.1551 Y14.6740
G01 X10.1209 Y14.7157
G01 X10.0630 Y14.7938
G01 X10.0330 Y14.8387
G01 X9.9830 Y14.9221
G01 X9.9576 Y14.9697
G01 X9.9415 Y15.0037
G01 X9.9382 Y13.7930
G00 Z2.0000
G00 X14.6699 Y11.8618
G01 F60.00
G01 Z-0.0700
G01 F120.00
G01 X14.6803 Y11.8555
G01 X14.7252 Y11.8255
G01 X14.8003 Y11.7699
G01 X14.8420 Y11.7356
G01 X14.9113 Y11.6728
G01 X14.9494 Y11.6347
G01 X15.0122 Y11.5654
G01 X15.0465 Y11.5237
G01 X15.1021 Y11.4486
G01 X15.1321 Y11.4037
G01 X15.1802 Y11.3236
G01 X15.2056 Y11.2760
G01 X15.2456 Y11.1915
G01 X15.2662 Y11.1416
G01 X15.2977 Y11.0536
G01 X15.2993 Y11.0484
G01 X15.2993 Y12.6752
G01 X15.2977 Y12.6700
G01 X15.2662 Y12.5820
G01 X15.2456 Y12.5321
G01 X15.2056 Y12.4476
G01 X15.1802 Y12.4000
G01 X15.1321 Y12.3199
G01 X15.1021 Y12.2750
G01 X15.0465 Y12.1999
G01 X15.0122 Y12.1582
G01 X14.9494 Y12.0889
G01 X14.9113 Y12.0508
G01 X14.8420 Y11.9880
G01 X14.8003 Y11.9537
G01 X14.7252 Y11.8981
G01 X14.6803 Y11.8681
G01 X14.6699 Y11.8618
G00 Z2.0000
G00 X15.2993 Y10.1352
G01 F60.00
G01 Z-0.0700
G01 F120.00
G01 X15.2977 Y10.1300
G01 X15.2662 Y10.0420
G01 X15.2456 Y9.9921
G01 X15.2056 Y9.9076
G01 X15.1802 Y9.8600
G01 X15.1321 Y9.7799
G01 X15.1021 Y9.7350
G01 X15.0465 Y9.6599
G01 X15.0122 Y9.6182
G01 X14.9494 Y9.5489
G01 X14.9113 Y9.5108
G01 X14.8420 Y9.4480
G01 X14.8003 Y9.4137
G01 X14.7252 Y9.3581
G01 X14.6803 Y9.3281
G01 X14.6699 Y9.3218
G01 X14.6803 Y9.3155
G01 X14.7252 Y9.2855
G01 X14.8003 Y9.2299
G01 X14.8420 Y9.1956
G01 X14.9113 Y9.1328
G01 X14.9494 Y9.0947
G01 X15.0122 Y9.0254
G01 X15.0465 Y8.9837
G01 X15.1021 Y8.9086
G01 X15.1321 Y8.8637
G01 X15.1802 Y8.7836
G01 X15.2056 Y8.7360
G01 X15.2456 Y8.6515
G01 X15.2662 Y8.6016
G01 X15.2977 Y8.5136
G01 X15.2993 Y8.5084
G01 X15.2993 Y10.1352
G00 Z2.0000
G00 X13.0669 Y9.3218
G01 F60.00
G01 Z-0.0700
G01 F120.00
G01 X13.0565 Y9.3281
G01 X13.0116 Y9.3581
G01 X12.9365 Y9.4137
G01 X12.9144 Y9.4319
G01 X12.3409 Y9.4319
G01 X12.3262 Y9.4185
G01 X12.2845 Y9.3843
G01 X12.2064 Y9.3264
G01 X12.1615 Y9.2964
G01 X12.0781 Y9.2464
G01 X12.0607 Y9.2371
G01 X12.9463 Y9.2371
G01 X13.0116 Y9.2855
G01 X13.0565 Y9.3155
G01 X13.0669 Y9.3218
G00 Z2.0000
G00 X13.3400 Y6.6463
G01 F60.00
G01 Z-0.0700
G01 F120.00
G01 X13.3186 Y6.6540
G01 X13.2687 Y6.6746
G01 X13.1842 Y6.7146
G01 X13.1366 Y6.7400
G01 X13.0565 Y6.7881
G01 X13.0116 Y6.8181
G01 X12.9365 Y6.8737
G01 X12.8948 Y6.9080
G01 X12.8845 Y6.9173
G01 X8.7606 Y6.9173
G01 X8.7329 Y6.9180
G01 X8.6762 Y6.9209
G01 X8.6469 Y6.9231
G01 X8.6194 Y6.9266
G01 X8.5633 Y6.9350
G01 X8.5360 Y6.9397
G01 X8.5073 Y6.9462
G01 X8.4523 Y6.9600
G01 X8.4240 Y6.9679
G01 X8.3977 Y6.9767
G01 X8.3443 Y6.9959
G01 X8.3169 Y7.0065
G01 X8.2916 Y7.0178
G01 X8.2403 Y7.0421
G01 X8.2141 Y7.0554
G01 X8.1900 Y7.0691
G01 X8.1414 Y7.0983
G01 X8.1166 Y7.1141
G01 X8.0940 Y7.1301
G01 X8.0484 Y7.1640
G01 X8.0266 Y7.1811
G01 X8.0044 Y7.2002
G01 X7.9624 Y7.2384
G01 X7.9411 Y7.2587
G01 X7.9221 Y7.2788
G01 X7.8840 Y7.3209
G01 X7.8649 Y7.3432
G01 X7.8479 Y7.3651
G01 X7.8141 Y7.4107
G01 X7.7973 Y7.4348
G01 X7.7825 Y7.4582
G01 X7.7534 Y7.5069
G01 X7.7389 Y7.5325
G01 X7.7265 Y7.5573
G01 X7.7023 Y7.6086
G01 X7.6911 Y7.6340
G01 X7.6777 Y7.5900
G01 X7.6462 Y7.5020
G01 X7.6256 Y7.4521
G01 X7.5856 Y7.3676
G01 X7.5602 Y7.3200
G01 X7.5121 Y7.2399
G01 X7.4821 Y7.1950
G01 X7.4265 Y7.1199
G01 X7.4083 Y7.0978
G01 X7.4083 Y6.6463
G01 X13.3400 Y6.6463
G00 Z2.0000
G00 X15.2993 Y7.5952
G01 F60.00
G01 Z-0.0700
G01 F120.00
G01 X15.2977 Y7.5900
G01 X15.2662 Y7.5020
G01 X15.2456 Y7.4521
G01 X15.2056 Y7.3676
G01 X15.1802 Y7.3200
G01 X15.1321 Y7.2399
G01 X15.1021 Y7.1950
G01 X15.0465 Y7.1199
G01 X15.0122 Y7.0782
G01 X14.9494 Y7.0089
G01 X14.9113 Y6.9708
G01 X14.8420 Y6.9080
G01 X14.8003 Y6.8737
G01 X14.7252 Y6.8181
G01 X14.6803 Y6.7881
G01 X14.6002 Y6.7400
G01 X14.5526 Y6.7146
G01 X14.4681 Y6.6746
G01 X14.4182 Y6.6540
G01 X14.3968 Y6.6463
G01 X15.2993 Y6.6463
G01 X15.2993 Y7.5952
G00 Z2.0000
G00 X20.3285 Y9.6378
G01 F60.00
G01 Z-0.0700
G01 F120.00
G01 X20.3103 Y9.6599
G01 X20.2547 Y9.7350
G01 X20.2247 Y9.7799
G01 X20.1766 Y9.8600
G01 X20.1512 Y9.9076
G01 X20.1128 Y9.9888
G01 X20.1037 Y8.6333
G01 X20.1112 Y8.6515
G01 X20.1512 Y8.7360
G01 X20.1766 Y8.7836
G01 X20.2247 Y8.8637
G01 X20.2547 Y8.9086
G01 X20.3103 Y8.9837
G01 X20.3285 Y9.0058
G01 X20.3285 Y9.6378
G00 Z2.0000
G00 X20.6035 Y9.7420
G01 F60.00
G01 Z-0.0700
G01 F120.00
G01 X20.6035 Y8.9016
G01 X20.5483 Y8.8407
G01 X20.5312 Y8.8199
G01 X20.4755 Y8.7448
G01 X20.4606 Y8.7224
G01 X20.4125 Y8.6422
G01 X20.3998 Y8.6184
G01 X20.3598 Y8.5339
G01 X20.3495 Y8.5089
G01 X20.3180 Y8.4209
G01 X20.3102 Y8.3951
G01 X20.2874 Y8.3044
G01 X20.2822 Y8.2780
G01 X20.2685 Y8.1855
G01 X20.2658 Y8.1587
G01 X20.2612 Y8.0653
G01 X20.2612 Y8.0383
G01 X20.2658 Y7.9449
G01 X20.2685 Y7.9181
G01 X20.2822 Y7.8256
G01 X20.2874 Y7.7992
G01 X20.3102 Y7.7085
G01 X20.3180 Y7.6827
G01 X20.3495 Y7.5947
G01 X20.3598 Y7.5697
G01 X20.3998 Y7.4852
G01 X20.4125 Y7.4614
G01 X20.4606 Y7.3812
G01 X20.4755 Y7.3588
G01 X20.5312 Y7.2837
G01 X20.5483 Y7.2629
G01 X20.6111 Y7.1936
G01 X20.6302 Y7.1745
G01 X20.6995 Y7.1117
G01 X20.7203 Y7.0946
G01 X20.7954 Y7.0389
G01 X20.8178 Y7.0240
G01 X20.8980 Y6.9759
G01 X20.9218 Y6.9632
G01 X21.0063 Y6.9232
G01 X21.0313 Y6.9129
G01 X21.1193 Y6.8814
G01 X21.1451 Y6.8736
G01 X21.2358 Y6.8508
G01 X21.2622 Y6.8456
G01 X21.3547 Y6.8319
G01 X21.3815 Y6.8292
G01 X21.4749 Y6.8246
G01 X21.5019 Y6.8246
G01 X21.5953 Y6.8292
G01 X21.6221 Y6.8319
G01 X21.7146 Y6.8456
G01 X21.7410 Y6.8508
G01 X21.8317 Y6.8736
G01 X21.8575 Y6.8814
G01 X21.9455 Y6.9129
G01 X21.9705 Y6.9232
G01 X22.0550 Y6.9632
G01 X22.0788 Y6.9759
G01 X22.1590 Y7.0240
G01 X22.1814 Y7.0389
G01 X22.2565 Y7.0946
G01 X22.2773 Y7.1117
G01 X22.3466 Y7.1745
G01 X22.3644 Y7.1923
G01 X23.0378 Y7.1923
G01 X23.0513 Y7.1926
G01 X23.1111 Y7.1956
G01 X23.1379 Y7.1982
G01 X23.1459 Y7.1994
G01 X23.1511 Y7.1936
G01 X23.1702 Y7.1745
G01 X23.2395 Y7.1117
G01 X23.2603 Y7.0946
G01 X23.3354 Y7.0389
G01 X23.3578 Y7.0240
G01 X23.4380 Y6.9759
G01 X23.4618 Y6.9632
G01 X23.5463 Y6.9232
G01 X23.5713 Y6.9129
G01 X23.6593 Y6.8814
G01 X23.6851 Y6.8736
G01 X23.7758 Y6.8508
G01 X23.8022 Y6.8456
G01 X23.8947 Y6.8319
G01 X23.9215 Y6.8292
G01 X24.0149 Y6.8246
G01 X24.0419 Y6.8246
G01 X24.1353 Y6.8292
G01 X24.1621 Y6.8319
G01 X24.2546 Y6.8456
G01 X24.2810 Y6.8508
G01 X24.3717 Y6.8736
G01 X24.3975 Y6.8814
G01 X24.4855 Y6.9129
G01 X24.5105 Y6.9232
G01 X24.5950 Y6.9632
G01 X24.6188 Y6.9759
G01 X24.6990 Y7.0240
G01 X24.7214 Y7.0389
G01 X24.7965 Y7.0946
G01 X24.8173 Y7.1117
G01 X24.8866 Y7.1745
G01 X24.9057 Y7.1936
G01 X24.9685 Y7.2629
G01 X24.9856 Y7.2837
G01 X25.0413 Y7.3588
G01 X25.0562 Y7.3812
G01 X25.1043 Y7.4614
G01 X25.1170 Y7.4852
G01 X25.1570 Y7.5697
G01 X25.1673 Y7.5947
G01 X25.1988 Y7.6827
G01 X25.2066 Y7.7085
G01 X25.2294 Y7.7992
G01 X25.2346 Y7.8256
G01 X25.2483 Y7.9181
G01 X25.2510 Y7.9449
G01 X25.2556 Y8.0383
G01 X25.2556 Y8.0653
G01 X25.2510 Y8.1587
G01 X25.2483 Y8.1855
G01 X25.2346 Y8.2780
G01 X25.2294 Y8.3044
G01 X25.2066 Y8.3951
G01 X25.1988 Y8.4209
G01 X25.1673 Y8.5089
G01 X25.1570 Y8.5339
G01 X25.1170 Y8.6184
G01 X25.1043 Y8.6422
G01 X25.0562 Y8.7224
G01 X25.0413 Y8.7448
G01 X24.9856 Y8.8199
G01 X24.9685 Y8.8407
G01 X24.9057 Y8.9100
G01 X24.8866 Y8.9291
G01 X24.8173 Y8.9919
G01 X24.7965 Y9.0090
G01 X24.7214 Y9.0647
G01 X24.6990 Y9.0796
G01 X24.6188 Y9.1277
G01 X24.5950 Y9.1404
G01 X24.5105 Y9.1804
G01 X24.4855 Y9.1907
G01 X24.3975 Y9.2222
G01 X24.3717 Y9.2300
G01 X24.2810 Y9.2528
G01 X24.2546 Y9.2580
G01 X24.1621 Y9.2717
G01 X24.1353 Y9.2744
G01 X24.0419 Y9.2790
G01 X24.0149 Y9.2790
G01 X23.9215 Y9.2744
G01 X23.8947 Y9.2717
G01 X23.8022 Y9.2580
G01 X23.7758 Y9.2528
G01 X23.6851 Y9.2300
G01 X23.6593 Y9.2222
G01 X23.5713 Y9.1907
G01 X23.5463 Y9.1804
G01 X23.4618 Y9.1404
G01 X23.4380 Y9.1277
G01 X23.3578 Y9.0796
G01 X23.3354 Y9.0647
G01 X23.2603 Y9.0090
G01 X23.2395 Y8.9919
G01 X23.1914 Y8.9483
G01 X23.1379 Y8.9562
G01 X23.1111 Y8.9588
G01 X23.0513 Y8.9618
G01 X23.0378 Y8.9621
G01 X22.3733 Y8.9621
G01 X22.3733 Y9.7420
G01 X22.4285 Y9.8029
G01 X22.4456 Y9.8237
G01 X22.5013 Y9.8988
G01 X22.5162 Y9.9212
G01 X22.5643 Y10.0014
G01 X22.5770 Y10.0252
G01 X22.6170 Y10.1097
G01 X22.6273 Y10.1347
G01 X22.6588 Y10.2227
G01 X22.6666 Y10.2485
G01 X22.6894 Y10.3392
G01 X22.6946 Y10.3656
G01 X22.7083 Y10.4581
G01 X22.7110 Y10.4849
G01 X22.7156 Y10.5783
G01 X22.7156 Y10.6053
G01 X22.7110 Y10.6987
G01 X22.7083 Y10.7255
G01 X22.6946 Y10.8180
G01 X22.6894 Y10.8444
G01 X22.6666 Y10.9351
G01 X22.6588 Y10.9609
G01 X22.6273 Y11.0489
G01 X22.6170 Y11.0739
G01 X22.5770 Y11.1584
G01 X22.5643 Y11.1822
G01 X22.5162 Y11.2624
G01 X22.5013 Y11.2848
G01 X22.4456 Y11.3599
G01 X22.4285 Y11.3807
G01 X22.3657 Y11.4500
G01 X22.3466 Y11.4691
G01 X22.2773 Y11.5319
G01 X22.2565 Y11.5490
G01 X22.1814 Y11.6047
G01 X22.1590 Y11.6196
G01 X22.0788 Y11.6677
G01 X22.0550 Y11.6804
G01 X21.9705 Y11.7204
G01 X21.9455 Y11.7307
G01 X21.8575 Y11.7622
G01 X21.8317 Y11.7700
G01 X21.7410 Y11.7928
G01 X21.7146 Y11.7980
G01 X21.6221 Y11.8117
G01 X21.5953 Y11.8144
G01 X21.5019 Y11.8190
G01 X21.4749 Y11.8190
G01 X21.3815 Y11.8144
G01 X21.3547 Y11.8117
G01 X21.2622 Y11.7980
G01 X21.2358 Y11.7928
G01 X21.1451 Y11.7700
G01 X21.1193 Y11.7622
G01 X21.0313 Y11.7307
G01 X21.0063 Y11.7204
G01 X20.9218 Y11.6804
G01 X20.8980 Y11.6677
G01 X20.8178 Y11.6196
G01 X20.7954 Y11.6047
G01 X20.7203 Y11.5490
G01 X20.6995 Y11.5319
G01 X20.6302 Y11.4691
G01 X20.6111 Y11.4500
G01 X20.5483 Y11.3807
G01 X20.5312 Y11.3599
G01 X20.4755 Y11.2848
G01 X20.4606 Y11.2624
G01 X20.4125 Y11.1822
G01 X20.3998 Y11.1584
G01 X20.3598 Y11.0739
G01 X20.3495 Y11.0489
G01 X20.3180 Y10.9609
G01 X20.3102 Y10.9351
G01 X20.2874 Y10.8444
G01 X20.2822 Y10.8180
G01 X20.2685 Y10.7255
G01 X20.2658 Y10.6987
G01 X20.2612 Y10.6053
G01 X20.2612 Y10.5783
G01 X20.2658 Y10.4849
G01 X20.2685 Y10.4581
G01 X20.2822 Y10.3656
G01 X20.2874 Y10.3392
G01 X20.3102 Y10.2485
G01 X20.3180 Y10.2227
G01 X20.3495 Y10.1347
G01 X20.3598 Y10.1097
G01 X20.3998 Y10.0252
G01 X20.4125 Y10.0014
G01 X20.4606 Y9.9212
G01 X20.4755 Y9.8988
G01 X20.5312 Y9.8237
G01 X20.5483 Y9.8029
G01 X20.6035 Y9.7420
G00 Z2.0000
G00 X20.1210 Y11.2122
G01 F60.00
G01 Z-0.0700
G01 F120.00
G01 X20.1512 Y11.2760
G01 X20.1766 Y11.3236
G01 X20.2247 Y11.4037
G01 X20.2547 Y11.4486
G01 X20.3103 Y11.5237
G01 X20.3446 Y11.5654
G01 X20.4074 Y11.6347
G01 X20.4455 Y11.6728
G01 X20.5148 Y11.7356
G01 X20.5565 Y11.7699
G01 X20.6316 Y11.8255
G01 X20.6765 Y11.8555
G01 X20.6869 Y11.8618
G01 X20.6765 Y11.8681
G01 X20.6316 Y11.8981
G01 X20.5565 Y11.9537
G01 X20.5386 Y11.9684
G01 X20.1261 Y11.9626
G01 X20.1210 Y11.2122
G00 Z2.0000
G00 X22.2899 Y11.8618
G01 F60.00
G01 Z-0.0700
G01 F120.00
G01 X22.3003 Y11.8555
G01 X22.3452 Y11.8255
G01 X22.4203 Y11.7699
G01 X22.4620 Y11.7356
G01 X22.5313 Y11.6728
G01 X22.5694 Y11.6347
G01 X22.6322 Y11.5654
G01 X22.6665 Y11.5237
G01 X22.7221 Y11.4486
G01 X22.7521 Y11.4037
G01 X22.8002 Y11.3236
G01 X22.8256 Y11.2760
G01 X22.8656 Y11.1915
G01 X22.8862 Y11.1416
G01 X22.9177 Y11.0536
G01 X22.9334 Y11.0019
G01 X22.9561 Y10.9113
G01 X22.9666 Y10.8583
G01 X22.9804 Y10.7659
G01 X22.9856 Y10.7121
G01 X22.9902 Y10.6188
G01 X22.9902 Y10.5648
G01 X22.9856 Y10.4715
G01 X22.9804 Y10.4177
G01 X22.9666 Y10.3253
G01 X22.9561 Y10.2723
G01 X22.9334 Y10.1817
G01 X22.9177 Y10.1300
G01 X22.8862 Y10.0420
G01 X22.8656 Y9.9921
G01 X22.8256 Y9.9076
G01 X22.8002 Y9.8600
G01 X22.7521 Y9.7799
G01 X22.7221 Y9.7350
G01 X22.6665 Y9.6599
G01 X22.6483 Y9.6378
G01 X22.6483 Y9.2371
G01 X23.0378 Y9.2371
G01 X23.0648 Y9.2364
G01 X23.1029 Y9.2346
G01 X23.1716 Y9.2855
G01 X23.2165 Y9.3155
G01 X23.2966 Y9.3636
G01 X23.3442 Y9.3890
G01 X23.4287 Y9.4290
G01 X23.4786 Y9.4496
G01 X23.5666 Y9.4811
G01 X23.6183 Y9.4968
G01 X23.7089 Y9.5195
G01 X23.7619 Y9.5300
G01 X23.8543 Y9.5438
G01 X23.9081 Y9.5490
G01 X24.0014 Y9.5536
G01 X24.0554 Y9.5536
G01 X24.1487 Y9.5490
G01 X24.2025 Y9.5438
G01 X24.2949 Y9.5300
G01 X24.3479 Y9.5195
G01 X24.4385 Y9.4968
G01 X24.4902 Y9.4811
G01 X24.5782 Y9.4496
G01 X24.6281 Y9.4290
G01 X24.7126 Y9.3890
G01 X24.7602 Y9.3636
G01 X24.8403 Y9.3155
G01 X24.8852 Y9.2855
G01 X24.9603 Y9.2299
G01 X25.0020 Y9.1956
G01 X25.0713 Y9.1328
G01 X25.1094 Y9.0947
G01 X25.1722 Y9.0254
G01 X25.2065 Y8.9837
G01 X25.2621 Y8.9086
G01 X25.2921 Y8.8637
G01 X25.3402 Y8.7836
G01 X25.3656 Y8.7360
G01 X25.4056 Y8.6515
G01 X25.4262 Y8.6016
G01 X25.4577 Y8.5136
G01 X25.4734 Y8.4619
G01 X25.4961 Y8.3713
G01 X25.5066 Y8.3183
G01 X25.5204 Y8.2259
G01 X25.5256 Y8.1721
G01 X25.5302 Y8.0788
G01 X25.5302 Y8.0248
G01 X25.5256 Y7.9315
G01 X25.5204 Y7.8777
G01 X25.5066 Y7.7853
G01 X25.4961 Y7.7323
G01 X25.4734 Y7.6417
G01 X25.4577 Y7.5900
G01 X25.4262 Y7.5020
G01 X25.4056 Y7.4521
G01 X25.3656 Y7.3676
G01 X25.3402 Y7.3200
G01 X25.2921 Y7.2399
G01 X25.2621 Y7.1950
G01 X25.2065 Y7.1199
G01 X25.1722 Y7.0782
G01 X25.1094 Y7.0089
G01 X25.0713 Y6.9708
G01 X25.0020 Y6.9080
G01 X24.9603 Y6.8737
G01 X24.8852 Y6.8181
G01 X24.8403 Y6.7881
G01 X24.7602 Y6.7400
G01 X24.7126 Y6.7146
G01 X24.6756 Y6.6971
G01 X27.9485 Y6.6971
G01 X27.9485 Y9.5504
G01 X27.9492 Y9.5785
G01 X27.9351 Y9.5940
G01 X27.9009 Y9.6357
G01 X27.8430 Y9.7138
G01 X27.8130 Y9.7587
G01 X27.7630 Y9.8421
G01 X27.7376 Y9.8897
G01 X27.6960 Y9.9776
G01 X27.6754 Y10.0274
G01 X27.6426 Y10.1190
G01 X27.6269 Y10.1706
G01 X27.6033 Y10.2649
G01 X27.5928 Y10.3178
G01 X27.5785 Y10.4140
G01 X27.5732 Y10.4677
G01 X27.5685 Y10.5648
G01 X27.5685 Y10.6188
G01 X27.5732 Y10.7159
G01 X27.5785 Y10.7696
G01 X27.5928 Y10.8658
G01 X27.6033 Y10.9187
G01 X27.6269 Y11.0130
G01 X27.6426 Y11.0646
G01 X27.6754 Y11.1562
G01 X27.6960 Y11.2060
G01 X27.7376 Y11.2939
G01 X27.7630 Y11.3415
G01 X27.8130 Y11.4249
G01 X27.8430 Y11.4698
G01 X27.9009 Y11.5479
G01 X27.9351 Y11.5896
G01 X28.0004 Y11.6616
G01 X28.0386 Y11.6998
G01 X28.1106 Y11.7651
G01 X28.1523 Y11.7993
G01 X28.2304 Y11.8572
G01 X28.2373 Y11.8618
G01 X28.2304 Y11.8664
G01 X28.1523 Y11.9243
G01 X28.1106 Y11.9585
G01 X28.0951 Y11.9726
G01 X28.0744 Y11.9719
G01 X24.0810 Y11.9465
G01 X24.0522 Y11.9472
G01 X23.9998 Y11.9496
G01 X23.9673 Y11.9519
G01 X23.9387 Y11.9554
G01 X23.8868 Y11.9629
G01 X23.8584 Y11.9677
G01 X23.8266 Y11.9747
G01 X23.7756 Y11.9873
G01 X23.7479 Y11.9948
G01 X23.7169 Y12.0049
G01 X23.6674 Y12.0224
G01 X23.6369 Y12.0341
G01 X23.6106 Y12.0457
G01 X23.5631 Y12.0680
G01 X23.5374 Y12.0808
G01 X23.5089 Y12.0968
G01 X23.4638 Y12.1236
G01 X23.4395 Y12.1389
G01 X23.4127 Y12.1575
G01 X23.3705 Y12.1886
G01 X23.3477 Y12.2062
G01 X23.3229 Y12.2274
G01 X23.2839 Y12.2625
G01 X23.2630 Y12.2823
G01 X23.2404 Y12.3058
G01 X23.2051 Y12.3445
G01 X23.1837 Y12.3692
G01 X23.1660 Y12.3918
G01 X23.1346 Y12.4339
G01 X23.1179 Y12.4573
G01 X23.1003 Y12.4848
G01 X23.0732 Y12.5297
G01 X23.0589 Y12.5547
G01 X23.0441 Y12.5837
G01 X23.0215 Y12.6311
G01 X23.0083 Y12.6609
G01 X22.9979 Y12.6877
G01 X22.9800 Y12.7371
G01 X22.9709 Y12.7643
G01 X22.9620 Y12.7957
G01 X22.9569 Y12.8163
G01 X22.9334 Y12.7217
G01 X22.9177 Y12.6700
G01 X22.8862 Y12.5820
G01 X22.8656 Y12.5321
G01 X22.8256 Y12.4476
G01 X22.8002 Y12.4000
G01 X22.7521 Y12.3199
G01 X22.7221 Y12.2750
G01 X22.6665 Y12.1999
G01 X22.6322 Y12.1582
G01 X22.5694 Y12.0889
G01 X22.5313 Y12.0508
G01 X22.4620 Y11.9880
G01 X22.4203 Y11.9537
G01 X22.3452 Y11.8981
G01 X22.3003 Y11.8681
G01 X22.2899 Y11.8618
G00 Z2.0000
G00 X22.2899 Y14.4018
G01 F60.00
G01 Z-0.0700
G01 F120.00
G01 X22.3003 Y14.3955
G01 X22.3452 Y14.3655
G01 X22.4203 Y14.3099
G01 X22.4620 Y14.2756
G01 X22.5313 Y14.2128
G01 X22.5694 Y14.1747
G01 X22.6322 Y14.1054
G01 X22.6665 Y14.0637
G01 X22.7221 Y13.9886
G01 X22.7521 Y13.9437
G01 X22.8002 Y13.8636
G01 X22.8256 Y13.8160
G01 X22.8656 Y13.7315
G01 X22.8862 Y13.6816
G01 X22.9177 Y13.5936
G01 X22.9193 Y13.5884
G01 X22.9193 Y14.5373
G01 X22.4723 Y14.5373
G01 X22.4620 Y14.5280
G01 X22.4203 Y14.4937
G01 X22.3452 Y14.4381
G01 X22.3003 Y14.4081
G01 X22.2899 Y14.4018
G00 Z2.0000
G00 X22.3102 Y16.5821
G01 F60.00
G01 Z-0.0700
G01 F120.00
G01 X22.2773 Y16.6119
G01 X22.2565 Y16.6290
G01 X22.1814 Y16.6847
G01 X22.1590 Y16.6996
G01 X22.0788 Y16.7477
G01 X22.0550 Y16.7604
G01 X21.9705 Y16.8004
G01 X21.9455 Y16.8107
G01 X21.8575 Y16.8422
G01 X21.8317 Y16.8500
G01 X21.7410 Y16.8728
G01 X21.7146 Y16.8780
G01 X21.6221 Y16.8917
G01 X21.5953 Y16.8944
G01 X21.5019 Y16.8990
G01 X21.4749 Y16.8990
G01 X21.3815 Y16.8944
G01 X21.3547 Y16.8917
G01 X21.2622 Y16.8780
G01 X21.2358 Y16.8728
G01 X21.1451 Y16.8500
G01 X21.1193 Y16.8422
G01 X21.0313 Y16.8107
G01 X21.0063 Y16.8004
G01 X20.9218 Y16.7604
G01 X20.8980 Y16.7477
G01 X20.8178 Y16.6996
G01 X20.7954 Y16.6847
G01 X20.7203 Y16.6290
G01 X20.6995 Y16.6119
G01 X20.6302 Y16.5491
G01 X20.6111 Y16.5300
G01 X20.5483 Y16.4607
G01 X20.5312 Y16.4399
G01 X20.4755 Y16.3648
G01 X20.4606 Y16.3424
G01 X20.4125 Y16.2622
G01 X20.3998 Y16.2384
G01 X20.3598 Y16.1539
G01 X20.3495 Y16.1289
G01 X20.3180 Y16.0409
G01 X20.3102 Y16.0151
G01 X20.2874 Y15.9244
G01 X20.2822 Y15.8980
G01 X20.2685 Y15.8055
G01 X20.2658 Y15.7787
G01 X20.2612 Y15.6853
G01 X20.2612 Y15.6583
G01 X20.2658 Y15.5649
G01 X20.2685 Y15.5381
G01 X20.2822 Y15.4456
G01 X20.2874 Y15.4192
G01 X20.3102 Y15.3285
G01 X20.3180 Y15.3027
G01 X20.3495 Y15.2147
G01 X20.3598 Y15.1897
G01 X20.3998 Y15.1052
G01 X20.4125 Y15.0814
G01 X20.4606 Y15.0012
G01 X20.4755 Y14.9788
G01 X20.5312 Y14.9037
G01 X20.5483 Y14.8829
G01 X20.6111 Y14.8136
G01 X20.6302 Y14.7945
G01 X20.6995 Y14.7317
G01 X20.7203 Y14.7146
G01 X20.7954 Y14.6589
G01 X20.8178 Y14.6440
G01 X20.8980 Y14.5959
G01 X20.9218 Y14.5832
G01 X21.0063 Y14.5432
G01 X21.0313 Y14.5329
G01 X21.1193 Y14.5014
G01 X21.1451 Y14.4936
G01 X21.2358 Y14.4708
G01 X21.2622 Y14.4656
G01 X21.3547 Y14.4519
G01 X21.3815 Y14.4492
G01 X21.4749 Y14.4446
G01 X21.5019 Y14.4446
G01 X21.5953 Y14.4492
G01 X21.6221 Y14.4519
G01 X21.7146 Y14.4656
G01 X21.7410 Y14.4708
G01 X21.8317 Y14.4936
G01 X21.8575 Y14.5014
G01 X21.9455 Y14.5329
G01 X21.9705 Y14.5432
G01 X22.0550 Y14.5832
G01 X22.0788 Y14.5959
G01 X22.1590 Y14.6440
G01 X22.1814 Y14.6589
G01 X22.2565 Y14.7146
G01 X22.2773 Y14.7317
G01 X22.3466 Y14.7945
G01 X22.3644 Y14.8123
G01 X23.1943 Y14.8123
G01 X23.1943 Y13.1016
G01 X23.1947 Y13.0873
G01 X23.1976 Y13.0331
G01 X23.1990 Y13.0149
G01 X23.2009 Y13.0007
G01 X23.2090 Y12.9471
G01 X23.2115 Y12.9329
G01 X23.2155 Y12.9151
G01 X23.2288 Y12.8625
G01 X23.2338 Y12.8450
G01 X23.2384 Y12.8313
G01 X23.2568 Y12.7804
G01 X23.2635 Y12.7634
G01 X23.2694 Y12.7503
G01 X23.2927 Y12.7013
G01 X23.3010 Y12.6851
G01 X23.3082 Y12.6726
G01 X23.3362 Y12.6262
G01 X23.3461 Y12.6108
G01 X23.3544 Y12.5991
G01 X23.3869 Y12.5557
G01 X23.3982 Y12.5414
G01 X23.4076 Y12.5305
G01 X23.4442 Y12.4905
G01 X23.4541 Y12.4801
G01 X23.4673 Y12.4675
G01 X23.5076 Y12.4312
G01 X23.5185 Y12.4218
G01 X23.5329 Y12.4106
G01 X23.5765 Y12.3784
G01 X23.5883 Y12.3701
G01 X23.6037 Y12.3604
G01 X23.6503 Y12.3326
G01 X23.6663 Y12.3238
G01 X23.6791 Y12.3174
G01 X23.7282 Y12.2943
G01 X23.7450 Y12.2870
G01 X23.7584 Y12.2819
G01 X23.8095 Y12.2638
G01 X23.8269 Y12.2582
G01 X23.8408 Y12.2545
G01 X23.8934 Y12.2415
G01 X23.9112 Y12.2376
G01 X23.9254 Y12.2352
G01 X23.9791 Y12.2274
G01 X23.9972 Y12.2253
G01 X24.0115 Y12.2243
G01 X24.0657 Y12.2218
G01 X24.0801 Y12.2215
G01 X28.0726 Y12.2469
G01 X28.0861 Y12.2473
G01 X28.1459 Y12.2507
G01 X28.1727 Y12.2535
G01 X28.1949 Y12.2569
G01 X28.2042 Y12.2467
G01 X28.2233 Y12.2276
G01 X28.2953 Y12.1623
G01 X28.3162 Y12.1452
G01 X28.3942 Y12.0873
G01 X28.4167 Y12.0723
G01 X28.5001 Y12.0223
G01 X28.5239 Y12.0096
G01 X28.6117 Y11.9680
G01 X28.6367 Y11.9577
G01 X28.7282 Y11.9249
G01 X28.7540 Y11.9171
G01 X28.8483 Y11.8935
G01 X28.8748 Y11.8882
G01 X28.9710 Y11.8739
G01 X28.9978 Y11.8713
G01 X29.0949 Y11.8665
G01 X29.1219 Y11.8665
G01 X29.2190 Y11.8713
G01 X29.2458 Y11.8739
G01 X29.3420 Y11.8882
G01 X29.3685 Y11.8935
G01 X29.4628 Y11.9171
G01 X29.4886 Y11.9249
G01 X29.5801 Y11.9577
G01 X29.6051 Y11.9680
G01 X29.6929 Y12.0096
G01 X29.7167 Y12.0223
G01 X29.8001 Y12.0723
G01 X29.8226 Y12.0873
G01 X29.9006 Y12.1452
G01 X29.9215 Y12.1623
G01 X29.9935 Y12.2276
G01 X30.0126 Y12.2467
G01 X30.0779 Y12.3187
G01 X30.0950 Y12.3396
G01 X30.1529 Y12.4176
G01 X30.1679 Y12.4401
G01 X30.2179 Y12.5235
G01 X30.2306 Y12.5473
G01 X30.2722 Y12.6351
G01 X30.2825 Y12.6601
G01 X30.3153 Y12.7516
G01 X30.3231 Y12.7774
G01 X30.3467 Y12.8717
G01 X30.3520 Y12.8982
G01 X30.3663 Y12.9944
G01 X30.3689 Y13.0212
G01 X30.3737 Y13.1183
G01 X30.3737 Y13.1453
G01 X30.3689 Y13.2424
G01 X30.3663 Y13.2692
G01 X30.3520 Y13.3654
G01 X30.3467 Y13.3919
G01 X30.3231 Y13.4862
G01 X30.3153 Y13.5120
G01 X30.2825 Y13.6035
G01 X30.2722 Y13.6285
G01 X30.2306 Y13.7163
G01 X30.2179 Y13.7401
G01 X30.1679 Y13.8235
G01 X30.1529 Y13.8460
G01 X30.0950 Y13.9240
G01 X30.0779 Y13.9449
G01 X30.0126 Y14.0169
G01 X29.9935 Y14.0360
G01 X29.9215 Y14.1013
G01 X29.9006 Y14.1184
G01 X29.8226 Y14.1763
G01 X29.8001 Y14.1913
G01 X29.7167 Y14.2413
G01 X29.6929 Y14.2540
G01 X29.6051 Y14.2956
G01 X29.5801 Y14.3059
G01 X29.4886 Y14.3387
G01 X29.4628 Y14.3465
G01 X29.3685 Y14.3701
G01 X29.3420 Y14.3754
G01 X29.2458 Y14.3897
G01 X29.2190 Y14.3923
G01 X29.1219 Y14.3971
G01 X29.0949 Y14.3971
G01 X28.9978 Y14.3923
G01 X28.9710 Y14.3897
G01 X28.8748 Y14.3754
G01 X28.8483 Y14.3701
G01 X28.7540 Y14.3465
G01 X28.7282 Y14.3387
G01 X28.6367 Y14.3059
G01 X28.6117 Y14.2956
G01 X28.5239 Y14.2540
G01 X28.5001 Y14.2413
G01 X28.4167 Y14.1913
G01 X28.3942 Y14.1763
G01 X28.3162 Y14.1184
G01 X28.2953 Y14.1013
G01 X28.2233 Y14.0360
G01 X28.2042 Y14.0169
G01 X28.1949 Y14.0067
G01 X28.1615 Y14.0114
G01 X28.1347 Y14.0139
G01 X28.0749 Y14.0164
G01 X28.0614 Y14.0167
G01 X24.9641 Y13.9970
G01 X24.9641 Y15.6972
G01 X24.9638 Y15.7107
G01 X24.9608 Y15.7705
G01 X24.9582 Y15.7973
G01 X24.9494 Y15.8565
G01 X24.9441 Y15.8830
G01 X24.9296 Y15.9411
G01 X24.9218 Y15.9669
G01 X24.9016 Y16.0232
G01 X24.8913 Y16.0482
G01 X24.8657 Y16.1023
G01 X24.8530 Y16.1261
G01 X24.8222 Y16.1774
G01 X24.8072 Y16.1999
G01 X24.7831 Y16.2323
G01 X24.7715 Y16.2479
G01 X24.7544 Y16.2688
G01 X24.7142 Y16.3131
G01 X24.6951 Y16.3322
G01 X24.6508 Y16.3724
G01 X24.6299 Y16.3895
G01 X24.5819 Y16.4252
G01 X24.5594 Y16.4402
G01 X24.5375 Y16.4534
G01 X24.5081 Y16.4710
G01 X24.4843 Y16.4837
G01 X24.4302 Y16.5093
G01 X24.4052 Y16.5196
G01 X24.3489 Y16.5398
G01 X24.3231 Y16.5476
G01 X24.2650 Y16.5621
G01 X24.2385 Y16.5674
G01 X24.1793 Y16.5762
G01 X24.1525 Y16.5788
G01 X24.0927 Y16.5818
G01 X24.0792 Y16.5821
G01 X22.3102 Y16.5821
G00 Z2.0000
G00 X22.4105 Y16.8571
G01 F60.00
G01 Z-0.0700
G01 F120.00
G01 X24.0792 Y16.8571
G01 X24.1062 Y16.8564
G01 X24.1660 Y16.8535
G01 X24.2197 Y16.8482
G01 X24.2789 Y16.8394
G01 X24.3318 Y16.8289
G01 X24.3899 Y16.8144
G01 X24.4415 Y16.7987
G01 X24.4979 Y16.7785
G01 X24.5478 Y16.7579
G01 X24.6019 Y16.7323
G01 X24.6495 Y16.7068
G01 X24.6788 Y16.6892
G01 X24.7008 Y16.6761
G01 X24.7457 Y16.6461
G01 X24.7938 Y16.6104
G01 X24.8355 Y16.5762
G01 X24.8798 Y16.5360
G01 X24.9180 Y16.4978
G01 X24.9582 Y16.4535
G01 X24.9924 Y16.4118
G01 X25.0040 Y16.3961
G01 X25.0281 Y16.3637
G01 X25.0581 Y16.3188
G01 X25.0888 Y16.2675
G01 X25.1143 Y16.2199
G01 X25.1399 Y16.1658
G01 X25.1605 Y16.1159
G01 X25.1807 Y16.0595
G01 X25.1964 Y16.0079
G01 X25.2109 Y15.9498
G01 X25.2214 Y15.8969
G01 X25.2302 Y15.8377
G01 X25.2355 Y15.7840
G01 X25.2384 Y15.7242
G01 X25.2391 Y15.6972
G01 X25.2391 Y14.2737
G01 X28.0596 Y14.2917
G01 X28.0949 Y14.2908
G01 X28.1106 Y14.3051
G01 X28.1523 Y14.3393
G01 X28.2304 Y14.3972
G01 X28.2373 Y14.4018
G01 X28.2304 Y14.4064
G01 X28.1523 Y14.4643
G01 X28.1106 Y14.4985
G01 X28.0678 Y14.5373
G01 X26.5938 Y14.5373
G01 X26.5668 Y14.5380
G01 X26.5070 Y14.5409
G01 X26.4533 Y14.5462
G01 X26.3941 Y14.5550
G01 X26.3412 Y14.5655
G01 X26.2831 Y14.5800
G01 X26.2315 Y14.5957
G01 X26.1751 Y14.6159
G01 X26.1252 Y14.6365
G01 X26.0711 Y14.6621
G01 X26.0235 Y14.6876
G01 X25.9722 Y14.7183
G01 X25.9273 Y14.7483
G01 X25.8792 Y14.7840
G01 X25.8375 Y14.8182
G01 X25.7932 Y14.8584
G01 X25.7550 Y14.8966
G01 X25.7148 Y14.9409
G01 X25.6806 Y14.9826
G01 X25.6449 Y15.0307
G01 X25.6149 Y15.0756
G01 X25.5842 Y15.1269
G01 X25.5587 Y15.1745
G01 X25.5331 Y15.2286
G01 X25.5125 Y15.2785
G01 X25.4923 Y15.3349
G01 X25.4766 Y15.3865
G01 X25.4621 Y15.4446
G01 X25.4516 Y15.4975
G01 X25.4428 Y15.5567
G01 X25.4375 Y15.6104
G01 X25.4346 Y15.6702
G01 X25.4339 Y15.6972
G01 X25.4339 Y17.0519
G01 X22.5044 Y17.0519
G01 X22.4774 Y17.0526
G01 X22.4451 Y17.0541
G01 X22.4203 Y17.0337
G01 X22.3452 Y16.9781
G01 X22.3003 Y16.9481
G01 X22.2899 Y16.9418
G01 X22.3003 Y16.9355
G01 X22.3452 Y16.9055
G01 X22.4105 Y16.8571
G00 Z2.0000
G00 X22.3526 Y19.0831
G01 F60.00
G01 Z-0.0700
G01 F120.00
G01 X22.3466 Y19.0891
G01 X22.2773 Y19.1519
G01 X22.2565 Y19.1690
G01 X22.1814 Y19.2247
G01 X22.1590 Y19.2396
G01 X22.0788 Y19.2877
G01 X22.0550 Y19.3004
G01 X21.9705 Y19.3404
G01 X21.9455 Y19.3507
G01 X21.8575 Y19.3822
G01 X21.8317 Y19.3900
G01 X21.7410 Y19.4128
G01 X21.7146 Y19.4180
G01 X21.6221 Y19.4317
G01 X21.5953 Y19.4344
G01 X21.5019 Y19.4390
G01 X21.4749 Y19.4390
G01 X21.3815 Y19.4344
G01 X21.3547 Y19.4317
G01 X21.2622 Y19.4180
G01 X21.2358 Y19.4128
G01 X21.1451 Y19.3900
G01 X21.1193 Y19.3822
G01 X21.0313 Y19.3507
G01 X21.0063 Y19.3404
G01 X20.9218 Y19.3004
G01 X20.8980 Y19.2877
G01 X20.8178 Y19.2396
G01 X20.7954 Y19.2247
G01 X20.7203 Y19.1690
G01 X20.6995 Y19.1519
G01 X20.6302 Y19.0891
G01 X20.6111 Y19.0700
G01 X20.5483 Y19.0007
G01 X20.5312 Y18.9799
G01 X20.4755 Y18.9048
G01 X20.4606 Y18.8824
G01 X20.4125 Y18.8022
G01 X20.3998 Y18.7784
G01 X20.3598 Y18.6939
G01 X20.3495 Y18.6689
G01 X20.3180 Y18.5809
G01 X20.3102 Y18.5551
G01 X20.2874 Y18.4644
G01 X20.2822 Y18.4380
G01 X20.2685 Y18.3455
G01 X20.2658 Y18.3187
G01 X20.2612 Y18.2253
G01 X20.2612 Y18.1983
G01 X20.2658 Y18.1049
G01 X20.2685 Y18.0781
G01 X20.2822 Y17.9856
G01 X20.2874 Y17.9592
G01 X20.3102 Y17.8685
G01 X20.3180 Y17.8427
G01 X20.3495 Y17.7547
G01 X20.3598 Y17.7297
G01 X20.3998 Y17.6452
G01 X20.4125 Y17.6214
G01 X20.4606 Y17.5412
G01 X20.4755 Y17.5188
G01 X20.5312 Y17.4437
G01 X20.5483 Y17.4229
G01 X20.6111 Y17.3536
G01 X20.6302 Y17.3345
G01 X20.6995 Y17.2717
G01 X20.7203 Y17.2546
G01 X20.7954 Y17.1989
G01 X20.8178 Y17.1840
G01 X20.8980 Y17.1359
G01 X20.9218 Y17.1232
G01 X21.0063 Y17.0832
G01 X21.0313 Y17.0729
G01 X21.1193 Y17.0414
G01 X21.1451 Y17.0336
G01 X21.2358 Y17.0108
G01 X21.2622 Y17.0056
G01 X21.3547 Y16.9919
G01 X21.3815 Y16.9892
G01 X21.4749 Y16.9846
G01 X21.5019 Y16.9846
G01 X21.5953 Y16.9892
G01 X21.6221 Y16.9919
G01 X21.7146 Y17.0056
G01 X21.7410 Y17.0108
G01 X21.8317 Y17.0336
G01 X21.8575 Y17.0414
G01 X21.9455 Y17.0729
G01 X21.9705 Y17.0832
G01 X22.0550 Y17.1232
G01 X22.0788 Y17.1359
G01 X22.1590 Y17.1840
G01 X22.1814 Y17.1989
G01 X22.2565 Y17.2546
G01 X22.2773 Y17.2717
G01 X22.3466 Y17.3345
G01 X22.3526 Y17.3405
G01 X22.4043 Y17.3328
G01 X22.4311 Y17.3302
G01 X22.4909 Y17.3272
G01 X22.5044 Y17.3269
G01 X25.7089 Y17.3269
G01 X25.7089 Y15.6972
G01 X25.7092 Y15.6837
G01 X25.7122 Y15.6239
G01 X25.7148 Y15.5971
G01 X25.7236 Y15.5379
G01 X25.7289 Y15.5114
G01 X25.7434 Y15.4533
G01 X25.7512 Y15.4275
G01 X25.7714 Y15.3712
G01 X25.7817 Y15.3462
G01 X25.8073 Y15.2921
G01 X25.8200 Y15.2683
G01 X25.8508 Y15.2170
G01 X25.8658 Y15.1945
G01 X25.9015 Y15.1465
G01 X25.9186 Y15.1256
G01 X25.9588 Y15.0813
G01 X25.9779 Y15.0622
G01 X26.0222 Y15.0220
G01 X26.0431 Y15.0049
G01 X26.0911 Y14.9692
G01 X26.1136 Y14.9542
G01 X26.1649 Y14.9234
G01 X26.1887 Y14.9107
G01 X26.2428 Y14.8851
G01 X26.2678 Y14.8748
G01 X26.3241 Y14.8546
G01 X26.3499 Y14.8468
G01 X26.4080 Y14.8323
G01 X26.4345 Y14.8270
G01 X26.4937 Y14.8182
G01 X26.5205 Y14.8156
G01 X26.5803 Y14.8126
G01 X26.5938 Y14.8123
G01 X28.1809 Y14.8123
G01 X28.2042 Y14.7867
G01 X28.2233 Y14.7676
G01 X28.2953 Y14.7023
G01 X28.3162 Y14.6852
G01 X28.3942 Y14.6273
G01 X28.4167 Y14.6123
G01 X28.5001 Y14.5623
G01 X28.5239 Y14.5496
G01 X28.6117 Y14.5080
G01 X28.6367 Y14.4977
G01 X28.7282 Y14.4649
G01 X28.7540 Y14.4571
G01 X28.8483 Y14.4335
G01 X28.8748 Y14.4282
G01 X28.9710 Y14.4139
G01 X28.9978 Y14.4113
G01 X29.0949 Y14.4065
G01 X29.1219 Y14.4065
G01 X29.2190 Y14.4113
G01 X29.2458 Y14.4139
G01 X29.3420 Y14.4282
G01 X29.3685 Y14.4335
G01 X29.4628 Y14.4571
G01 X29.4886 Y14.4649
G01 X29.5801 Y14.4977
G01 X29.6051 Y14.5080
G01 X29.6929 Y14.5496
G01 X29.7167 Y14.5623
G01 X29.8001 Y14.6123
G01 X29.8226 Y14.6273
G01 X29.9006 Y14.6852
G01 X29.9215 Y14.7023
G01 X29.9935 Y14.7676
G01 X30.0126 Y14.7867
G01 X30.0779 Y14.8587
G01 X30.0950 Y14.8796
G01 X30.1529 Y14.9576
G01 X30.1679 Y14.9801
G01 X30.2179 Y15.0635
G01 X30.2306 Y15.0873
G01 X30.2722 Y15.1751
G01 X30.2825 Y15.2001
G01 X30.3153 Y15.2916
G01 X30.3231 Y15.3174
G01 X30.3467 Y15.4117
G01 X30.3520 Y15.4382
G01 X30.3663 Y15.5344
G01 X30.3689 Y15.5612
G01 X30.3737 Y15.6583
G01 X30.3737 Y15.6853
G01 X30.3689 Y15.7824
G01 X30.3663 Y15.8092
G01 X30.3520 Y15.9054
G01 X30.3467 Y15.9319
G01 X30.3231 Y16.0262
G01 X30.3153 Y16.0520
G01 X30.2825 Y16.1435
G01 X30.2722 Y16.1685
G01 X30.2306 Y16.2563
G01 X30.2179 Y16.2801
G01 X30.1679 Y16.3635
G01 X30.1529 Y16.3860
G01 X30.0950 Y16.4640
G01 X30.0779 Y16.4849
G01 X30.0126 Y16.5569
G01 X29.9935 Y16.5760
G01 X29.9215 Y16.6413
G01 X29.9006 Y16.6584
G01 X29.8226 Y16.7163
G01 X29.8001 Y16.7313
G01 X29.7167 Y16.7813
G01 X29.6929 Y16.7940
G01 X29.6051 Y16.8356
G01 X29.5801 Y16.8459
G01 X29.4886 Y16.8787
G01 X29.4628 Y16.8865
G01 X29.3685 Y16.9101
G01 X29.3420 Y16.9154
G01 X29.2458 Y16.9297
G01 X29.2190 Y16.9323
G01 X29.1219 Y16.9371
G01 X29.0949 Y16.9371
G01 X28.9978 Y16.9323
G01 X28.9710 Y16.9297
G01 X28.8748 Y16.9154
G01 X28.8483 Y16.9101
G01 X28.7540 Y16.8865
G01 X28.7282 Y16.8787
G01 X28.6367 Y16.8459
G01 X28.6117 Y16.8356
G01 X28.5239 Y16.7940
G01 X28.5001 Y16.7813
G01 X28.4167 Y16.7313
G01 X28.3942 Y16.7163
G01 X28.3162 Y16.6584
G01 X28.2953 Y16.6413
G01 X28.2300 Y16.5821
G01 X27.4787 Y16.5821
G01 X27.4787 Y18.2118
G01 X27.4784 Y18.2253
G01 X27.4754 Y18.2851
G01 X27.4728 Y18.3119
G01 X27.4640 Y18.3711
G01 X27.4587 Y18.3976
G01 X27.4442 Y18.4557
G01 X27.4364 Y18.4815
G01 X27.4162 Y18.5378
G01 X27.4059 Y18.5628
G01 X27.3803 Y18.6169
G01 X27.3676 Y18.6407
G01 X27.3368 Y18.6920
G01 X27.3218 Y18.7145
G01 X27.2977 Y18.7469
G01 X27.2861 Y18.7625
G01 X27.2690 Y18.7834
G01 X27.2288 Y18.8277
G01 X27.2097 Y18.8468
G01 X27.1654 Y18.8870
G01 X27.1445 Y18.9041
G01 X27.0965 Y18.9398
G01 X27.0740 Y18.9548
G01 X27.0227 Y18.9856
G01 X26.9989 Y18.9983
G01 X26.9448 Y19.0239
G01 X26.9198 Y19.0342
G01 X26.8635 Y19.0544
G01 X26.8377 Y19.0622
G01 X26.7796 Y19.0767
G01 X26.7531 Y19.0820
G01 X26.6939 Y19.0908
G01 X26.6671 Y19.0934
G01 X26.6073 Y19.0964
G01 X26.5938 Y19.0967
G01 X22.5044 Y19.0967
G01 X22.4909 Y19.0964
G01 X22.4311 Y19.0934
G01 X22.4043 Y19.0908
G01 X22.3526 Y19.0831
G00 Z2.0000
G00 X22.2899 Y19.4818
G01 F60.00
G01 Z-0.0700
G01 F120.00
G01 X22.3003 Y19.4755
G01 X22.3452 Y19.4455
G01 X22.4203 Y19.3899
G01 X22.4451 Y19.3695
G01 X22.4774 Y19.3710
G01 X22.5044 Y19.3717
G01 X26.5938 Y19.3717
G01 X26.6208 Y19.3710
G01 X26.6806 Y19.3681
G01 X26.7343 Y19.3628
G01 X26.7935 Y19.3540
G01 X26.8464 Y19.3435
G01 X26.8593 Y19.3403
G01 X26.9045 Y19.3290
G01 X26.9561 Y19.3133
G01 X27.0125 Y19.2931
G01 X27.0624 Y19.2725
G01 X27.1165 Y19.2469
G01 X27.1641 Y19.2214
G01 X27.2154 Y19.1907
G01 X27.2603 Y19.1607
G01 X27.3084 Y19.1250
G01 X27.3501 Y19.0908
G01 X27.3702 Y19.0726
G01 X27.3944 Y19.0506
G01 X27.4326 Y19.0124
G01 X27.4728 Y18.9681
G01 X27.5070 Y18.9264
G01 X27.5186 Y18.9107
G01 X27.5427 Y18.8783
G01 X27.5727 Y18.8334
G01 X27.6034 Y18.7821
G01 X27.6289 Y18.7345
G01 X27.6468 Y18.6965
G01 X27.6754 Y18.7762
G01 X27.6960 Y18.8260
G01 X27.7376 Y18.9139
G01 X27.7630 Y18.9615
G01 X27.8130 Y19.0449
G01 X27.8430 Y19.0898
G01 X27.9009 Y19.1679
G01 X27.9351 Y19.2096
G01 X27.9485 Y19.2243
G01 X27.9485 Y19.6384
G01 X22.4733 Y19.6182
G01 X22.4620 Y19.6080
G01 X22.4203 Y19.5737
G01 X22.3452 Y19.5181
G01 X22.3003 Y19.4881
G01 X22.2899 Y19.4818
G00 Z2.0000
G00 X22.3098 Y21.6624
G01 F60.00
G01 Z-0.0700
G01 F120.00
G01 X22.2773 Y21.6919
G01 X22.2565 Y21.7090
G01 X22.1814 Y21.7647
G01 X22.1590 Y21.7796
G01 X22.0788 Y21.8277
G01 X22.0550 Y21.8404
G01 X21.9705 Y21.8804
G01 X21.9455 Y21.8907
G01 X21.8575 Y21.9222
G01 X21.8317 Y21.9300
G01 X21.7410 Y21.9528
G01 X21.7146 Y21.9580
G01 X21.6221 Y21.9717
G01 X21.5953 Y21.9744
G01 X21.5019 Y21.9790
G01 X21.4749 Y21.9790
G01 X21.3815 Y21.9744
G01 X21.3547 Y21.9717
G01 X21.2622 Y21.9580
G01 X21.2358 Y21.9528
G01 X21.1451 Y21.9300
G01 X21.1193 Y21.9222
G01 X21.0313 Y21.8907
G01 X21.0063 Y21.8804
G01 X20.9218 Y21.8404
G01 X20.8980 Y21.8277
G01 X20.8178 Y21.7796
G01 X20.7954 Y21.7647
G01 X20.7203 Y21.7090
G01 X20.6995 Y21.6919
G01 X20.6302 Y21.6291
G01 X20.6111 Y21.6100
G01 X20.5483 Y21.5407
G01 X20.5312 Y21.5199
G01 X20.4755 Y21.4448
G01 X20.4606 Y21.4224
G01 X20.4125 Y21.3422
G01 X20.3998 Y21.3184
G01 X20.3598 Y21.2339
G01 X20.3495 Y21.2089
G01 X20.3180 Y21.1209
G01 X20.3102 Y21.0951
G01 X20.2874 Y21.0044
G01 X20.2822 Y20.9780
G01 X20.2685 Y20.8855
G01 X20.2658 Y20.8587
G01 X20.2612 Y20.7653
G01 X20.2612 Y20.7383
G01 X20.2658 Y20.6449
G01 X20.2685 Y20.6181
G01 X20.2822 Y20.5256
G01 X20.2874 Y20.4992
G01 X20.3102 Y20.4085
G01 X20.3180 Y20.3827
G01 X20.3495 Y20.2947
G01 X20.3598 Y20.2697
G01 X20.3998 Y20.1852
G01 X20.4125 Y20.1614
G01 X20.4606 Y20.0812
G01 X20.4755 Y20.0588
G01 X20.5312 Y19.9837
G01 X20.5483 Y19.9629
G01 X20.6111 Y19.8936
G01 X20.6302 Y19.8745
G01 X20.6995 Y19.8117
G01 X20.7203 Y19.7946
G01 X20.7954 Y19.7389
G01 X20.8178 Y19.7240
G01 X20.8980 Y19.6759
G01 X20.9218 Y19.6632
G01 X21.0063 Y19.6232
G01 X21.0313 Y19.6129
G01 X21.1193 Y19.5814
G01 X21.1451 Y19.5736
G01 X21.2358 Y19.5508
G01 X21.2622 Y19.5456
G01 X21.3547 Y19.5319
G01 X21.3815 Y19.5292
G01 X21.4749 Y19.5246
G01 X21.5019 Y19.5246
G01 X21.5953 Y19.5292
G01 X21.6221 Y19.5319
G01 X21.7146 Y19.5456
G01 X21.7410 Y19.5508
G01 X21.8317 Y19.5736
G01 X21.8575 Y19.5814
G01 X21.9455 Y19.6129
G01 X21.9705 Y19.6232
G01 X22.0550 Y19.6632
G01 X22.0788 Y19.6759
G01 X22.1590 Y19.7240
G01 X22.1814 Y19.7389
G01 X22.2565 Y19.7946
G01 X22.2773 Y19.8117
G01 X22.3466 Y19.8745
G01 X22.3649 Y19.8928
G01 X28.2235 Y19.9144
G01 X28.2235 Y19.1162
G01 X28.2042 Y19.0969
G01 X28.1389 Y19.0249
G01 X28.1218 Y19.0040
G01 X28.0639 Y18.9260
G01 X28.0489 Y18.9035
G01 X27.9989 Y18.8201
G01 X27.9862 Y18.7963
G01 X27.9446 Y18.7085
G01 X27.9343 Y18.6835
G01 X27.9015 Y18.5920
G01 X27.8937 Y18.5662
G01 X27.8701 Y18.4719
G01 X27.8648 Y18.4454
G01 X27.8505 Y18.3492
G01 X27.8479 Y18.3224
G01 X27.8431 Y18.2253
G01 X27.8431 Y18.1983
G01 X27.8479 Y18.1012
G01 X27.8505 Y18.0744
G01 X27.8648 Y17.9782
G01 X27.8701 Y17.9517
G01 X27.8937 Y17.8574
G01 X27.9015 Y17.8316
G01 X27.9343 Y17.7401
G01 X27.9446 Y17.7151
G01 X27.9862 Y17.6273
G01 X27.9989 Y17.6035
G01 X28.0489 Y17.5201
G01 X28.0639 Y17.4976
G01 X28.1218 Y17.4196
G01 X28.1389 Y17.3987
G01 X28.2042 Y17.3267
G01 X28.2233 Y17.3076
G01 X28.2953 Y17.2423
G01 X28.3162 Y17.2252
G01 X28.3942 Y17.1673
G01 X28.4167 Y17.1523
G01 X28.5001 Y17.1023
G01 X28.5239 Y17.0896
G01 X28.6117 Y17.0480
G01 X28.6367 Y17.0377
G01 X28.7282 Y17.0049
G01 X28.7540 Y16.9971
G01 X28.8483 Y16.9735
G01 X28.8748 Y16.9682
G01 X28.9710 Y16.9539
G01 X28.9978 Y16.9513
G01 X29.0949 Y16.9465
G01 X29.1219 Y16.9465
G01 X29.2190 Y16.9513
G01 X29.2458 Y16.9539
G01 X29.3420 Y16.9682
G01 X29.3685 Y16.9735
G01 X29.4628 Y16.9971
G01 X29.4886 Y17.0049
G01 X29.5801 Y17.0377
G01 X29.6051 Y17.0480
G01 X29.6929 Y17.0896
G01 X29.7167 Y17.1023
G01 X29.8001 Y17.1523
G01 X29.8226 Y17.1673
G01 X29.9006 Y17.2252
G01 X29.9215 Y17.2423
G01 X29.9935 Y17.3076
G01 X30.0126 Y17.3267
G01 X30.0779 Y17.3987
G01 X30.0950 Y17.4196
G01 X30.1529 Y17.4976
G01 X30.1679 Y17.5201
G01 X30.2179 Y17.6035
G01 X30.2306 Y17.6273
G01 X30.2722 Y17.7151
G01 X30.2825 Y17.7401
G01 X30.3153 Y17.8316
G01 X30.3231 Y17.8574
G01 X30.3467 Y17.9517
G01 X30.3520 Y17.9782
G01 X30.3663 Y18.0744
G01 X30.3689 Y18.1012
G01 X30.3737 Y18.1983
G01 X30.3737 Y18.2253
G01 X30.3689 Y18.3224
G01 X30.3663 Y18.3492
G01 X30.3520 Y18.4454
G01 X30.3467 Y18.4719
G01 X30.3231 Y18.5662
G01 X30.3153 Y18.5920
G01 X30.2825 Y18.6835
G01 X30.2722 Y18.7085
G01 X30.2306 Y18.7963
G01 X30.2179 Y18.8201
G01 X30.1679 Y18.9035
G01 X30.1529 Y18.9260
G01 X30.0950 Y19.0040
G01 X30.0779 Y19.0249
G01 X30.0126 Y19.0969
G01 X29.9933 Y19.1162
G01 X29.9933 Y20.8026
G01 X29.9929 Y20.8194
G01 X29.9900 Y20.8759
G01 X29.9890 Y20.8898
G01 X29.9870 Y20.9060
G01 X29.9786 Y20.9619
G01 X29.9762 Y20.9757
G01 X29.9727 Y20.9916
G01 X29.9588 Y21.0465
G01 X29.9544 Y21.0621
G01 X29.9500 Y21.0754
G01 X29.9308 Y21.1286
G01 X29.9257 Y21.1417
G01 X29.9192 Y21.1566
G01 X29.8949 Y21.2077
G01 X29.8886 Y21.2202
G01 X29.8806 Y21.2343
G01 X29.8514 Y21.2828
G01 X29.8439 Y21.2946
G01 X29.8345 Y21.3079
G01 X29.8007 Y21.3533
G01 X29.7921 Y21.3644
G01 X29.7815 Y21.3767
G01 X29.7434 Y21.4185
G01 X29.7338 Y21.4287
G01 X29.7220 Y21.4399
G01 X29.6800 Y21.4778
G01 X29.6694 Y21.4870
G01 X29.6566 Y21.4970
G01 X29.6111 Y21.5306
G01 X29.5996 Y21.5387
G01 X29.5859 Y21.5474
G01 X29.5373 Y21.5764
G01 X29.5231 Y21.5843
G01 X29.5106 Y21.5906
G01 X29.4594 Y21.6147
G01 X29.4445 Y21.6212
G01 X29.4314 Y21.6262
G01 X29.3781 Y21.6452
G01 X29.3648 Y21.6495
G01 X29.3491 Y21.6539
G01 X29.2942 Y21.6675
G01 X29.2805 Y21.6706
G01 X29.2645 Y21.6734
G01 X29.2085 Y21.6816
G01 X29.1946 Y21.6833
G01 X29.1784 Y21.6845
G01 X29.1219 Y21.6872
G01 X29.1079 Y21.6875
G01 X22.3098 Y21.6624
G00 Z2.0000
G00 X22.3102 Y24.2021
G01 F60.00
G01 Z-0.0700
G01 F120.00
G01 X22.2773 Y24.2319
G01 X22.2565 Y24.2490
G01 X22.1814 Y24.3047
G01 X22.1590 Y24.3196
G01 X22.0788 Y24.3677
G01 X22.0550 Y24.3804
G01 X21.9705 Y24.4204
G01 X21.9455 Y24.4307
G01 X21.8575 Y24.4622
G01 X21.8317 Y24.4700
G01 X21.7410 Y24.4928
G01 X21.7146 Y24.4980
G01 X21.6221 Y24.5117
G01 X21.5953 Y24.5144
G01 X21.5019 Y24.5190
G01 X21.4749 Y24.5190
G01 X21.3815 Y24.5144
G01 X21.3547 Y24.5117
G01 X21.2622 Y24.4980
G01 X21.2358 Y24.4928
G01 X21.1451 Y24.4700
G01 X21.1193 Y24.4622
G01 X21.0313 Y24.4307
G01 X21.0063 Y24.4204
G01 X20.9218 Y24.3804
G01 X20.8980 Y24.3677
G01 X20.8178 Y24.3196
G01 X20.7954 Y24.3047
G01 X20.7203 Y24.2490
G01 X20.6995 Y24.2319
G01 X20.6302 Y24.1691
G01 X20.6111 Y24.1500
G01 X20.5483 Y24.0807
G01 X20.5312 Y24.0599
G01 X20.4755 Y23.9848
G01 X20.4606 Y23.9624
G01 X20.4125 Y23.8822
G01 X20.3998 Y23.8584
G01 X20.3598 Y23.7739
G01 X20.3495 Y23.7489
G01 X20.3180 Y23.6609
G01 X20.3102 Y23.6351
G01 X20.2874 Y23.5444
G01 X20.2822 Y23.5180
G01 X20.2685 Y23.4255
G01 X20.2658 Y23.3987
G01 X20.2612 Y23.3053
G01 X20.2612 Y23.2783
G01 X20.2658 Y23.1849
G01 X20.2685 Y23.1581
G01 X20.2822 Y23.0656
G01 X20.2874 Y23.0392
G01 X20.3102 Y22.9485
G01 X20.3180 Y22.9227
G01 X20.3495 Y22.8347
G01 X20.3598 Y22.8097
G01 X20.3998 Y22.7252
G01 X20.4125 Y22.7014
G01 X20.4606 Y22.6212
G01 X20.4755 Y22.5988
G01 X20.5312 Y22.5237
G01 X20.5483 Y22.5029
G01 X20.6111 Y22.4336
G01 X20.6302 Y22.4145
G01 X20.6995 Y22.3517
G01 X20.7203 Y22.3346
G01 X20.7954 Y22.2789
G01 X20.8178 Y22.2640
G01 X20.8980 Y22.2159
G01 X20.9218 Y22.2032
G01 X21.0063 Y22.1632
G01 X21.0313 Y22.1529
G01 X21.1193 Y22.1214
G01 X21.1451 Y22.1136
G01 X21.2358 Y22.0908
G01 X21.2622 Y22.0856
G01 X21.3547 Y22.0719
G01 X21.3815 Y22.0692
G01 X21.4749 Y22.0646
G01 X21.5019 Y22.0646
G01 X21.5953 Y22.0692
G01 X21.6221 Y22.0719
G01 X21.7146 Y22.0856
G01 X21.7410 Y22.0908
G01 X21.8317 Y22.1136
G01 X21.8575 Y22.1214
G01 X21.9455 Y22.1529
G01 X21.9705 Y22.1632
G01 X22.0550 Y22.2032
G01 X22.0788 Y22.2159
G01 X22.1590 Y22.2640
G01 X22.1814 Y22.2789
G01 X22.2565 Y22.3346
G01 X22.2773 Y22.3517
G01 X22.3385 Y22.4072
G01 X30.8127 Y22.4299
G01 X30.7889 Y9.0694
G01 X30.7892 Y9.0559
G01 X30.7920 Y8.9961
G01 X30.7946 Y8.9692
G01 X30.7993 Y8.9373
G01 X30.7902 Y8.9291
G01 X30.7711 Y8.9100
G01 X30.7083 Y8.8407
G01 X30.6912 Y8.8199
G01 X30.6355 Y8.7448
G01 X30.6206 Y8.7224
G01 X30.5725 Y8.6422
G01 X30.5598 Y8.6184
G01 X30.5198 Y8.5339
G01 X30.5095 Y8.5089
G01 X30.4780 Y8.4209
G01 X30.4702 Y8.3951
G01 X30.4474 Y8.3044
G01 X30.4422 Y8.2780
G01 X30.4285 Y8.1855
G01 X30.4258 Y8.1587
G01 X30.4212 Y8.0653
G01 X30.4212 Y8.0383
G01 X30.4258 Y7.9449
G01 X30.4285 Y7.9181
G01 X30.4422 Y7.8256
G01 X30.4474 Y7.7992
G01 X30.4702 Y7.7085
G01 X30.4780 Y7.6827
G01 X30.5095 Y7.5947
G01 X30.5198 Y7.5697
G01 X30.5598 Y7.4852
G01 X30.5725 Y7.4614
G01 X30.6206 Y7.3812
G01 X30.6355 Y7.3588
G01 X30.6912 Y7.2837
G01 X30.7083 Y7.2629
G01 X30.7711 Y7.1936
G01 X30.7902 Y7.1745
G01 X30.8595 Y7.1117
G01 X30.8803 Y7.0946
G01 X30.9554 Y7.0389
G01 X30.9778 Y7.0240
G01 X31.0580 Y6.9759
G01 X31.0818 Y6.9632
G01 X31.1663 Y6.9232
G01 X31.1913 Y6.9129
G01 X31.2793 Y6.8814
G01 X31.3051 Y6.8736
G01 X31.3958 Y6.8508
G01 X31.4222 Y6.8456
G01 X31.5147 Y6.8319
G01 X31.5415 Y6.8292
G01 X31.6349 Y6.8246
G01 X31.6619 Y6.8246
G01 X31.7553 Y6.8292
G01 X31.7821 Y6.8319
G01 X31.8746 Y6.8456
G01 X31.9010 Y6.8508
G01 X31.9917 Y6.8736
G01 X32.0175 Y6.8814
G01 X32.1055 Y6.9129
G01 X32.1305 Y6.9232
G01 X32.2150 Y6.9632
G01 X32.2388 Y6.9759
G01 X32.3190 Y7.0240
G01 X32.3414 Y7.0389
G01 X32.4165 Y7.0946
G01 X32.4373 Y7.1117
G01 X32.5066 Y7.1745
G01 X32.5257 Y7.1936
G01 X32.5885 Y7.2629
G01 X32.6056 Y7.2837
G01 X32.6613 Y7.3588
G01 X32.6762 Y7.3812
G01 X32.7243 Y7.4614
G01 X32.7370 Y7.4852
G01 X32.7770 Y7.5697
G01 X32.7873 Y7.5947
G01 X32.8188 Y7.6827
G01 X32.8266 Y7.7085
G01 X32.8494 Y7.7992
G01 X32.8546 Y7.8256
G01 X32.8683 Y7.9181
G01 X32.8710 Y7.9449
G01 X32.8756 Y8.0383
G01 X32.8756 Y8.0653
G01 X32.8710 Y8.1587
G01 X32.8683 Y8.1855
G01 X32.8546 Y8.2780
G01 X32.8494 Y8.3044
G01 X32.8266 Y8.3951
G01 X32.8188 Y8.4209
G01 X32.7873 Y8.5089
G01 X32.7770 Y8.5339
G01 X32.7370 Y8.6184
G01 X32.7243 Y8.6422
G01 X32.6762 Y8.7224
G01 X32.6613 Y8.7448
G01 X32.6056 Y8.8199
G01 X32.5885 Y8.8407
G01 X32.5410 Y8.8931
G01 X32.5437 Y8.9069
G01 X32.5526 Y8.9661
G01 X32.5553 Y8.9930
G01 X32.5583 Y9.0527
G01 X32.5587 Y9.0662
G01 X32.5841 Y23.3156
G01 X32.5837 Y23.3331
G01 X32.5810 Y23.3889
G01 X32.5799 Y23.4030
G01 X32.5779 Y23.4197
G01 X32.5697 Y23.4750
G01 X32.5673 Y23.4889
G01 X32.5636 Y23.5053
G01 X32.5500 Y23.5595
G01 X32.5463 Y23.5732
G01 X32.5410 Y23.5891
G01 X32.5222 Y23.6418
G01 X32.5171 Y23.6549
G01 X32.5103 Y23.6704
G01 X32.4864 Y23.7209
G01 X32.4801 Y23.7335
G01 X32.4718 Y23.7482
G01 X32.4430 Y23.7961
G01 X32.4355 Y23.8080
G01 X32.4258 Y23.8218
G01 X32.3925 Y23.8667
G01 X32.3838 Y23.8778
G01 X32.3729 Y23.8906
G01 X32.3353 Y23.9320
G01 X32.3256 Y23.9422
G01 X32.3134 Y23.9539
G01 X32.2720 Y23.9914
G01 X32.2613 Y24.0006
G01 X32.2481 Y24.0110
G01 X32.2032 Y24.0443
G01 X32.1894 Y24.0539
G01 X32.1774 Y24.0615
G01 X32.1295 Y24.0902
G01 X32.1172 Y24.0972
G01 X32.1022 Y24.1048
G01 X32.0516 Y24.1286
G01 X32.0387 Y24.1344
G01 X32.0230 Y24.1405
G01 X31.9704 Y24.1593
G01 X31.9570 Y24.1637
G01 X31.9408 Y24.1682
G01 X31.8865 Y24.1818
G01 X31.8728 Y24.1849
G01 X31.8562 Y24.1878
G01 X31.8009 Y24.1960
G01 X31.7842 Y24.1980
G01 X31.7701 Y24.1990
G01 X31.7143 Y24.2017
G01 X31.6968 Y24.2021
G01 X27.4787 Y24.1908
G01 X27.4787 Y24.8487
G01 X27.4858 Y24.8765
G01 X27.4867 Y24.8823
G01 X27.4956 Y24.9011
G01 X27.5047 Y24.9265
G01 X27.5112 Y24.9527
G01 X27.5152 Y24.9793
G01 X27.5165 Y25.0063
G01 X27.5165 Y25.0694
G01 X27.5210 Y25.0789
G01 X27.5301 Y25.1043
G01 X27.5366 Y25.1305
G01 X27.5406 Y25.1571
G01 X27.5419 Y25.1841
G01 X27.5419 Y26.5303
G01 X27.5406 Y26.5573
G01 X27.5366 Y26.5839
G01 X27.5301 Y26.6101
G01 X27.5210 Y26.6355
G01 X27.5165 Y26.6450
G01 X27.5165 Y26.7081
G01 X27.5152 Y26.7351
G01 X27.5112 Y26.7618
G01 X27.5047 Y26.7879
G01 X27.4956 Y26.8133
G01 X27.4840 Y26.8377
G01 X27.4731 Y26.8560
G01 X27.4702 Y26.8641
G01 X27.4586 Y26.8885
G01 X27.4477 Y26.9068
G01 X27.4448 Y26.9149
G01 X27.4332 Y26.9393
G01 X27.4223 Y26.9576
G01 X27.4194 Y26.9657
G01 X27.4078 Y26.9901
G01 X27.3969 Y27.0084
G01 X27.3940 Y27.0165
G01 X27.3824 Y27.0409
G01 X27.3685 Y27.0641
G01 X27.3525 Y27.0858
G01 X27.3343 Y27.1058
G01 X27.3210 Y27.1178
G01 X27.3089 Y27.1312
G01 X27.2956 Y27.1432
G01 X27.2835 Y27.1566
G01 X27.2702 Y27.1686
G01 X27.2581 Y27.1820
G01 X27.2448 Y27.1940
G01 X27.2327 Y27.2074
G01 X27.2194 Y27.2194
G01 X27.2073 Y27.2328
G01 X27.1940 Y27.2448
G01 X27.1819 Y27.2582
G01 X27.1619 Y27.2763
G01 X27.1403 Y27.2924
G01 X27.1171 Y27.3062
G01 X27.0927 Y27.3178
G01 X27.0846 Y27.3207
G01 X27.0663 Y27.3316
G01 X27.0419 Y27.3432
G01 X27.0338 Y27.3461
G01 X27.0155 Y27.3570
G01 X26.9911 Y27.3686
G01 X26.9830 Y27.3715
G01 X26.9647 Y27.3824
G01 X26.9403 Y27.3940
G01 X26.9149 Y27.4031
G01 X26.8887 Y27.4096
G01 X26.8829 Y27.4105
G01 X26.8641 Y27.4194
G01 X26.8387 Y27.4285
G01 X26.8125 Y27.4350
G01 X26.7859 Y27.4390
G01 X26.7589 Y27.4403
G01 X26.4287 Y27.4403
G01 X26.4017 Y27.4390
G01 X26.3751 Y27.4350
G01 X26.3489 Y27.4285
G01 X26.3235 Y27.4194
G01 X26.3047 Y27.4105
G01 X26.2988 Y27.4096
G01 X26.2727 Y27.4031
G01 X26.2473 Y27.3940
G01 X26.2229 Y27.3824
G01 X26.2046 Y27.3715
G01 X26.1965 Y27.3686
G01 X26.1721 Y27.3570
G01 X26.1538 Y27.3461
G01 X26.1457 Y27.3432
G01 X26.1213 Y27.3316
G01 X26.0981 Y27.3177
G01 X26.0764 Y27.3017
G01 X26.0626 Y27.2891
G01 X26.0451 Y27.2808
G01 X26.0219 Y27.2669
G01 X26.0002 Y27.2509
G01 X25.9802 Y27.2327
G01 X25.9682 Y27.2194
G01 X25.9548 Y27.2073
G01 X25.9428 Y27.1940
G01 X25.9294 Y27.1819
G01 X25.9174 Y27.1686
G01 X25.9040 Y27.1565
G01 X25.8920 Y27.1432
G01 X25.8786 Y27.1311
G01 X25.8605 Y27.1111
G01 X25.8444 Y27.0895
G01 X25.8306 Y27.0663
G01 X25.8223 Y27.0488
G01 X25.8097 Y27.0349
G01 X25.7936 Y27.0133
G01 X25.7798 Y26.9901
G01 X25.7682 Y26.9657
G01 X25.7653 Y26.9576
G01 X25.7544 Y26.9393
G01 X25.7428 Y26.9149
G01 X25.7399 Y26.9068
G01 X25.7290 Y26.8885
G01 X25.7174 Y26.8641
G01 X25.7083 Y26.8387
G01 X25.7018 Y26.8125
G01 X25.7009 Y26.8067
G01 X25.6920 Y26.7879
G01 X25.6829 Y26.7625
G01 X25.6764 Y26.7363
G01 X25.6724 Y26.7097
G01 X25.6711 Y26.6827
G01 X25.6711 Y26.0950
G01 X25.6539 Y26.0275
G01 X25.6487 Y26.0010
G01 X25.6392 Y25.9369
G01 X25.6365 Y25.9100
G01 X25.6333 Y25.8453
G01 X25.6333 Y25.8183
G01 X25.6365 Y25.7536
G01 X25.6392 Y25.7267
G01 X25.6487 Y25.6626
G01 X25.6539 Y25.6361
G01 X25.6711 Y25.5686
G01 X25.6711 Y25.0063
G01 X25.6724 Y24.9793
G01 X25.6764 Y24.9527
G01 X25.6829 Y24.9265
G01 X25.6920 Y24.9011
G01 X25.7009 Y24.8823
G01 X25.7018 Y24.8764
G01 X25.7089 Y24.8487
G01 X25.7089 Y24.2021
G01 X22.3102 Y24.2021
G00 Z2.0000
G00 X22.2899 Y24.5618
G01 F60.00
G01 Z-0.0700
G01 F120.00
G01 X22.3003 Y24.5555
G01 X22.3452 Y24.5255
G01 X22.4105 Y24.4771
G01 X25.4339 Y24.4771
G01 X25.4339 Y24.8072
G01 X25.4198 Y24.8466
G01 X25.4067 Y24.8990
G01 X25.3988 Y24.9524
G01 X25.3961 Y25.0063
G01 X25.3961 Y25.5337
G01 X25.3872 Y25.5693
G01 X25.3766 Y25.6223
G01 X25.3671 Y25.6864
G01 X25.3618 Y25.7401
G01 X25.3587 Y25.8048
G01 X25.3587 Y25.8588
G01 X25.3618 Y25.9235
G01 X25.3671 Y25.9772
G01 X25.3766 Y26.0413
G01 X25.3872 Y26.0943
G01 X25.3961 Y26.1299
G01 X25.3961 Y26.6827
G01 X25.3988 Y26.7366
G01 X25.4067 Y26.7900
G01 X25.4198 Y26.8423
G01 X25.4380 Y26.8932
G01 X25.4398 Y26.8970
G01 X25.4452 Y26.9185
G01 X25.4634 Y26.9694
G01 X25.4864 Y27.0181
G01 X25.4930 Y27.0290
G01 X25.5118 Y27.0689
G01 X25.5184 Y27.0798
G01 X25.5372 Y27.1197
G01 X25.5650 Y27.1660
G01 X25.5917 Y27.2021
G01 X25.6128 Y27.2373
G01 X25.2137 Y27.2373
G01 X25.2137 Y25.8826
G01 X25.2130 Y25.8556
G01 X25.2112 Y25.8119
G01 X25.2085 Y25.7727
G01 X25.2048 Y25.7421
G01 X25.1987 Y25.6988
G01 X25.1937 Y25.6684
G01 X25.1855 Y25.6300
G01 X25.1752 Y25.5875
G01 X25.1673 Y25.5577
G01 X25.1553 Y25.5203
G01 X25.1408 Y25.4790
G01 X25.1300 Y25.4501
G01 X25.1145 Y25.4140
G01 X25.0960 Y25.3744
G01 X25.0825 Y25.3467
G01 X25.0634 Y25.3123
G01 X25.0412 Y25.2747
G01 X25.0203 Y25.2414
G01 X25.0027 Y25.2161
G01 X24.9769 Y25.1808
G01 X24.9528 Y25.1497
G01 X24.9328 Y25.1263
G01 X24.9036 Y25.0937
G01 X24.8767 Y25.0651
G01 X24.8544 Y25.0438
G01 X24.8222 Y25.0142
G01 X24.7926 Y24.9884
G01 X24.7684 Y24.9694
G01 X24.7334 Y24.9431
G01 X24.7084 Y24.9251
G01 X24.6754 Y24.9037
G01 X24.6380 Y24.8810
G01 X24.6114 Y24.8655
G01 X24.5765 Y24.8475
G01 X24.5370 Y24.8285
G01 X24.5090 Y24.8158
G01 X24.4725 Y24.8013
G01 X24.4314 Y24.7862
G01 X24.4022 Y24.7763
G01 X24.3645 Y24.7654
G01 X24.3221 Y24.7545
G01 X24.2921 Y24.7475
G01 X24.2535 Y24.7404
G01 X24.2103 Y24.7336
G01 X24.1713 Y24.7287
G01 X24.1406 Y24.7263
G01 X24.0969 Y24.7238
G01 X24.0699 Y24.7228
G01 X22.4760 Y24.7007
G01 X22.4620 Y24.6880
G01 X22.4203 Y24.6537
G01 X22.3452 Y24.5981
G01 X22.3003 Y24.5681
G01 X22.2899 Y24.5618
G00 Z2.0000
G00 X22.8245 Y27.0255
G01 F60.00
G01 Z-0.0700
G01 F120.00
G01 X22.8939 Y27.0265
G01 X22.8939 Y27.1079
G01 X22.8661 Y27.0704
G01 X22.8298 Y27.0304
G01 X22.8245 Y27.0255
G00 Z2.0000
G00 X20.1337 Y27.0451
G01 F60.00
G01 Z-0.0700
G01 F120.00
G01 X20.1337 Y26.9917
G01 X20.1903 Y26.9917
G01 X20.1870 Y26.9941
G01 X20.1470 Y27.0304
G01 X20.1337 Y27.0451
G00 Z2.0000
G00 X15.2993 Y26.2884
G01 F60.00
G01 Z-0.0700
G01 F120.00
G01 X15.2993 Y27.2467
G01 X14.8560 Y27.2406
G01 X14.8420 Y27.2280
G01 X14.8003 Y27.1937
G01 X14.7252 Y27.1381
G01 X14.6803 Y27.1081
G01 X14.6699 Y27.1018
G01 X14.6803 Y27.0955
G01 X14.7252 Y27.0655
G01 X14.8003 Y27.0099
G01 X14.8420 Y26.9756
G01 X14.9113 Y26.9128
G01 X14.9494 Y26.8747
G01 X15.0122 Y26.8054
G01 X15.0465 Y26.7637
G01 X15.1021 Y26.6886
G01 X15.1321 Y26.6437
G01 X15.1802 Y26.5636
G01 X15.2056 Y26.5160
G01 X15.2456 Y26.4315
G01 X15.2662 Y26.3816
G01 X15.2993 Y26.2884
G00 Z2.0000
G00 X14.6699 Y24.5618
G01 F60.00
G01 Z-0.0700
G01 F120.00
G01 X14.6803 Y24.5555
G01 X14.7252 Y24.5255
G01 X14.8003 Y24.4699
G01 X14.8420 Y24.4356
G01 X14.9113 Y24.3728
G01 X14.9494 Y24.3347
G01 X15.0122 Y24.2654
G01 X15.0465 Y24.2237
G01 X15.1021 Y24.1486
G01 X15.1321 Y24.1037
G01 X15.1802 Y24.0236
G01 X15.2056 Y23.9760
G01 X15.2456 Y23.8915
G01 X15.2662 Y23.8416
G01 X15.2993 Y23.7484
G01 X15.2993 Y25.3752
G01 X15.2662 Y25.2820
G01 X15.2456 Y25.2321
G01 X15.2056 Y25.1476
G01 X15.1802 Y25.1000
G01 X15.1321 Y25.0199
G01 X15.1021 Y24.9750
G01 X15.0465 Y24.8999
G01 X15.0122 Y24.8582
G01 X14.9494 Y24.7889
G01 X14.9113 Y24.7508
G01 X14.8420 Y24.6880
G01 X14.8003 Y24.6537
G01 X14.7252 Y24.5981
G01 X14.6803 Y24.5681
G01 X14.6699 Y24.5618
G00 Z2.0000
G00 X14.6699 Y22.0218
G01 F60.00
G01 Z-0.0700
G01 F120.00
G01 X14.6803 Y22.0155
G01 X14.7252 Y21.9855
G01 X14.8003 Y21.9299
G01 X14.8420 Y21.8956
G01 X14.9113 Y21.8328
G01 X14.9494 Y21.7947
G01 X15.0122 Y21.7254
G01 X15.0465 Y21.6837
G01 X15.1021 Y21.6086
G01 X15.1321 Y21.5637
G01 X15.1802 Y21.4836
G01 X15.2056 Y21.4360
G01 X15.2456 Y21.3515
G01 X15.2662 Y21.3016
G01 X15.2993 Y21.2084
G01 X15.2993 Y22.8352
G01 X15.2662 Y22.7420
G01 X15.2456 Y22.6921
G01 X15.2056 Y22.6076
G01 X15.1802 Y22.5600
G01 X15.1321 Y22.4799
G01 X15.1021 Y22.4350
G01 X15.0465 Y22.3599
G01 X15.0122 Y22.3182
G01 X14.9494 Y22.2489
G01 X14.9113 Y22.2108
G01 X14.8420 Y22.1480
G01 X14.8003 Y22.1137
G01 X14.7252 Y22.0581
G01 X14.6803 Y22.0281
G01 X14.6699 Y22.0218
G00 Z2.0000
G00 X14.6699 Y19.4818
G01 F60.00
G01 Z-0.0700
G01 F120.00
G01 X14.6803 Y19.4755
G01 X14.7252 Y19.4455
G01 X14.8003 Y19.3899
G01 X14.8420 Y19.3556
G01 X14.9113 Y19.2928
G01 X14.9494 Y19.2547
G01 X15.0122 Y19.1854
G01 X15.0465 Y19.1437
G01 X15.1021 Y19.0686
G01 X15.1321 Y19.0237
G01 X15.1802 Y18.9436
G01 X15.2056 Y18.8960
G01 X15.2456 Y18.8115
G01 X15.2662 Y18.7616
G01 X15.2993 Y18.6684
G01 X15.2993 Y20.2952
G01 X15.2662 Y20.2020
G01 X15.2456 Y20.1521
G01 X15.2056 Y20.0676
G01 X15.1802 Y20.0200
G01 X15.1321 Y19.9399
G01 X15.1021 Y19.8950
G01 X15.0465 Y19.8199
G01 X15.0122 Y19.7782
G01 X14.9494 Y19.7089
G01 X14.9113 Y19.6708
G01 X14.8420 Y19.6080
G01 X14.8003 Y19.5737
G01 X14.7252 Y19.5181
G01 X14.6803 Y19.4881
G01 X14.6699 Y19.4818
G00 Z2.0000
G00 X15.2993 Y17.7552
G01 F60.00
G01 Z-0.0700
G01 F120.00
G01 X15.2662 Y17.6620
G01 X15.2456 Y17.6121
G01 X15.2056 Y17.5276
G01 X15.1802 Y17.4800
G01 X15.1321 Y17.3999
G01 X15.1021 Y17.3550
G01 X15.0465 Y17.2799
G01 X15.0122 Y17.2382
G01 X14.9494 Y17.1689
G01 X14.9113 Y17.1308
G01 X14.8420 Y17.0680
G01 X14.8003 Y17.0337
G01 X14.7252 Y16.9781
G01 X14.6803 Y16.9481
G01 X14.6699 Y16.9418
G01 X14.6803 Y16.9355
G01 X14.7252 Y16.9055
G01 X14.8003 Y16.8499
G01 X14.8420 Y16.8156
G01 X14.9113 Y16.7528
G01 X14.9494 Y16.7147
G01 X15.0122 Y16.6454
G01 X15.0465 Y16.6037
G01 X15.1021 Y16.5286
G01 X15.1321 Y16.4837
G01 X15.1802 Y16.4036
G01 X15.2056 Y16.3560
G01 X15.2456 Y16.2715
G01 X15.2662 Y16.2216
G01 X15.2993 Y16.1284
G01 X15.2993 Y17.7552
G00 Z2.0000
G00 X15.2993 Y15.2152
G01 F60.00
G01 Z-0.0700
G01 F120.00
G01 X15.2662 Y15.1220
G01 X15.2456 Y15.0721
G01 X15.2056 Y14.9876
G01 X15.1802 Y14.9400
G01 X15.1321 Y14.8599
G01 X15.1021 Y14.8150
G01 X15.0465 Y14.7399
G01 X15.0122 Y14.6982
G01 X14.9494 Y14.6289
G01 X14.9113 Y14.5908
G01 X14.8420 Y14.5280
G01 X14.8003 Y14.4937
G01 X14.7252 Y14.4381
G01 X14.6803 Y14.4081
G01 X14.6699 Y14.4018
G01 X14.6803 Y14.3955
G01 X14.7252 Y14.3655
G01 X14.8003 Y14.3099
G01 X14.8420 Y14.2756
G01 X14.9113 Y14.2128
G01 X14.9494 Y14.1747
G01 X15.0122 Y14.1054
G01 X15.0465 Y14.0637
G01 X15.1021 Y13.9886
G01 X15.1321 Y13.9437
G01 X15.1802 Y13.8636
G01 X15.2056 Y13.8160
G01 X15.2456 Y13.7315
G01 X15.2662 Y13.6816
G01 X15.2993 Y13.5884
G01 X15.2993 Y15.2152
G00 Z2.0000
G00 X18.0925 Y13.1824
G01 F60.00
G01 Z-0.0700
G01 F120.00
G01 X18.0912 Y13.1673
G01 X18.0889 Y13.1123
G01 X18.0381 Y5.5431
G01 X18.0384 Y5.5237
G01 X18.0409 Y5.4698
G01 X18.0423 Y5.4514
G01 X18.0440 Y5.4371
G01 X18.0517 Y5.3837
G01 X18.0549 Y5.3655
G01 X18.0581 Y5.3514
G01 X18.0710 Y5.2990
G01 X18.0759 Y5.2812
G01 X18.0804 Y5.2675
G01 X18.0984 Y5.2167
G01 X18.1036 Y5.2032
G01 X18.1109 Y5.1862
G01 X18.1338 Y5.1374
G01 X18.1422 Y5.1209
G01 X18.1492 Y5.1083
G01 X18.1768 Y5.0620
G01 X18.1867 Y5.0463
G01 X18.1950 Y5.0345
G01 X18.2270 Y4.9911
G01 X18.2384 Y4.9765
G01 X18.2478 Y4.9656
G01 X18.2839 Y4.9255
G01 X18.2966 Y4.9121
G01 X18.3071 Y4.9022
G01 X18.3469 Y4.8658
G01 X18.3578 Y4.8564
G01 X18.3723 Y4.8449
G01 X18.4155 Y4.8126
G01 X18.4272 Y4.8042
G01 X18.4428 Y4.7942
G01 X18.4889 Y4.7663
G01 X18.5050 Y4.7572
G01 X18.5179 Y4.7507
G01 X18.5666 Y4.7275
G01 X18.5835 Y4.7200
G01 X18.5970 Y4.7148
G01 X18.6477 Y4.6965
G01 X18.6613 Y4.6919
G01 X18.6791 Y4.6868
G01 X18.7314 Y4.6735
G01 X18.7495 Y4.6695
G01 X18.7637 Y4.6670
G01 X18.8170 Y4.6589
G01 X18.8353 Y4.6567
G01 X18.8497 Y4.6556
G01 X18.9036 Y4.6527
G01 X18.9180 Y4.6523
G01 X29.1084 Y4.6523
G01 X29.1219 Y4.6526
G01 X29.1817 Y4.6556
G01 X29.2085 Y4.6582
G01 X29.2677 Y4.6670
G01 X29.2942 Y4.6723
G01 X29.3523 Y4.6868
G01 X29.3781 Y4.6946
G01 X29.4344 Y4.7148
G01 X29.4594 Y4.7251
G01 X29.5135 Y4.7507
G01 X29.5373 Y4.7634
G01 X29.5716 Y4.7840
G01 X29.5886 Y4.7942
G01 X29.6111 Y4.8092
G01 X29.6591 Y4.8449
G01 X29.6800 Y4.8620
G01 X29.7243 Y4.9022
G01 X29.7434 Y4.9213
G01 X29.7836 Y4.9656
G01 X29.8007 Y4.9865
G01 X29.8364 Y5.0345
G01 X29.8514 Y5.0570
G01 X29.8822 Y5.1083
G01 X29.8949 Y5.1321
G01 X29.9205 Y5.1862
G01 X29.9308 Y5.2112
G01 X29.9510 Y5.2675
G01 X29.9588 Y5.2933
G01 X29.9733 Y5.3514
G01 X29.9786 Y5.3779
G01 X29.9874 Y5.4371
G01 X29.9900 Y5.4639
G01 X29.9930 Y5.5237
G01 X29.9933 Y5.5372
G01 X29.9933 Y9.5504
G01 X29.9930 Y9.5639
G01 X29.9900 Y9.6237
G01 X29.9874 Y9.6505
G01 X29.9833 Y9.6783
G01 X29.9935 Y9.6876
G01 X30.0126 Y9.7067
G01 X30.0779 Y9.7787
G01 X30.0950 Y9.7996
G01 X30.1529 Y9.8776
G01 X30.1679 Y9.9001
G01 X30.2179 Y9.9835
G01 X30.2306 Y10.0073
G01 X30.2722 Y10.0951
G01 X30.2825 Y10.1201
G01 X30.3153 Y10.2116
G01 X30.3231 Y10.2374
G01 X30.3467 Y10.3317
G01 X30.3520 Y10.3582
G01 X30.3663 Y10.4544
G01 X30.3689 Y10.4812
G01 X30.3737 Y10.5783
G01 X30.3737 Y10.6053
G01 X30.3689 Y10.7024
G01 X30.3663 Y10.7292
G01 X30.3520 Y10.8254
G01 X30.3467 Y10.8519
G01 X30.3231 Y10.9462
G01 X30.3153 Y10.9720
G01 X30.2825 Y11.0635
G01 X30.2722 Y11.0885
G01 X30.2306 Y11.1763
G01 X30.2179 Y11.2001
G01 X30.1679 Y11.2835
G01 X30.1529 Y11.3060
G01 X30.0950 Y11.3840
G01 X30.0779 Y11.4049
G01 X30.0126 Y11.4769
G01 X29.9935 Y11.4960
G01 X29.9215 Y11.5613
G01 X29.9006 Y11.5784
G01 X29.8226 Y11.6363
G01 X29.8001 Y11.6513
G01 X29.7167 Y11.7013
G01 X29.6929 Y11.7140
G01 X29.6051 Y11.7556
G01 X29.5801 Y11.7659
G01 X29.4886 Y11.7987
G01 X29.4628 Y11.8065
G01 X29.3685 Y11.8301
G01 X29.3420 Y11.8354
G01 X29.2458 Y11.8497
G01 X29.2190 Y11.8523
G01 X29.1219 Y11.8571
G01 X29.0949 Y11.8571
G01 X28.9978 Y11.8523
G01 X28.9710 Y11.8497
G01 X28.8748 Y11.8354
G01 X28.8483 Y11.8301
G01 X28.7540 Y11.8065
G01 X28.7282 Y11.7987
G01 X28.6367 Y11.7659
G01 X28.6117 Y11.7556
G01 X28.5239 Y11.7140
G01 X28.5001 Y11.7013
G01 X28.4167 Y11.6513
G01 X28.3942 Y11.6363
G01 X28.3162 Y11.5784
G01 X28.2953 Y11.5613
G01 X28.2233 Y11.4960
G01 X28.2042 Y11.4769
G01 X28.1389 Y11.4049
G01 X28.1218 Y11.3840
G01 X28.0639 Y11.3060
G01 X28.0489 Y11.2835
G01 X27.9989 Y11.2001
G01 X27.9862 Y11.1763
G01 X27.9446 Y11.0885
G01 X27.9343 Y11.0635
G01 X27.9015 Y10.9720
G01 X27.8937 Y10.9462
G01 X27.8701 Y10.8519
G01 X27.8648 Y10.8254
G01 X27.8505 Y10.7292
G01 X27.8479 Y10.7024
G01 X27.8431 Y10.6053
G01 X27.8431 Y10.5783
G01 X27.8479 Y10.4812
G01 X27.8505 Y10.4544
G01 X27.8648 Y10.3582
G01 X27.8701 Y10.3317
G01 X27.8937 Y10.2374
G01 X27.9015 Y10.2116
G01 X27.9343 Y10.1201
G01 X27.9446 Y10.0951
G01 X27.9862 Y10.0073
G01 X27.9989 Y9.9835
G01 X28.0489 Y9.9001
G01 X28.0639 Y9.8776
G01 X28.1218 Y9.7996
G01 X28.1389 Y9.7787
G01 X28.2042 Y9.7067
G01 X28.2233 Y9.6876
G01 X28.2335 Y9.6783
G01 X28.2294 Y9.6505
G01 X28.2268 Y9.6237
G01 X28.2238 Y9.5639
G01 X28.2235 Y9.5504
G01 X28.2235 Y6.4221
G01 X19.8139 Y6.4221
G01 X19.8529 Y12.2338
G01 X20.6408 Y12.2449
G01 X20.6995 Y12.1917
G01 X20.7203 Y12.1746
G01 X20.7954 Y12.1189
G01 X20.8178 Y12.1040
G01 X20.8980 Y12.0559
G01 X20.9218 Y12.0432
G01 X21.0063 Y12.0032
G01 X21.0313 Y11.9929
G01 X21.1193 Y11.9614
G01 X21.1451 Y11.9536
G01 X21.2358 Y11.9308
G01 X21.2622 Y11.9256
G01 X21.3547 Y11.9119
G01 X21.3815 Y11.9092
G01 X21.4749 Y11.9046
G01 X21.5019 Y11.9046
G01 X21.5953 Y11.9092
G01 X21.6221 Y11.9119
G01 X21.7146 Y11.9256
G01 X21.7410 Y11.9308
G01 X21.8317 Y11.9536
G01 X21.8575 Y11.9614
G01 X21.9455 Y11.9929
G01 X21.9705 Y12.0032
G01 X22.0550 Y12.0432
G01 X22.0788 Y12.0559
G01 X22.1590 Y12.1040
G01 X22.1814 Y12.1189
G01 X22.2565 Y12.1746
G01 X22.2773 Y12.1917
G01 X22.3466 Y12.2545
G01 X22.3657 Y12.2736
G01 X22.4285 Y12.3429
G01 X22.4456 Y12.3637
G01 X22.5013 Y12.4388
G01 X22.5162 Y12.4612
G01 X22.5643 Y12.5414
G01 X22.5770 Y12.5652
G01 X22.6170 Y12.6497
G01 X22.6273 Y12.6747
G01 X22.6588 Y12.7627
G01 X22.6666 Y12.7885
G01 X22.6894 Y12.8792
G01 X22.6946 Y12.9056
G01 X22.7083 Y12.9981
G01 X22.7110 Y13.0249
G01 X22.7156 Y13.1183
G01 X22.7156 Y13.1453
G01 X22.7110 Y13.2387
G01 X22.7083 Y13.2655
G01 X22.6946 Y13.3580
G01 X22.6894 Y13.3844
G01 X22.6666 Y13.4751
G01 X22.6588 Y13.5009
G01 X22.6273 Y13.5889
G01 X22.6170 Y13.6139
G01 X22.5770 Y13.6984
G01 X22.5643 Y13.7222
G01 X22.5162 Y13.8024
G01 X22.5013 Y13.8248
G01 X22.4456 Y13.8999
G01 X22.4285 Y13.9207
G01 X22.3657 Y13.9900
G01 X22.3466 Y14.0091
G01 X22.2773 Y14.0719
G01 X22.2565 Y14.0890
G01 X22.1814 Y14.1447
G01 X22.1590 Y14.1596
G01 X22.0788 Y14.2077
G01 X22.0550 Y14.2204
G01 X21.9705 Y14.2604
G01 X21.9455 Y14.2707
G01 X21.8575 Y14.3022
G01 X21.8317 Y14.3100
G01 X21.7410 Y14.3328
G01 X21.7146 Y14.3380
G01 X21.6221 Y14.3517
G01 X21.5953 Y14.3544
G01 X21.5019 Y14.3590
G01 X21.4749 Y14.3590
G01 X21.3815 Y14.3544
G01 X21.3547 Y14.3517
G01 X21.2622 Y14.3380
G01 X21.2358 Y14.3328
G01 X21.1451 Y14.3100
G01 X21.1193 Y14.3022
G01 X21.0313 Y14.2707
G01 X21.0063 Y14.2604
G01 X20.9218 Y14.2204
G01 X20.8980 Y14.2077
G01 X20.8178 Y14.1596
G01 X20.7954 Y14.1447
G01 X20.7203 Y14.0890
G01 X20.6995 Y14.0719
G01 X20.6365 Y14.0148
G01 X18.9613 Y13.9912
G01 X18.9064 Y13.9885
G01 X18.8881 Y13.9869
G01 X18.8613 Y13.9839
G01 X18.8203 Y13.9777
G01 X18.8022 Y13.9743
G01 X18.7758 Y13.9686
G01 X18.7356 Y13.9584
G01 X18.7180 Y13.9533
G01 X18.6923 Y13.9451
G01 X18.6533 Y13.9310
G01 X18.6362 Y13.9241
G01 X18.6114 Y13.9135
G01 X18.5740 Y13.8956
G01 X18.5577 Y13.8871
G01 X18.5341 Y13.8740
G01 X18.4986 Y13.8526
G01 X18.4832 Y13.8426
G01 X18.4609 Y13.8272
G01 X18.4277 Y13.8024
G01 X18.4134 Y13.7909
G01 X18.3928 Y13.7735
G01 X18.3621 Y13.7455
G01 X18.3490 Y13.7327
G01 X18.3302 Y13.7133
G01 X18.3024 Y13.6825
G01 X18.2906 Y13.6684
G01 X18.2738 Y13.6473
G01 X18.2492 Y13.6139
G01 X18.2388 Y13.5988
G01 X18.2241 Y13.5761
G01 X18.2029 Y13.5405
G01 X18.1941 Y13.5243
G01 X18.1817 Y13.5004
G01 X18.1641 Y13.4628
G01 X18.1569 Y13.4459
G01 X18.1469 Y13.4208
G01 X18.1331 Y13.3817
G01 X18.1275 Y13.3642
G01 X18.1201 Y13.3383
G01 X18.1101 Y13.2980
G01 X18.1063 Y13.2800
G01 X18.1014 Y13.2535
G01 X18.0955 Y13.2124
G01 X18.0925 Y13.1824
G00 Z2.0000
G00 X20.8412 Y6.6971
G01 F60.00
G01 Z-0.0700
G01 F120.00
G01 X20.8042 Y6.7146
G01 X20.7566 Y6.7400
G01 X20.6765 Y6.7881
G01 X20.6316 Y6.8181
G01 X20.5565 Y6.8737
G01 X20.5148 Y6.9080
G01 X20.4455 Y6.9708
G01 X20.4074 Y7.0089
G01 X20.3446 Y7.0782
G01 X20.3103 Y7.1199
G01 X20.2547 Y7.1950
G01 X20.2247 Y7.2399
G01 X20.1766 Y7.3200
G01 X20.1512 Y7.3676
G01 X20.1112 Y7.4521
G01 X20.0960 Y7.4888
G01 X20.0907 Y6.6971
G01 X20.8412 Y6.6971
G00 Z2.0000
G00 X23.3812 Y6.6971
G01 F60.00
G01 Z-0.0700
G01 F120.00
G01 X23.3442 Y6.7146
G01 X23.2966 Y6.7400
G01 X23.2165 Y6.7881
G01 X23.1716 Y6.8181
G01 X23.0965 Y6.8737
G01 X23.0548 Y6.9080
G01 X23.0443 Y6.9175
G01 X22.4723 Y6.9173
G01 X22.4620 Y6.9080
G01 X22.4203 Y6.8737
G01 X22.3452 Y6.8181
G01 X22.3003 Y6.7881
G01 X22.2202 Y6.7400
G01 X22.1726 Y6.7146
G01 X22.1356 Y6.6971
G01 X23.3812 Y6.6971
G00 Z2.0000
G00 X30.2683 Y7.4592
G01 F60.00
G01 Z-0.0700
G01 F120.00
G01 X30.2712 Y7.4521
G01 X30.3112 Y7.3676
G01 X30.3366 Y7.3200
G01 X30.3847 Y7.2399
G01 X30.4147 Y7.1950
G01 X30.4703 Y7.1199
G01 X30.5046 Y7.0782
G01 X30.5674 Y7.0089
G01 X30.6055 Y6.9708
G01 X30.6748 Y6.9080
G01 X30.7165 Y6.8737
G01 X30.7916 Y6.8181
G01 X30.8365 Y6.7881
G01 X30.9166 Y6.7400
G01 X30.9642 Y6.7146
G01 X31.0487 Y6.6746
G01 X31.0986 Y6.6540
G01 X31.1866 Y6.6225
G01 X31.2383 Y6.6068
G01 X31.3289 Y6.5841
G01 X31.3819 Y6.5736
G01 X31.4743 Y6.5598
G01 X31.5281 Y6.5546
G01 X31.6214 Y6.5500
G01 X31.6754 Y6.5500
G01 X31.7687 Y6.5546
G01 X31.8225 Y6.5598
G01 X31.9149 Y6.5736
G01 X31.9679 Y6.5841
G01 X32.0585 Y6.6068
G01 X32.1102 Y6.6225
G01 X32.1982 Y6.6540
G01 X32.2481 Y6.6746
G01 X32.3326 Y6.7146
G01 X32.3802 Y6.7400
G01 X32.4603 Y6.7881
G01 X32.5052 Y6.8181
G01 X32.5803 Y6.8737
G01 X32.6220 Y6.9080
G01 X32.6913 Y6.9708
G01 X32.7294 Y7.0089
G01 X32.7922 Y7.0782
G01 X32.8265 Y7.1199
G01 X32.8821 Y7.1950
G01 X32.9121 Y7.2399
G01 X32.9602 Y7.3200
G01 X32.9856 Y7.3676
G01 X33.0256 Y7.4521
G01 X33.0462 Y7.5020
G01 X33.0777 Y7.5900
G01 X33.0934 Y7.6417
G01 X33.1161 Y7.7323
G01 X33.1266 Y7.7853
G01 X33.1404 Y7.8777
G01 X33.1456 Y7.9315
G01 X33.1502 Y8.0248
G01 X33.1502 Y8.0788
G01 X33.1456 Y8.1721
G01 X33.1404 Y8.2259
G01 X33.1266 Y8.3183
G01 X33.1161 Y8.3713
G01 X33.0934 Y8.4619
G01 X33.0777 Y8.5136
G01 X33.0462 Y8.6016
G01 X33.0256 Y8.6515
G01 X32.9856 Y8.7360
G01 X32.9602 Y8.7836
G01 X32.9121 Y8.8637
G01 X32.8821 Y8.9086
G01 X32.8299 Y8.9790
G01 X32.8330 Y9.0387
G01 X32.8337 Y9.0657
G01 X32.8591 Y23.3151
G01 X32.8584 Y23.3473
G01 X32.8557 Y23.4019
G01 X32.8536 Y23.4301
G01 X32.8498 Y23.4608
G01 X32.8418 Y23.5149
G01 X32.8364 Y23.5453
G01 X32.8302 Y23.5729
G01 X32.8169 Y23.6259
G01 X32.8094 Y23.6531
G01 X32.7997 Y23.6825
G01 X32.7813 Y23.7340
G01 X32.7711 Y23.7603
G01 X32.7586 Y23.7886
G01 X32.7352 Y23.8380
G01 X32.7225 Y23.8632
G01 X32.7073 Y23.8902
G01 X32.6792 Y23.9371
G01 X32.6641 Y23.9609
G01 X32.6463 Y23.9862
G01 X32.6137 Y24.0301
G01 X32.5963 Y24.0524
G01 X32.5762 Y24.0758
G01 X32.5394 Y24.1163
G01 X32.5180 Y24.1387
G01 X32.4976 Y24.1581
G01 X32.4570 Y24.1948
G01 X32.4357 Y24.2133
G01 X32.4195 Y24.2260
G01 X32.4310 Y24.2364
G01 X32.4431 Y24.2497
G01 X32.4564 Y24.2618
G01 X32.4685 Y24.2751
G01 X32.4818 Y24.2872
G01 X32.4939 Y24.3005
G01 X32.5072 Y24.3126
G01 X32.5193 Y24.3259
G01 X32.5326 Y24.3380
G01 X32.5447 Y24.3513
G01 X32.5580 Y24.3634
G01 X32.5701 Y24.3767
G01 X32.5834 Y24.3888
G01 X32.5955 Y24.4021
G01 X32.6088 Y24.4142
G01 X32.6451 Y24.4542
G01 X32.6772 Y24.4976
G01 X32.7013 Y24.5377
G01 X32.7280 Y24.5738
G01 X32.7558 Y24.6201
G01 X32.7746 Y24.6600
G01 X32.7812 Y24.6709
G01 X32.8042 Y24.7196
G01 X32.8224 Y24.7705
G01 X32.8278 Y24.7920
G01 X32.8296 Y24.7958
G01 X32.8478 Y24.8467
G01 X32.8609 Y24.8990
G01 X32.8688 Y24.9524
G01 X32.8715 Y25.0063
G01 X32.8715 Y26.6827
G01 X32.8688 Y26.7366
G01 X32.8609 Y26.7900
G01 X32.8478 Y26.8424
G01 X32.8357 Y26.8763
G01 X32.8591 Y30.9305
G01 X32.8584 Y30.9642
G01 X32.8560 Y31.0173
G01 X32.8537 Y31.0493
G01 X32.8502 Y31.0777
G01 X32.8426 Y31.1303
G01 X32.8378 Y31.1585
G01 X32.8309 Y31.1898
G01 X32.8181 Y31.2414
G01 X32.8106 Y31.2690
G01 X32.8007 Y31.2995
G01 X32.7829 Y31.3496
G01 X32.7728 Y31.3763
G01 X32.7599 Y31.4058
G01 X32.7373 Y31.4539
G01 X32.7245 Y31.4795
G01 X32.7088 Y31.5075
G01 X32.6816 Y31.5531
G01 X32.6665 Y31.5773
G01 X32.6481 Y31.6037
G01 X32.6165 Y31.6465
G01 X32.5968 Y31.6718
G01 X32.5782 Y31.6935
G01 X32.5426 Y31.7330
G01 X32.5205 Y31.7562
G01 X32.4998 Y31.7760
G01 X32.4605 Y31.8118
G01 X32.4390 Y31.8306
G01 X32.4195 Y31.8459
G01 X32.4310 Y31.8564
G01 X32.4431 Y31.8697
G01 X32.4564 Y31.8818
G01 X32.4685 Y31.8951
G01 X32.4818 Y31.9072
G01 X32.4939 Y31.9205
G01 X32.5072 Y31.9326
G01 X32.5193 Y31.9459
G01 X32.5326 Y31.9580
G01 X32.5447 Y31.9713
G01 X32.5580 Y31.9834
G01 X32.5701 Y31.9967
G01 X32.5834 Y32.0088
G01 X32.5955 Y32.0221
G01 X32.6088 Y32.0342
G01 X32.6451 Y32.0742
G01 X32.6772 Y32.1176
G01 X32.7013 Y32.1577
G01 X32.7280 Y32.1938
G01 X32.7558 Y32.2401
G01 X32.7746 Y32.2800
G01 X32.7812 Y32.2909
G01 X32.8042 Y32.3396
G01 X32.8224 Y32.3905
G01 X32.8278 Y32.4120
G01 X32.8296 Y32.4158
G01 X32.8478 Y32.4667
G01 X32.8609 Y32.5190
G01 X32.8688 Y32.5724
G01 X32.8715 Y32.6263
G01 X32.8715 Y34.3027
G01 X32.8688 Y34.3566
G01 X32.8609 Y34.4100
G01 X32.8478 Y34.4624
G01 X32.8296 Y34.5132
G01 X32.8278 Y34.5170
G01 X32.8224 Y34.5386
G01 X32.8042 Y34.5894
G01 X32.7811 Y34.6382
G01 X32.7746 Y34.6490
G01 X32.7557 Y34.6890
G01 X32.7492 Y34.6998
G01 X32.7303 Y34.7398
G01 X32.7026 Y34.7861
G01 X32.6759 Y34.8221
G01 X32.6518 Y34.8623
G01 X32.6196 Y34.9056
G01 X32.5834 Y34.9456
G01 X32.5701 Y34.9577
G01 X32.5580 Y34.9710
G01 X32.5447 Y34.9831
G01 X32.5326 Y34.9964
G01 X32.5193 Y35.0085
G01 X32.5072 Y35.0218
G01 X32.4939 Y35.0339
G01 X32.4818 Y35.0472
G01 X32.4418 Y35.0835
G01 X32.3984 Y35.1156
G01 X32.3583 Y35.1397
G01 X32.3222 Y35.1664
G01 X32.2759 Y35.1942
G01 X32.2360 Y35.2130
G01 X32.2251 Y35.2196
G01 X32.1852 Y35.2384
G01 X32.1743 Y35.2450
G01 X32.1256 Y35.2680
G01 X32.0747 Y35.2862
G01 X32.0532 Y35.2916
G01 X32.0494 Y35.2934
G01 X31.9985 Y35.3116
G01 X31.9462 Y35.3247
G01 X31.8928 Y35.3326
G01 X31.8389 Y35.3353
G01 X31.5087 Y35.3353
G01 X31.4548 Y35.3326
G01 X31.4014 Y35.3247
G01 X31.3490 Y35.3116
G01 X31.2982 Y35.2934
G01 X31.2944 Y35.2916
G01 X31.2728 Y35.2862
G01 X31.2220 Y35.2680
G01 X31.1732 Y35.2449
G01 X31.1624 Y35.2384
G01 X31.1224 Y35.2195
G01 X31.1116 Y35.2130
G01 X31.0716 Y35.1941
G01 X31.0253 Y35.1664
G01 X30.9893 Y35.1397
G01 X30.9491 Y35.1156
G01 X30.9058 Y35.0834
G01 X30.8658 Y35.0472
G01 X30.8537 Y35.0339
G01 X30.8404 Y35.0218
G01 X30.8283 Y35.0085
G01 X30.8150 Y34.9964
G01 X30.8029 Y34.9831
G01 X30.7896 Y34.9710
G01 X30.7775 Y34.9577
G01 X30.7642 Y34.9456
G01 X30.7279 Y34.9056
G01 X30.6958 Y34.8622
G01 X30.6717 Y34.8221
G01 X30.6450 Y34.7860
G01 X30.6172 Y34.7397
G01 X30.5984 Y34.6998
G01 X30.5918 Y34.6889
G01 X30.5730 Y34.6490
G01 X30.5664 Y34.6381
G01 X30.5539 Y34.6117
G01 X30.2537 Y34.6117
G01 X30.2411 Y34.6382
G01 X30.2346 Y34.6490
G01 X30.2157 Y34.6890
G01 X30.2092 Y34.6998
G01 X30.1903 Y34.7398
G01 X30.1838 Y34.7506
G01 X30.1649 Y34.7906
G01 X30.1372 Y34.8369
G01 X30.1050 Y34.8802
G01 X30.0688 Y34.9202
G01 X30.0555 Y34.9323
G01 X30.0434 Y34.9456
G01 X30.0301 Y34.9577
G01 X30.0180 Y34.9710
G01 X30.0047 Y34.9831
G01 X29.9926 Y34.9964
G01 X29.9793 Y35.0085
G01 X29.9672 Y35.0218
G01 X29.9539 Y35.0339
G01 X29.9418 Y35.0472
G01 X29.9018 Y35.0835
G01 X29.8584 Y35.1156
G01 X29.8183 Y35.1397
G01 X29.7822 Y35.1664
G01 X29.7359 Y35.1942
G01 X29.6960 Y35.2130
G01 X29.6851 Y35.2196
G01 X29.6452 Y35.2384
G01 X29.6343 Y35.2450
G01 X29.5856 Y35.2680
G01 X29.5347 Y35.2862
G01 X29.5132 Y35.2916
G01 X29.5094 Y35.2934
G01 X29.4585 Y35.3116
G01 X29.4062 Y35.3247
G01 X29.3528 Y35.3326
G01 X29.2989 Y35.3353
G01 X28.9687 Y35.3353
G01 X28.9148 Y35.3326
G01 X28.8614 Y35.3247
G01 X28.8090 Y35.3116
G01 X28.7582 Y35.2934
G01 X28.7544 Y35.2916
G01 X28.7328 Y35.2862
G01 X28.6820 Y35.2680
G01 X28.6332 Y35.2449
G01 X28.6224 Y35.2384
G01 X28.5824 Y35.2195
G01 X28.5716 Y35.2130
G01 X28.5316 Y35.1941
G01 X28.4853 Y35.1664
G01 X28.4493 Y35.1397
G01 X28.4091 Y35.1156
G01 X28.3658 Y35.0834
G01 X28.3258 Y35.0472
G01 X28.3137 Y35.0339
G01 X28.3004 Y35.0218
G01 X28.2883 Y35.0085
G01 X28.2750 Y34.9964
G01 X28.2629 Y34.9831
G01 X28.2496 Y34.9710
G01 X28.2375 Y34.9577
G01 X28.2242 Y34.9456
G01 X28.1879 Y34.9056
G01 X28.1558 Y34.8622
G01 X28.1317 Y34.8221
G01 X28.1050 Y34.7860
G01 X28.0772 Y34.7397
G01 X28.0584 Y34.6998
G01 X28.0518 Y34.6889
G01 X28.0330 Y34.6490
G01 X28.0264 Y34.6381
G01 X28.0139 Y34.6117
G01 X27.7137 Y34.6117
G01 X27.7011 Y34.6382
G01 X27.6946 Y34.6490
G01 X27.6757 Y34.6890
G01 X27.6692 Y34.6998
G01 X27.6503 Y34.7398
G01 X27.6438 Y34.7506
G01 X27.6249 Y34.7906
G01 X27.5972 Y34.8369
G01 X27.5650 Y34.8802
G01 X27.5288 Y34.9202
G01 X27.5155 Y34.9323
G01 X27.5034 Y34.9456
G01 X27.4901 Y34.9577
G01 X27.4780 Y34.9710
G01 X27.4647 Y34.9831
G01 X27.4526 Y34.9964
G01 X27.4393 Y35.0085
G01 X27.4272 Y35.0218
G01 X27.4139 Y35.0339
G01 X27.4018 Y35.0472
G01 X27.3618 Y35.0835
G01 X27.3184 Y35.1156
G01 X27.2783 Y35.1397
G01 X27.2422 Y35.1664
G01 X27.1959 Y35.1942
G01 X27.1560 Y35.2130
G01 X27.1451 Y35.2196
G01 X27.1052 Y35.2384
G01 X27.0943 Y35.2450
G01 X27.0456 Y35.2680
G01 X26.9947 Y35.2862
G01 X26.9732 Y35.2916
G01 X26.9694 Y35.2934
G01 X26.9185 Y35.3116
G01 X26.8662 Y35.3247
G01 X26.8128 Y35.3326
G01 X26.7589 Y35.3353
G01 X26.4287 Y35.3353
G01 X26.3748 Y35.3326
G01 X26.3214 Y35.3247
G01 X26.2690 Y35.3116
G01 X26.2182 Y35.2934
G01 X26.2144 Y35.2916
G01 X26.1928 Y35.2862
G01 X26.1420 Y35.2680
G01 X26.0932 Y35.2449
G01 X26.0824 Y35.2384
G01 X26.0424 Y35.2195
G01 X26.0316 Y35.2130
G01 X25.9916 Y35.1941
G01 X25.9453 Y35.1664
G01 X25.9093 Y35.1397
G01 X25.8691 Y35.1156
G01 X25.8258 Y35.0834
G01 X25.7858 Y35.0472
G01 X25.7737 Y35.0339
G01 X25.7604 Y35.0218
G01 X25.7483 Y35.0085
G01 X25.7350 Y34.9964
G01 X25.7229 Y34.9831
G01 X25.7096 Y34.9710
G01 X25.6975 Y34.9577
G01 X25.6842 Y34.9456
G01 X25.6479 Y34.9056
G01 X25.6158 Y34.8622
G01 X25.5917 Y34.8221
G01 X25.5650 Y34.7860
G01 X25.5372 Y34.7397
G01 X25.5184 Y34.6998
G01 X25.5118 Y34.6889
G01 X25.4930 Y34.6490
G01 X25.4864 Y34.6381
G01 X25.4739 Y34.6117
G01 X25.1883 Y34.6117
G01 X25.1883 Y38.5318
G01 X25.1876 Y38.5588
G01 X25.1849 Y38.6157
G01 X25.1828 Y38.6448
G01 X25.1794 Y38.6723
G01 X25.1711 Y38.7286
G01 X25.1664 Y38.7559
G01 X25.1601 Y38.7844
G01 X25.1463 Y38.8397
G01 X25.1390 Y38.8664
G01 X25.1299 Y38.8941
G01 X25.1108 Y38.9478
G01 X25.1003 Y38.9750
G01 X25.0891 Y39.0004
G01 X25.0648 Y39.0519
G01 X25.0524 Y39.0766
G01 X25.0380 Y39.1021
G01 X25.0088 Y39.1510
G01 X24.9941 Y39.1744
G01 X24.9773 Y39.1983
G01 X24.9434 Y39.2441
G01 X24.9264 Y39.2659
G01 X24.9074 Y39.2881
G01 X24.8692 Y39.3303
G01 X24.8491 Y39.3515
G01 X24.8290 Y39.3706
G01 X24.7869 Y39.4089
G01 X24.7659 Y39.4270
G01 X24.7430 Y39.4450
G01 X24.6972 Y39.4790
G01 X24.6746 Y39.4950
G01 X24.6500 Y39.5107
G01 X24.6012 Y39.5400
G01 X24.5758 Y39.5544
G01 X24.5511 Y39.5669
G01 X24.4996 Y39.5913
G01 X24.4743 Y39.6026
G01 X24.4471 Y39.6131
G01 X24.3935 Y39.6324
G01 X24.3672 Y39.6411
G01 X24.3391 Y39.6490
G01 X24.2839 Y39.6629
G01 X24.2569 Y39.6690
G01 X24.2281 Y39.6740
G01 X24.1718 Y39.6825
G01 X24.1428 Y39.6860
G01 X24.1152 Y39.6881
G01 X24.0583 Y39.6910
G01 X24.0313 Y39.6917
G01 X13.8691 Y39.7171
G01 X6.2484 Y39.7171
G01 X6.2214 Y39.7164
G01 X6.1616 Y39.7135
G01 X6.1079 Y39.7082
G01 X6.0487 Y39.6994
G01 X5.9958 Y39.6889
G01 X5.9377 Y39.6744
G01 X5.9304 Y39.6721
G01 X4.7436 Y39.6915
G01 X4.7167 Y39.6913
G01 X4.6649 Y39.6896
G01 X4.6403 Y39.7099
G01 X4.5652 Y39.7655
G01 X4.5203 Y39.7955
G01 X4.4402 Y39.8436
G01 X4.3926 Y39.8690
G01 X4.3081 Y39.9090
G01 X4.2582 Y39.9296
G01 X4.1702 Y39.9611
G01 X4.1185 Y39.9768
G01 X4.0279 Y39.9995
G01 X3.9749 Y40.0100
G01 X3.8825 Y40.0238
G01 X3.8287 Y40.0290
G01 X3.7354 Y40.0336
G01 X3.6814 Y40.0336
G01 X3.5881 Y40.0290
