(G-CODE GENERATED BY FLATCAM v8.991 - www.flatcam.org - Version Date: 2019/12/27)

(Name: 03-RemoveIslands_cnc)
(Type: G-code from Geometry)
(Units: MM)

(Created on Wednesday, 12 February 2020 at 10:15)

(TOOL DIAMETER: 0.55 mm)
(Feedrate: 120.0 mm/min)
(Feedrate_Z: 60.0 mm/min)
(Feedrate rapids 1500.0 mm/min)

(Z_Cut: -0.07 mm)
(Z_Move: 2.0 mm)
(Z Toolchange: 15.0 mm)
(X,Y Toolchange: 0.0000, 0.0000 mm)
(Z Start: None mm)
(Z End: 15.0 mm)
(Steps per circle: 64)
(Preprocessor Geometry: default)

(X range:   10.4985 ...   27.3985  mm)
(Y range:    7.2471 ...   36.8430  mm)

(Spindle Speed: None RPM)
G21
G90
G94




G01 F120.00
G00 Z2.0000

M03
G00 X18.1691 Y14.6151
G01 F60.00
G01 Z-0.0700
G01 F120.00
G01 X18.1691 Y24.3242
G01 X18.2160 Y24.2995
G01 X18.2701 Y24.2739
G01 X18.2824 Y24.2685
G01 X18.3637 Y24.2349
G01 X18.4379 Y24.2085
G01 X18.5207 Y24.1835
G01 X18.5925 Y24.1654
G01 X18.6801 Y24.1478
G01 X18.6934 Y24.1455
G01 X18.7526 Y24.1367
G01 X18.7660 Y24.1351
G01 X18.8539 Y24.1265
G01 X18.9198 Y24.1232
G01 X18.9671 Y24.1220
G01 X19.6120 Y24.1219
G01 X19.6085 Y24.1143
G01 X19.5776 Y24.0395
G01 X19.5727 Y24.0269
G01 X19.5373 Y23.9271
G01 X19.5122 Y23.8443
G01 X19.4872 Y23.7449
G01 X19.4842 Y23.7317
G01 X19.4684 Y23.6523
G01 X19.4661 Y23.6390
G01 X19.4524 Y23.5466
G01 X19.4507 Y23.5332
G01 X19.4422 Y23.4452
G01 X19.4372 Y23.3458
G01 X19.4369 Y23.3323
G01 X19.4369 Y23.2513
G01 X19.4372 Y23.2378
G01 X19.4418 Y23.1445
G01 X19.4428 Y23.1310
G01 X19.4507 Y23.0504
G01 X19.4524 Y23.0370
G01 X19.4661 Y22.9446
G01 X19.4684 Y22.9313
G01 X19.4842 Y22.8519
G01 X19.4872 Y22.8387
G01 X19.5122 Y22.7393
G01 X19.5373 Y22.6565
G01 X19.5412 Y22.6447
G01 X19.5750 Y22.5506
G01 X19.6085 Y22.4693
G01 X19.6140 Y22.4570
G01 X19.6540 Y22.3725
G01 X19.6601 Y22.3604
G01 X19.6982 Y22.2890
G01 X19.7049 Y22.2773
G01 X19.7568 Y22.1908
G01 X19.8051 Y22.1184
G01 X19.8129 Y22.1074
G01 X19.8686 Y22.0323
G01 X19.8768 Y22.0218
G01 X19.8686 Y22.0113
G01 X19.8129 Y21.9362
G01 X19.8051 Y21.9252
G01 X19.7601 Y21.8579
G01 X19.7529 Y21.8465
G01 X19.7049 Y21.7663
G01 X19.6982 Y21.7546
G01 X19.6601 Y21.6832
G01 X19.6540 Y21.6711
G01 X19.6140 Y21.5866
G01 X19.6085 Y21.5743
G01 X19.5750 Y21.4930
G01 X19.5412 Y21.3989
G01 X19.5373 Y21.3871
G01 X19.5122 Y21.3043
G01 X19.4860 Y21.1999
G01 X19.4684 Y21.1123
G01 X19.4661 Y21.0990
G01 X19.4524 Y21.0066
G01 X19.4507 Y20.9932
G01 X19.4422 Y20.9052
G01 X19.4372 Y20.8058
G01 X19.4369 Y20.7923
G01 X19.4369 Y20.7113
G01 X19.4372 Y20.6978
G01 X19.4418 Y20.6045
G01 X19.4428 Y20.5910
G01 X19.4507 Y20.5104
G01 X19.4524 Y20.4970
G01 X19.4661 Y20.4046
G01 X19.4684 Y20.3913
G01 X19.4860 Y20.3037
G01 X19.5122 Y20.1993
G01 X19.5370 Y20.1175
G01 X19.5412 Y20.1047
G01 X19.5750 Y20.0106
G01 X19.6085 Y19.9293
G01 X19.6140 Y19.9170
G01 X19.6540 Y19.8325
G01 X19.6601 Y19.8204
G01 X19.7032 Y19.7401
G01 X19.7568 Y19.6508
G01 X19.8051 Y19.5784
G01 X19.8129 Y19.5674
G01 X19.8686 Y19.4923
G01 X19.8768 Y19.4818
G01 X19.8686 Y19.4713
G01 X19.8129 Y19.3962
G01 X19.8051 Y19.3852
G01 X19.7601 Y19.3179
G01 X19.7529 Y19.3065
G01 X19.7049 Y19.2263
G01 X19.6982 Y19.2146
G01 X19.6601 Y19.1432
G01 X19.6540 Y19.1311
G01 X19.6140 Y19.0466
G01 X19.6085 Y19.0343
G01 X19.5750 Y18.9530
G01 X19.5412 Y18.8589
G01 X19.5373 Y18.8471
G01 X19.5122 Y18.7643
G01 X19.4860 Y18.6599
G01 X19.4684 Y18.5723
G01 X19.4661 Y18.5590
G01 X19.4524 Y18.4666
G01 X19.4507 Y18.4532
G01 X19.4422 Y18.3652
G01 X19.4372 Y18.2658
G01 X19.4369 Y18.2523
G01 X19.4369 Y18.1713
G01 X19.4372 Y18.1578
G01 X19.4422 Y18.0584
G01 X19.4507 Y17.9704
G01 X19.4524 Y17.9570
G01 X19.4661 Y17.8646
G01 X19.4684 Y17.8513
G01 X19.4842 Y17.7719
G01 X19.4872 Y17.7587
G01 X19.5099 Y17.6680
G01 X19.5135 Y17.6550
G01 X19.5373 Y17.5765
G01 X19.5727 Y17.4767
G01 X19.5776 Y17.4641
G01 X19.6085 Y17.3893
G01 X19.6140 Y17.3770
G01 X19.6540 Y17.2925
G01 X19.6601 Y17.2804
G01 X19.7032 Y17.2001
G01 X19.7568 Y17.1108
G01 X19.8051 Y17.0384
G01 X19.8129 Y17.0274
G01 X19.8686 Y16.9523
G01 X19.8768 Y16.9418
G01 X19.8686 Y16.9313
G01 X19.8129 Y16.8562
G01 X19.8051 Y16.8452
G01 X19.7568 Y16.7728
G01 X19.7049 Y16.6863
G01 X19.6982 Y16.6746
G01 X19.6601 Y16.6032
G01 X19.6540 Y16.5911
G01 X19.6140 Y16.5066
G01 X19.6085 Y16.4943
G01 X19.5750 Y16.4130
G01 X19.5412 Y16.3189
G01 X19.5373 Y16.3071
G01 X19.5122 Y16.2243
G01 X19.4872 Y16.1249
G01 X19.4842 Y16.1117
G01 X19.4684 Y16.0323
G01 X19.4661 Y16.0190
G01 X19.4522 Y15.9251
G01 X19.4428 Y15.8326
G01 X19.4418 Y15.8191
G01 X19.4372 Y15.7258
G01 X19.4369 Y15.7123
G01 X19.4369 Y15.6313
G01 X19.4372 Y15.6178
G01 X19.4418 Y15.5245
G01 X19.4428 Y15.5110
G01 X19.4522 Y15.4185
G01 X19.4661 Y15.3246
G01 X19.4684 Y15.3113
G01 X19.4842 Y15.2319
G01 X19.4872 Y15.2187
G01 X19.5099 Y15.1280
G01 X19.5135 Y15.1150
G01 X19.5370 Y15.0375
G01 X19.5412 Y15.0247
G01 X19.5763 Y14.9272
G01 X19.6085 Y14.8493
G01 X19.6194 Y14.8256
G01 X18.9430 Y14.8160
G01 X18.9025 Y14.8144
G01 X18.8660 Y14.8125
G01 X18.8144 Y14.8088
G01 X18.7875 Y14.8061
G01 X18.7369 Y14.7994
G01 X18.6967 Y14.7933
G01 X18.6483 Y14.7849
G01 X18.6198 Y14.7792
G01 X18.5721 Y14.7680
G01 X18.5389 Y14.7596
G01 X18.4853 Y14.7450
G01 X18.4641 Y14.7386
G01 X18.4111 Y14.7206
G01 X18.3806 Y14.7096
G01 X18.3271 Y14.6892
G01 X18.3078 Y14.6812
G01 X18.2482 Y14.6542
G01 X18.2192 Y14.6403
G01 X18.1691 Y14.6151
G00 Z2.0000
G00 X18.4441 Y15.0188
G01 F60.00
G01 Z-0.0700
G01 F120.00
G01 X18.4441 Y23.9194
G01 X18.4627 Y23.9144
G01 X18.5348 Y23.8965
G01 X18.6331 Y23.8769
G01 X18.6531 Y23.8735
G01 X18.7190 Y23.8638
G01 X18.7391 Y23.8614
G01 X18.8196 Y23.8535
G01 X18.8435 Y23.8517
G01 X18.9063 Y23.8486
G01 X18.9637 Y23.8470
G01 X19.2292 Y23.8469
G01 X19.2171 Y23.7977
G01 X19.1987 Y23.7060
G01 X19.1941 Y23.6794
G01 X19.1795 Y23.5802
G01 X19.1771 Y23.5601
G01 X19.1682 Y23.4685
G01 X19.1623 Y23.3525
G01 X19.1619 Y23.3323
G01 X19.1620 Y23.2446
G01 X19.1626 Y23.2243
G01 X19.1677 Y23.1218
G01 X19.1691 Y23.1040
G01 X19.1778 Y23.0168
G01 X19.1804 Y22.9967
G01 X19.1952 Y22.8976
G01 X19.1987 Y22.8776
G01 X19.2171 Y22.7859
G01 X19.2466 Y22.6681
G01 X19.2764 Y22.5697
G01 X19.2823 Y22.5521
G01 X19.3196 Y22.4487
G01 X19.3545 Y22.3641
G01 X19.3626 Y22.3455
G01 X19.4054 Y22.2549
G01 X19.4144 Y22.2368
G01 X19.4557 Y22.1594
G01 X19.4665 Y22.1401
G01 X19.5190 Y22.0526
G01 X19.5389 Y22.0218
G01 X19.5264 Y22.0030
G01 X19.5171 Y21.9879
G01 X19.4682 Y21.9063
G01 X19.4557 Y21.8842
G01 X19.4175 Y21.8128
G01 X19.4083 Y21.7948
G01 X19.3626 Y21.6981
G01 X19.3545 Y21.6795
G01 X19.3235 Y21.6047
G01 X19.3138 Y21.5795
G01 X19.2823 Y21.4915
G01 X19.2764 Y21.4739
G01 X19.2484 Y21.3820
G01 X19.2431 Y21.3624
G01 X19.2204 Y21.2717
G01 X19.2145 Y21.2454
G01 X19.1987 Y21.1660
G01 X19.1952 Y21.1460
G01 X19.1795 Y21.0402
G01 X19.1771 Y21.0201
G01 X19.1691 Y20.9396
G01 X19.1671 Y20.9126
G01 X19.1623 Y20.8125
G01 X19.1619 Y20.7923
G01 X19.1619 Y20.7113
G01 X19.1626 Y20.6843
G01 X19.1671 Y20.5910
G01 X19.1691 Y20.5640
G01 X19.1771 Y20.4835
G01 X19.1795 Y20.4634
G01 X19.1952 Y20.3576
G01 X19.1987 Y20.3376
G01 X19.2145 Y20.2582
G01 X19.2204 Y20.2319
G01 X19.2466 Y20.1281
G01 X19.2743 Y20.0361
G01 X19.2823 Y20.0121
G01 X19.3138 Y19.9241
G01 X19.3235 Y19.8989
G01 X19.3545 Y19.8241
G01 X19.3626 Y19.8055
G01 X19.4054 Y19.7149
G01 X19.4175 Y19.6908
G01 X19.4631 Y19.6060
G01 X19.5190 Y19.5126
G01 X19.5389 Y19.4818
G01 X19.5264 Y19.4630
G01 X19.5171 Y19.4479
G01 X19.4682 Y19.3663
G01 X19.4557 Y19.3442
G01 X19.4175 Y19.2728
G01 X19.4083 Y19.2548
G01 X19.3654 Y19.1642
G01 X19.3545 Y19.1395
G01 X19.3171 Y19.0486
G01 X19.2823 Y18.9515
G01 X19.2764 Y18.9339
G01 X19.2466 Y18.8355
G01 X19.2186 Y18.7242
G01 X19.2145 Y18.7054
G01 X19.1975 Y18.6193
G01 X19.1941 Y18.5994
G01 X19.1804 Y18.5069
G01 X19.1771 Y18.4801
G01 X19.1691 Y18.3996
G01 X19.1671 Y18.3726
G01 X19.1623 Y18.2725
G01 X19.1619 Y18.2523
G01 X19.1620 Y18.1646
G01 X19.1626 Y18.1443
G01 X19.1677 Y18.0418
G01 X19.1771 Y17.9435
G01 X19.1804 Y17.9167
G01 X19.1952 Y17.8176
G01 X19.1987 Y17.7976
G01 X19.2145 Y17.7182
G01 X19.2198 Y17.6944
G01 X19.2431 Y17.6012
G01 X19.2503 Y17.5752
G01 X19.2764 Y17.4897
G01 X19.2823 Y17.4721
G01 X19.3138 Y17.3841
G01 X19.3235 Y17.3589
G01 X19.3571 Y17.2779
G01 X19.3654 Y17.2594
G01 X19.4054 Y17.1749
G01 X19.4144 Y17.1568
G01 X19.4557 Y17.0794
G01 X19.4665 Y17.0601
G01 X19.5190 Y16.9726
G01 X19.5389 Y16.9418
G01 X19.5190 Y16.9110
G01 X19.4665 Y16.8235
G01 X19.4557 Y16.8042
G01 X19.4144 Y16.7268
G01 X19.4054 Y16.7087
G01 X19.3626 Y16.6181
G01 X19.3545 Y16.5995
G01 X19.3196 Y16.5149
G01 X19.2823 Y16.4115
G01 X19.2764 Y16.3939
G01 X19.2466 Y16.2955
G01 X19.2171 Y16.1777
G01 X19.1987 Y16.0860
G01 X19.1952 Y16.0660
G01 X19.1792 Y15.9580
G01 X19.1771 Y15.9401
G01 X19.1678 Y15.8429
G01 X19.1626 Y15.7393
G01 X19.1620 Y15.7190
G01 X19.1619 Y15.6313
G01 X19.1626 Y15.6043
G01 X19.1683 Y15.4940
G01 X19.1771 Y15.4035
G01 X19.1801 Y15.3789
G01 X19.1941 Y15.2842
G01 X19.1987 Y15.2576
G01 X19.2164 Y15.1692
G01 X19.2346 Y15.0952
G01 X18.9357 Y15.0909
G01 X18.8919 Y15.0892
G01 X18.8516 Y15.0871
G01 X18.7783 Y15.0816
G01 X18.7524 Y15.0788
G01 X18.6967 Y15.0714
G01 X18.6500 Y15.0643
G01 X18.5916 Y15.0541
G01 X18.5612 Y15.0478
G01 X18.5074 Y15.0353
G01 X18.4691 Y15.0256
G01 X18.4441 Y15.0188
G01 X18.7191 Y15.3518
G01 X18.7191 Y23.5870
G01 X18.8108 Y23.5782
G01 X18.8331 Y23.5768
G01 X18.9021 Y23.5735
G01 X18.8953 Y23.5047
G01 X18.8932 Y23.4783
G01 X18.8879 Y23.3728
G01 X18.8871 Y23.3458
G01 X18.8871 Y23.2378
G01 X18.8879 Y23.2108
G01 X18.8926 Y23.1160
G01 X18.8955 Y23.0771
G01 X18.9037 Y22.9932
G01 X18.9079 Y22.9597
G01 X18.9242 Y22.8505
G01 X18.9290 Y22.8240
G01 X18.9452 Y22.7425
G01 X18.9537 Y22.7051
G01 X18.9769 Y22.6122
G01 X18.9862 Y22.5786
G01 X19.0113 Y22.4958
G01 X19.0193 Y22.4712
G01 X19.0593 Y22.3593
G01 X19.0688 Y22.3353
G01 X19.1004 Y22.2588
G01 X19.1168 Y22.2218
G01 X19.1627 Y22.1252
G01 X19.1750 Y22.1012
G01 X19.2175 Y22.0218
G01 X19.1734 Y21.9395
G01 X19.1568 Y21.9063
G01 X19.1112 Y21.8095
G01 X19.1004 Y21.7848
G01 X19.0688 Y21.7083
G01 X19.0554 Y21.6737
G01 X19.0234 Y21.5842
G01 X19.0154 Y21.5607
G01 X18.9862 Y21.4650
G01 X18.9764 Y21.4292
G01 X18.9490 Y21.3187
G01 X18.9290 Y21.2196
G01 X18.9221 Y21.1797
G01 X18.9065 Y21.0739
G01 X18.9034 Y21.0471
G01 X18.8955 Y20.9665
G01 X18.8926 Y20.9276
G01 X18.8874 Y20.8193
G01 X18.8869 Y20.7923
G01 X18.8869 Y20.7113
G01 X18.8879 Y20.6708
G01 X18.8925 Y20.5775
G01 X18.8939 Y20.5552
G01 X18.9034 Y20.4565
G01 X18.9083 Y20.4163
G01 X18.9242 Y20.3105
G01 X18.9290 Y20.2840
G01 X18.9448 Y20.2046
G01 X18.9527 Y20.1688
G01 X18.9810 Y20.0569
G01 X18.9868 Y20.0364
G01 X19.0109 Y19.9571
G01 X19.0193 Y19.9312
G01 X19.0554 Y19.8299
G01 X19.0694 Y19.7936
G01 X19.1004 Y19.7188
G01 X19.1112 Y19.6941
G01 X19.1568 Y19.5973
G01 X19.1734 Y19.5641
G01 X19.2175 Y19.4818
G01 X19.1750 Y19.4024
G01 X19.1627 Y19.3784
G01 X19.1168 Y19.2818
G01 X19.1004 Y19.2448
G01 X19.0688 Y19.1683
G01 X19.0605 Y19.1475
G01 X19.0193 Y19.0324
G01 X19.0113 Y19.0078
G01 X18.9872 Y18.9282
G01 X18.9764 Y18.8892
G01 X18.9533 Y18.7973
G01 X18.9482 Y18.7754
G01 X18.9265 Y18.6664
G01 X18.9221 Y18.6397
G01 X18.9083 Y18.5473
G01 X18.9034 Y18.5071
G01 X18.8953 Y18.4247
G01 X18.8934 Y18.4017
G01 X18.8874 Y18.2793
G01 X18.8869 Y18.2523
G01 X18.8869 Y18.1713
G01 X18.8879 Y18.1308
G01 X18.8926 Y18.0360
G01 X18.8948 Y18.0045
G01 X18.9034 Y17.9165
G01 X18.9070 Y17.8864
G01 X18.9226 Y17.7805
G01 X18.9290 Y17.7440
G01 X18.9490 Y17.6449
G01 X18.9764 Y17.5344
G01 X18.9846 Y17.5039
G01 X19.0107 Y17.4179
G01 X19.0223 Y17.3824
G01 X19.0593 Y17.2793
G01 X19.0694 Y17.2536
G01 X19.1044 Y17.1695
G01 X19.1168 Y17.1418
G01 X19.1627 Y17.0452
G01 X19.1750 Y17.0212
G01 X19.2175 Y16.9418
G01 X19.1750 Y16.8624
G01 X19.1627 Y16.8384
G01 X19.1154 Y16.7387
G01 X19.1017 Y16.7079
G01 X19.0694 Y16.6300
G01 X19.0549 Y16.5922
G01 X19.0234 Y16.5042
G01 X19.0154 Y16.4807
G01 X18.9819 Y16.3699
G01 X18.9764 Y16.3492
G01 X18.9505 Y16.2453
G01 X18.9452 Y16.2211
G01 X18.9290 Y16.1396
G01 X18.9221 Y16.0997
G01 X18.9079 Y16.0043
G01 X18.9037 Y15.9701
G01 X18.8953 Y15.8848
G01 X18.8935 Y15.8631
G01 X18.8875 Y15.7426
G01 X18.8869 Y15.7123
G01 X18.8869 Y15.6313
G01 X18.8879 Y15.5908
G01 X18.8925 Y15.4975
G01 X18.8940 Y15.4737
G01 X18.9047 Y15.3649
G01 X18.8745 Y15.3637
G01 X18.8244 Y15.3609
G01 X18.7666 Y15.3567
G01 X18.7191 Y15.3518
G00 Z2.0000
G00 X23.2778 Y11.5959
G01 F60.00
G01 Z-0.0700
G01 F120.00
G01 X23.3247 Y11.5724
G01 X23.3755 Y11.5485
G01 X23.4317 Y11.5238
G01 X23.4839 Y11.5039
G01 X23.5317 Y11.4870
G01 X23.5793 Y11.4713
G01 X23.5934 Y11.4670
G01 X23.6384 Y11.4547
G01 X23.6929 Y11.4412
G01 X23.7442 Y11.4297
G01 X23.7599 Y11.4266
G01 X23.8093 Y11.4184
G01 X23.8651 Y11.4104
G01 X23.9190 Y11.4040
G01 X23.9763 Y11.4001
G01 X24.0324 Y11.3976
G01 X24.0897 Y11.3965
G01 X27.1881 Y11.4163
G01 X27.1611 Y11.3510
G01 X27.1248 Y11.2499
G01 X27.1205 Y11.2371
G01 X27.0970 Y11.1596
G01 X27.0934 Y11.1466
G01 X27.0681 Y11.0452
G01 X27.0510 Y10.9598
G01 X27.0487 Y10.9465
G01 X27.0343 Y10.8488
G01 X27.0249 Y10.7563
G01 X27.0239 Y10.7429
G01 X27.0191 Y10.6458
G01 X27.0188 Y10.6323
G01 X27.0188 Y10.5513
G01 X27.0191 Y10.5378
G01 X27.0239 Y10.4407
G01 X27.0249 Y10.4273
G01 X27.0343 Y10.3348
G01 X27.0487 Y10.2371
G01 X27.0510 Y10.2238
G01 X27.0668 Y10.1444
G01 X27.0698 Y10.1313
G01 X27.0934 Y10.0370
G01 X27.0970 Y10.0240
G01 X27.1205 Y9.9465
G01 X27.1248 Y9.9337
G01 X27.1611 Y9.8326
G01 X27.1933 Y9.7547
G01 X27.1988 Y9.7424
G01 X27.2430 Y9.6491
G01 X27.2896 Y9.5621
G01 X27.3412 Y9.4759
G01 X27.3485 Y9.4645
G01 X27.3985 Y9.3900
G01 X27.3985 Y7.2471
G01 X25.9156 Y7.2471
G01 X25.9418 Y7.3106
G01 X25.9756 Y7.4047
G01 X25.9795 Y7.4165
G01 X26.0034 Y7.4954
G01 X26.0069 Y7.5080
G01 X26.0313 Y7.6059
G01 X26.0484 Y7.6913
G01 X26.0507 Y7.7046
G01 X26.0645 Y7.7978
G01 X26.0661 Y7.8104
G01 X26.0740 Y7.8910
G01 X26.0750 Y7.9045
G01 X26.0796 Y7.9978
G01 X26.0799 Y8.0113
G01 X26.0799 Y8.0923
G01 X26.0796 Y8.1058
G01 X26.0746 Y8.2060
G01 X26.0646 Y8.3051
G01 X26.0507 Y8.3990
G01 X26.0484 Y8.4123
G01 X26.0313 Y8.4977
G01 X26.0069 Y8.5956
G01 X26.0033 Y8.6086
G01 X25.9798 Y8.6861
G01 X25.9756 Y8.6989
G01 X25.9405 Y8.7964
G01 X25.9083 Y8.8743
G01 X25.9028 Y8.8866
G01 X25.8628 Y8.9711
G01 X25.8567 Y8.9832
G01 X25.8136 Y9.0635
G01 X25.7639 Y9.1465
G01 X25.7567 Y9.1579
G01 X25.7117 Y9.2252
G01 X25.7039 Y9.2362
G01 X25.6482 Y9.3113
G01 X25.6399 Y9.3220
G01 X25.5848 Y9.3891
G01 X25.5170 Y9.4640
G01 X25.5077 Y9.4738
G01 X25.4504 Y9.5311
G01 X25.4406 Y9.5404
G01 X25.3707 Y9.6038
G01 X25.3612 Y9.6120
G01 X25.2923 Y9.6683
G01 X25.2128 Y9.7273
G01 X25.2018 Y9.7351
G01 X25.1345 Y9.7801
G01 X25.1231 Y9.7873
G01 X25.0429 Y9.8353
G01 X25.0325 Y9.8413
G01 X24.9598 Y9.8801
G01 X24.9477 Y9.8862
G01 X24.8602 Y9.9276
G01 X24.7696 Y9.9652
G01 X24.6728 Y9.9999
G01 X24.5852 Y10.0267
G01 X24.5722 Y10.0303
G01 X24.4815 Y10.0530
G01 X24.4683 Y10.0560
G01 X24.3836 Y10.0728
G01 X24.2743 Y10.0890
G01 X24.1818 Y10.0980
G01 X24.0824 Y10.1030
G01 X24.0689 Y10.1033
G01 X23.9879 Y10.1033
G01 X23.9744 Y10.1030
G01 X23.8750 Y10.0980
G01 X23.7825 Y10.0890
G01 X23.6732 Y10.0728
G01 X23.5885 Y10.0560
G01 X23.5753 Y10.0530
G01 X23.4846 Y10.0303
G01 X23.4597 Y10.0231
G01 X23.4669 Y10.0480
G01 X23.4913 Y10.1459
G01 X23.5084 Y10.2313
G01 X23.5107 Y10.2446
G01 X23.5246 Y10.3385
G01 X23.5346 Y10.4376
G01 X23.5396 Y10.5378
G01 X23.5399 Y10.5513
G01 X23.5399 Y10.6323
G01 X23.5396 Y10.6458
G01 X23.5346 Y10.7460
G01 X23.5261 Y10.8332
G01 X23.5246 Y10.8451
G01 X23.5107 Y10.9390
G01 X23.5084 Y10.9523
G01 X23.4913 Y11.0377
G01 X23.4669 Y11.1356
G01 X23.4633 Y11.1486
G01 X23.4398 Y11.2261
G01 X23.4356 Y11.2389
G01 X23.4005 Y11.3364
G01 X23.3639 Y11.4243
G01 X23.3202 Y11.5165
G01 X23.2778 Y11.5959
G01 X23.7468 Y11.1500
G01 X23.7705 Y11.1462
G01 X23.8291 Y11.1378
G01 X23.8890 Y11.1306
G01 X23.9502 Y11.1261
G01 X24.0225 Y11.1227
G01 X24.0823 Y11.1215
G01 X26.8080 Y11.1388
G01 X26.7990 Y11.1018
G01 X26.7801 Y11.0068
G01 X26.7767 Y10.9868
G01 X26.7612 Y10.8818
G01 X26.7592 Y10.8639
G01 X26.7503 Y10.7733
G01 X26.7442 Y10.6525
G01 X26.7438 Y10.6323
G01 X26.7439 Y10.5446
G01 X26.7445 Y10.5243
G01 X26.7498 Y10.4170
G01 X26.7592 Y10.3197
G01 X26.7612 Y10.3018
G01 X26.7778 Y10.1901
G01 X26.7813 Y10.1702
G01 X26.8005 Y10.0752
G01 X26.8267 Y9.9701
G01 X26.8320 Y9.9506
G01 X26.8574 Y9.8667
G01 X26.8636 Y9.8474
G01 X26.9039 Y9.7352
G01 X26.9393 Y9.6495
G01 X26.9458 Y9.6345
G01 X26.9987 Y9.5228
G01 X27.0421 Y9.4414
G01 X27.0529 Y9.4222
G01 X27.1054 Y9.3346
G01 X27.1235 Y9.3062
G01 X27.1235 Y7.5221
G01 X26.2939 Y7.5221
G01 X26.3017 Y7.5552
G01 X26.3193 Y7.6443
G01 X26.3227 Y7.6642
G01 X26.3375 Y7.7645
G01 X26.3397 Y7.7835
G01 X26.3486 Y7.8746
G01 X26.3545 Y7.9911
G01 X26.3549 Y8.0113
G01 X26.3549 Y8.0923
G01 X26.3545 Y8.1125
G01 X26.3485 Y8.2296
G01 X26.3397 Y8.3201
G01 X26.3376 Y8.3380
G01 X26.3227 Y8.4394
G01 X26.3181 Y8.4660
G01 X26.2990 Y8.5610
G01 X26.2737 Y8.6624
G01 X26.2665 Y8.6884
G01 X26.2430 Y8.7659
G01 X26.2345 Y8.7915
G01 X26.1977 Y8.8938
G01 X26.1623 Y8.9795
G01 X26.1519 Y9.0030
G01 X26.1075 Y9.0968
G01 X26.0993 Y9.1128
G01 X26.0537 Y9.1976
G01 X25.9962 Y9.2936
G01 X25.9853 Y9.3107
G01 X25.9310 Y9.3915
G01 X25.8691 Y9.4751
G01 X25.8525 Y9.4964
G01 X25.7911 Y9.5709
G01 X25.7207 Y9.6487
G01 X25.7021 Y9.6683
G01 X25.6324 Y9.7376
G01 X25.5550 Y9.8079
G01 X25.5356 Y9.8245
G01 X25.4636 Y9.8835
G01 X25.3767 Y9.9482
G01 X25.3546 Y9.9637
G01 X25.2873 Y10.0087
G01 X25.2702 Y10.0196
G01 X25.1843 Y10.0712
G01 X25.1608 Y10.0845
G01 X25.0734 Y10.1309
G01 X24.9763 Y10.1769
G01 X24.9561 Y10.1857
G01 X24.8813 Y10.2167
G01 X24.8561 Y10.2264
G01 X24.7577 Y10.2615
G01 X24.6650 Y10.2899
G01 X24.6390 Y10.2971
G01 X24.5343 Y10.3231
G01 X24.4426 Y10.3415
G01 X24.4200 Y10.3455
G01 X24.3103 Y10.3616
G01 X24.2162 Y10.3711
G01 X24.1892 Y10.3731
G01 X24.0904 Y10.3779
G01 X24.0689 Y10.3783
G01 X23.9879 Y10.3783
G01 X23.9664 Y10.3779
G01 X23.8584 Y10.3725
G01 X23.8041 Y10.3675
G01 X23.8080 Y10.4074
G01 X23.8095 Y10.4276
G01 X23.8142 Y10.5243
G01 X23.8148 Y10.5446
G01 X23.8149 Y10.6323
G01 X23.8145 Y10.6525
G01 X23.8090 Y10.7629
G01 X23.7997 Y10.8601
G01 X23.7976 Y10.8780
G01 X23.7827 Y10.9794
G01 X23.7781 Y11.0060
G01 X23.7617 Y11.0884
G01 X23.7573 Y11.1081
G01 X23.7468 Y11.1500
G01 X24.0774 Y10.8465
G01 X26.4826 Y10.8618
G01 X26.4774 Y10.8086
G01 X26.4754 Y10.7835
G01 X26.4698 Y10.6728
G01 X26.4689 Y10.6424
G01 X26.4688 Y10.5513
G01 X26.4693 Y10.5243
G01 X26.4748 Y10.4086
G01 X26.4771 Y10.3783
G01 X26.4855 Y10.2928
G01 X26.4900 Y10.2555
G01 X26.5047 Y10.1564
G01 X26.5091 Y10.1298
G01 X26.5274 Y10.0371
G01 X26.5321 Y10.0152
G01 X26.5633 Y9.8903
G01 X26.5707 Y9.8643
G01 X26.5942 Y9.7868
G01 X26.6069 Y9.7484
G01 X26.6405 Y9.6545
G01 X26.6517 Y9.6253
G01 X26.6852 Y9.5443
G01 X26.6952 Y9.5211
G01 X26.7499 Y9.4055
G01 X26.7614 Y9.3832
G01 X26.8045 Y9.3028
G01 X26.8162 Y9.2822
G01 X26.8485 Y9.2282
G01 X26.8485 Y7.7971
G01 X26.6174 Y7.7971
G01 X26.6218 Y7.8423
G01 X26.6236 Y7.8646
G01 X26.6291 Y7.9742
G01 X26.6299 Y8.0079
G01 X26.6299 Y8.0957
G01 X26.6289 Y8.1328
G01 X26.6235 Y8.2398
G01 X26.6215 Y8.2648
G01 X26.6124 Y8.3560
G01 X26.6089 Y8.3843
G01 X26.5926 Y8.4931
G01 X26.5878 Y8.5196
G01 X26.5688 Y8.6143
G01 X26.5631 Y8.6385
G01 X26.5404 Y8.7292
G01 X26.5334 Y8.7553
G01 X26.5061 Y8.8457
G01 X26.4967 Y8.8746
G01 X26.4619 Y8.9722
G01 X26.4536 Y8.9943
G01 X26.4164 Y9.0848
G01 X26.4064 Y9.1079
G01 X26.3600 Y9.2063
G01 X26.3503 Y9.2262
G01 X26.3024 Y9.3161
G01 X26.2841 Y9.3484
G01 X26.2356 Y9.4292
G01 X26.2195 Y9.4550
G01 X26.1675 Y9.5330
G01 X26.1457 Y9.5639
G01 X26.0880 Y9.6417
G01 X26.0651 Y9.6709
G01 X25.9996 Y9.7502
G01 X25.9245 Y9.8334
G01 X25.8966 Y9.8627
G01 X25.8268 Y9.9322
G01 X25.8100 Y9.9479
G01 X25.7292 Y10.0209
G01 X25.7101 Y10.0371
G01 X25.6322 Y10.1007
G01 X25.6156 Y10.1134
G01 X25.5295 Y10.1770
G01 X25.5074 Y10.1924
G01 X25.4401 Y10.2374
G01 X25.4173 Y10.2519
G01 X25.3257 Y10.3071
G01 X25.3049 Y10.3191
G01 X25.2028 Y10.3737
G01 X25.1829 Y10.3834
G01 X25.0832 Y10.4304
G01 X25.0614 Y10.4398
G01 X24.9704 Y10.4772
G01 X24.9488 Y10.4853
G01 X24.8426 Y10.5231
G01 X24.7448 Y10.5530
G01 X24.7189 Y10.5604
G01 X24.6151 Y10.5865
G01 X24.5953 Y10.5912
G01 X24.4962 Y10.6112
G01 X24.4756 Y10.6150
G01 X24.3639 Y10.6319
G01 X24.3429 Y10.6347
G01 X24.2431 Y10.6447
G01 X24.2183 Y10.6468
G01 X24.1094 Y10.6523
G01 X24.0896 Y10.6530
G01 X24.0889 Y10.6728
G01 X24.0835 Y10.7798
G01 X24.0818 Y10.8015
G01 X24.0774 Y10.8465
G01 X25.4008 Y10.5799
G01 X26.1938 Y10.5849
G01 X26.1938 Y10.5446
G01 X26.1946 Y10.5108
G01 X26.2009 Y10.3832
G01 X26.2035 Y10.3497
G01 X26.2118 Y10.2658
G01 X26.2169 Y10.2226
G01 X26.2359 Y10.0961
G01 X26.2416 Y10.0645
G01 X26.2577 Y9.9835
G01 X26.2678 Y9.9380
G01 X26.2973 Y9.8205
G01 X26.2776 Y9.8453
G01 X26.2249 Y9.9096
G01 X26.2081 Y9.9295
G01 X26.1917 Y9.9481
G01 X26.1282 Y10.0181
G01 X26.1052 Y10.0427
G01 X26.0331 Y10.1150
G01 X26.0102 Y10.1373
G01 X25.9236 Y10.2160
G01 X25.8953 Y10.2406
G01 X25.8212 Y10.3017
G01 X25.7943 Y10.3230
G01 X25.7029 Y10.3909
G01 X25.6657 Y10.4173
G01 X25.5886 Y10.4688
G01 X25.5530 Y10.4914
G01 X25.4567 Y10.5490
G01 X25.4294 Y10.5645
G01 X25.4008 Y10.5799
G00 Z2.0000
G00 X16.4367 Y30.1323
G01 F60.00
G01 Z-0.0700
G01 F120.00
G01 X15.5783 Y30.1206
G01 X15.5783 Y36.8430
G01 X19.6170 Y36.8329
G01 X19.6085 Y36.8143
G01 X19.5776 Y36.7395
G01 X19.5727 Y36.7269
G01 X19.5393 Y36.6332
G01 X19.5135 Y36.5486
G01 X19.5099 Y36.5356
G01 X19.4850 Y36.4357
G01 X19.4669 Y36.3439
G01 X19.4522 Y36.2451
G01 X19.4422 Y36.1452
G01 X19.4372 Y36.0458
G01 X19.4369 Y36.0323
G01 X19.4369 Y35.9513
G01 X19.4372 Y35.9378
G01 X19.4422 Y35.8384
G01 X19.4507 Y35.7504
G01 X19.4524 Y35.7370
G01 X19.4669 Y35.6397
G01 X19.4842 Y35.5519
G01 X19.4872 Y35.5387
G01 X19.5099 Y35.4480
G01 X19.5171 Y35.4231
G01 X19.4922 Y35.4303
G01 X19.4015 Y35.4530
G01 X19.3883 Y35.4560
G01 X19.3089 Y35.4718
G01 X19.2956 Y35.4741
G01 X19.2032 Y35.4878
G01 X19.1898 Y35.4895
G01 X19.1092 Y35.4974
G01 X19.1092 Y35.4971
G01 X19.0957 Y35.4984
G01 X19.0024 Y35.5030
G01 X18.9889 Y35.5033
G01 X18.9079 Y35.5033
G01 X18.8944 Y35.5030
G01 X18.8011 Y35.4984
G01 X18.7876 Y35.4974
G01 X18.7070 Y35.4895
G01 X18.6936 Y35.4878
G01 X18.6012 Y35.4741
G01 X18.5879 Y35.4718
G01 X18.5085 Y35.4560
G01 X18.5085 Y35.4557
G01 X18.4953 Y35.4530
G01 X18.3959 Y35.4280
G01 X18.3131 Y35.4029
G01 X18.2133 Y35.3675
G01 X18.2007 Y35.3626
G01 X18.1259 Y35.3317
G01 X18.1136 Y35.3262
G01 X18.0291 Y35.2862
G01 X18.0170 Y35.2801
G01 X17.9456 Y35.2420
G01 X17.9339 Y35.2353
G01 X17.8537 Y35.1873
G01 X17.8423 Y35.1801
G01 X17.7750 Y35.1351
G01 X17.7640 Y35.1273
G01 X17.6889 Y35.0716
G01 X17.6782 Y35.0633
G01 X17.6156 Y35.0120
G01 X17.6054 Y35.0031
G01 X17.5362 Y34.9404
G01 X17.5364 Y34.9401
G01 X17.5264 Y34.9311
G01 X17.4691 Y34.8738
G01 X17.4598 Y34.8640
G01 X17.3971 Y34.7948
G01 X17.3882 Y34.7846
G01 X17.3369 Y34.7220
G01 X17.3286 Y34.7113
G01 X17.2729 Y34.6362
G01 X17.2651 Y34.6252
G01 X17.2201 Y34.5579
G01 X17.2129 Y34.5465
G01 X17.1649 Y34.4663
G01 X17.1652 Y34.4661
G01 X17.1582 Y34.4546
G01 X17.1201 Y34.3832
G01 X17.1140 Y34.3711
G01 X17.0740 Y34.2866
G01 X17.0685 Y34.2743
G01 X17.0376 Y34.1995
G01 X17.0327 Y34.1869
G01 X17.0012 Y34.0989
G01 X16.9970 Y34.0861
G01 X16.9722 Y34.0043
G01 X16.9450 Y33.8957
G01 X16.9284 Y33.8123
G01 X16.9261 Y33.7990
G01 X16.9122 Y33.7051
G01 X16.9028 Y33.6126
G01 X16.9018 Y33.5991
G01 X16.8972 Y33.5058
G01 X16.8969 Y33.4923
G01 X16.8969 Y33.4113
G01 X16.8972 Y33.3978
G01 X16.9022 Y33.2984
G01 X16.9107 Y33.2104
G01 X16.9124 Y33.1970
G01 X16.9269 Y33.0997
G01 X16.9442 Y33.0119
G01 X16.9472 Y32.9987
G01 X16.9722 Y32.8993
G01 X16.9993 Y32.8104
G01 X17.0012 Y32.8047
G01 X17.0327 Y32.7167
G01 X17.0376 Y32.7041
G01 X17.0685 Y32.6293
G01 X17.0740 Y32.6170
G01 X17.1166 Y32.5271
G01 X17.1582 Y32.4490
G01 X17.1649 Y32.4373
G01 X17.2129 Y32.3571
G01 X17.2132 Y32.3573
G01 X17.2200 Y32.3459
G01 X17.2639 Y32.2802
G01 X17.2639 Y29.9312
G01 X17.2443 Y29.9415
G01 X17.2029 Y29.9618
G01 X17.1629 Y29.9805
G01 X17.1628 Y29.9802
G01 X17.1559 Y29.9837
G01 X17.1114 Y30.0032
G01 X17.0917 Y30.0111
G01 X17.0485 Y30.0273
G01 X17.0068 Y30.0419
G01 X16.9557 Y30.0588
G01 X16.9329 Y30.0655
G01 X16.8883 Y30.0773
G01 X16.8455 Y30.0878
G01 X16.7929 Y30.0995
G01 X16.7696 Y30.1040
G01 X16.7241 Y30.1114
G01 X16.6804 Y30.1177
G01 X16.6269 Y30.1242
G01 X16.6033 Y30.1263
G01 X16.5496 Y30.1296
G01 X16.5055 Y30.1314
G01 X16.4594 Y30.1324
G01 X16.4367 Y30.1323
G00 Z2.0000
G00 X16.4338 Y30.4073
G01 F60.00
G01 Z-0.0700
G01 F120.00
G01 X15.8533 Y30.3994
G01 X15.8533 Y36.5673
G01 X19.2322 Y36.5589
G01 X19.2204 Y36.5117
G01 X19.2157 Y36.4913
G01 X19.1987 Y36.4060
G01 X19.1952 Y36.3867
G01 X19.1792 Y36.2780
G01 X19.1771 Y36.2601
G01 X19.1682 Y36.1685
G01 X19.1623 Y36.0525
G01 X19.1619 Y36.0323
G01 X19.1619 Y35.9513
G01 X19.1626 Y35.9243
G01 X19.1673 Y35.8279
G01 X19.1688 Y35.8077
G01 X19.1727 Y35.7675
G01 X19.1362 Y35.7711
G01 X19.1092 Y35.7731
G01 X19.0159 Y35.7776
G01 X18.9956 Y35.7782
G01 X18.9079 Y35.7783
G01 X18.8877 Y35.7779
G01 X18.7808 Y35.7726
G01 X18.7606 Y35.7711
G01 X18.6801 Y35.7631
G01 X18.6533 Y35.7598
G01 X18.5608 Y35.7461
G01 X18.5409 Y35.7427
G01 X18.4548 Y35.7257
G01 X18.4350 Y35.7213
G01 X18.3247 Y35.6936
G01 X18.2327 Y35.6659
G01 X18.2087 Y35.6579
G01 X18.1207 Y35.6264
G01 X18.0955 Y35.6167
G01 X18.0207 Y35.5857
G01 X18.0021 Y35.5776
G01 X17.9115 Y35.5348
G01 X17.8934 Y35.5258
G01 X17.8160 Y35.4845
G01 X17.7983 Y35.4746
G01 X17.7066 Y35.4196
G01 X17.6895 Y35.4087
G01 X17.6166 Y35.3599
G01 X17.6001 Y35.3482
G01 X17.5251 Y35.2925
G01 X17.5038 Y35.2759
G01 X17.4412 Y35.2245
G01 X17.4207 Y35.2069
G01 X17.3465 Y35.1395
G01 X17.3319 Y35.1255
G01 X17.2700 Y35.0634
G01 X17.2561 Y35.0487
G01 X17.1888 Y34.9744
G01 X17.1757 Y34.9590
G01 X17.1243 Y34.8964
G01 X17.1077 Y34.8751
G01 X17.0520 Y34.8001
G01 X17.0365 Y34.7780
G01 X16.9915 Y34.7107
G01 X16.9806 Y34.6936
G01 X16.9256 Y34.6019
G01 X16.9157 Y34.5842
G01 X16.8723 Y34.5028
G01 X16.8254 Y34.4042
G01 X16.8145 Y34.3795
G01 X16.7835 Y34.3047
G01 X16.7738 Y34.2795
G01 X16.7413 Y34.1887
G01 X16.7338 Y34.1659
G01 X16.7066 Y34.0755
G01 X16.6804 Y33.9717
G01 X16.6749 Y33.9474
G01 X16.6564 Y33.8533
G01 X16.6404 Y33.7469
G01 X16.6371 Y33.7201
G01 X16.6282 Y33.6285
G01 X16.6223 Y33.5125
G01 X16.6219 Y33.4923
G01 X16.6220 Y33.4046
G01 X16.6226 Y33.3843
G01 X16.6271 Y33.2910
G01 X16.6291 Y33.2640
G01 X16.6371 Y33.1835
G01 X16.6392 Y33.1656
G01 X16.6541 Y33.0642
G01 X16.6587 Y33.0376
G01 X16.6772 Y32.9457
G01 X16.7031 Y32.8412
G01 X16.7097 Y32.8173
G01 X16.7372 Y32.7270
G01 X16.7738 Y32.6241
G01 X16.7835 Y32.5989
G01 X16.8145 Y32.5241
G01 X16.8226 Y32.5055
G01 X16.8654 Y32.4149
G01 X16.8775 Y32.3908
G01 X16.9231 Y32.3060
G01 X16.9771 Y32.2157
G01 X16.9889 Y32.1969
G01 X16.9889 Y30.3352
G01 X16.9552 Y30.3441
G01 X16.9085 Y30.3555
G01 X16.8410 Y30.3704
G01 X16.8176 Y30.3748
G01 X16.7683 Y30.3828
G01 X16.7114 Y30.3910
G01 X16.6444 Y30.3988
G01 X16.6207 Y30.4008
G01 X16.5747 Y30.4037
G01 X16.5113 Y30.4064
G01 X16.4623 Y30.4074
G01 X16.4338 Y30.4073
G01 X16.4309 Y30.6823
G01 X16.1283 Y30.6782
G01 X16.1283 Y36.2916
G01 X18.9032 Y36.2847
G01 X18.8953 Y36.2047
G01 X18.8934 Y36.1817
G01 X18.8879 Y36.0728
G01 X18.8872 Y36.0530
G01 X18.8674 Y36.0523
G01 X18.7606 Y36.0469
G01 X18.7337 Y36.0447
G01 X18.6531 Y36.0368
G01 X18.6129 Y36.0319
G01 X18.5171 Y36.0176
G01 X18.4806 Y36.0112
G01 X18.4012 Y35.9954
G01 X18.3748 Y35.9897
G01 X18.2710 Y35.9638
G01 X18.2503 Y35.9583
G01 X18.1395 Y35.9248
G01 X18.1160 Y35.9168
G01 X18.0280 Y35.8853
G01 X17.9902 Y35.8708
G01 X17.9123 Y35.8385
G01 X17.8784 Y35.8234
G01 X17.7939 Y35.7834
G01 X17.7697 Y35.7714
G01 X17.6745 Y35.7205
G01 X17.6511 Y35.7071
G01 X17.5595 Y35.6519
G01 X17.5367 Y35.6374
G01 X17.4694 Y35.5924
G01 X17.4363 Y35.5691
G01 X17.3612 Y35.5134
G01 X17.3372 Y35.4948
G01 X17.2564 Y35.4284
G01 X17.2361 Y35.4107
G01 X17.1668 Y35.3479
G01 X17.1399 Y35.3223
G01 X17.0708 Y35.2531
G01 X17.0523 Y35.2334
G01 X16.9895 Y35.1641
G01 X16.9631 Y35.1335
G01 X16.8990 Y35.0550
G01 X16.8311 Y34.9639
G01 X16.8078 Y34.9308
G01 X16.7628 Y34.8635
G01 X16.7483 Y34.8407
G01 X16.6931 Y34.7491
G01 X16.6732 Y34.7138
G01 X16.6341 Y34.6408
G01 X16.6235 Y34.6201
G01 X16.5768 Y34.5218
G01 X16.5617 Y34.4879
G01 X16.5244 Y34.3974
G01 X16.5149 Y34.3722
G01 X16.4783 Y34.2696
G01 X16.4707 Y34.2457
G01 X16.4419 Y34.1499
G01 X16.4137 Y34.0385
G01 X16.4086 Y34.0169
G01 X16.4050 Y34.0000
G01 X16.4048 Y33.9990
G01 X16.3890 Y33.9196
G01 X16.3886 Y33.9175
G01 X16.3826 Y33.8834
G01 X16.3679 Y33.7843
G01 X16.3647 Y33.7590
G01 X16.3553 Y33.6647
G01 X16.3525 Y33.6261
G01 X16.3477 Y33.5294
G01 X16.3469 Y33.4923
G01 X16.3469 Y33.4113
G01 X16.3474 Y33.3843
G01 X16.3525 Y33.2775
G01 X16.3553 Y33.2389
G01 X16.3634 Y33.1565
G01 X16.3661 Y33.1326
G01 X16.3826 Y33.0202
G01 X16.3886 Y32.9861
G01 X16.3890 Y32.9840
G01 X16.4048 Y32.9046
G01 X16.4050 Y32.9036
G01 X16.4086 Y32.8867
G01 X16.4137 Y32.8651
G01 X16.4364 Y32.7744
G01 X16.4459 Y32.7396
G01 X16.4723 Y32.6525
G01 X16.4829 Y32.6209
G01 X16.5196 Y32.5188
G01 X16.5294 Y32.4936
G01 X16.5604 Y32.4188
G01 X16.5726 Y32.3910
G01 X16.6174 Y32.2960
G01 X16.6315 Y32.2678
G01 X16.6781 Y32.1808
G01 X16.6898 Y32.1601
G01 X16.7126 Y32.1220
G01 X16.7137 Y30.6677
G01 X16.6848 Y30.6711
G01 X16.6554 Y30.6739
G01 X16.5844 Y30.6786
G01 X16.5171 Y30.6813
G01 X16.4652 Y30.6824
G01 X16.4309 Y30.6823
G01 X16.4033 Y32.1113
G01 X16.4377 Y32.0472
G01 X16.4385 Y30.9574
G01 X16.4344 Y30.9574
G01 X16.4283 Y30.9573
G01 X16.4280 Y30.9573
G01 X16.4264 Y30.9573
G01 X16.4259 Y30.9573
G01 X16.4249 Y30.9573
G01 X16.4033 Y30.9570
G01 X16.4033 Y32.1113
G01 X16.4033 Y34.7923
G01 X16.4033 Y36.0160
G01 X17.6379 Y36.0129
G01 X17.5390 Y35.9598
G01 X17.5112 Y35.9438
G01 X17.4281 Y35.8940
G01 X17.3840 Y35.8660
G01 X17.3152 Y35.8201
G01 X17.2848 Y35.7989
G01 X17.1813 Y35.7220
G01 X17.1562 Y35.7021
G01 X17.0884 Y35.6465
G01 X17.0552 Y35.6178
G01 X16.9821 Y35.5516
G01 X16.9442 Y35.5156
G01 X16.8846 Y35.4560
G01 X16.8623 Y35.4329
G01 X16.7824 Y35.3450
G01 X16.7537 Y35.3118
G01 X16.6989 Y35.2450
G01 X16.6843 Y35.2268
G01 X16.6667 Y35.2038
G01 X16.6093 Y35.1263
G01 X16.5906 Y35.1003
G01 X16.5240 Y35.0007
G01 X16.5062 Y34.9721
G01 X16.4504 Y34.8788
G01 X16.4330 Y34.8479
G01 X16.4033 Y34.7923
G01 X16.6783 Y35.6384
G01 X16.6783 Y35.7403
G01 X16.7808 Y35.7400
G01 X16.7504 Y35.7107
G01 X16.6783 Y35.6384
G00 Z2.0000
G00 X10.7597 Y34.0205
G01 F60.00
G01 Z-0.0700
G01 F120.00
G01 X10.7846 Y34.0133
G01 X10.8753 Y33.9906
G01 X10.8885 Y33.9876
G01 X10.9679 Y33.9718
G01 X10.9812 Y33.9695
G01 X11.0751 Y33.9556
G01 X11.0870 Y33.9541
G01 X11.1676 Y33.9462
G01 X11.1676 Y33.9465
G01 X11.1811 Y33.9452
G01 X11.2744 Y33.9406
G01 X11.2879 Y33.9403
G01 X11.3689 Y33.9403
G01 X11.3824 Y33.9406
G01 X11.4757 Y33.9452
G01 X11.4892 Y33.9462
G01 X11.5698 Y33.9541
G01 X11.5832 Y33.9558
G01 X11.6756 Y33.9695
G01 X11.6889 Y33.9718
G01 X11.7683 Y33.9876
G01 X11.7683 Y33.9879
G01 X11.7815 Y33.9906
G01 X11.8722 Y34.0133
G01 X11.8852 Y34.0169
G01 X11.9627 Y34.0404
G01 X11.9755 Y34.0446
G01 X12.0635 Y34.0761
G01 X12.0761 Y34.0810
G01 X12.1585 Y34.1153
G01 X12.1585 Y29.9313
G01 X12.1026 Y29.9593
G01 X12.0510 Y29.9834
G01 X12.0052 Y30.0036
G01 X11.9484 Y30.0253
G01 X11.8947 Y30.0443
G01 X11.8539 Y30.0577
G01 X11.8538 Y30.0574
G01 X11.8471 Y30.0598
G01 X11.8367 Y30.0628
G01 X11.7884 Y30.0759
G01 X11.7331 Y30.0895
G01 X11.6912 Y30.0988
G01 X11.6737 Y30.1022
G01 X11.6313 Y30.1094
G01 X11.5710 Y30.1182
G01 X11.5182 Y30.1246
G01 X11.4647 Y30.1285
G01 X11.4078 Y30.1312
G01 X11.3577 Y30.1324
G01 X10.7361 Y30.1289
G01 X10.7480 Y30.1585
G01 X10.7820 Y30.2536
G01 X10.8088 Y30.3412
G01 X10.8124 Y30.3542
G01 X10.8362 Y30.4494
G01 X10.8392 Y30.4626
G01 X10.8560 Y30.5473
G01 X10.8717 Y30.6524
G01 X10.8733 Y30.6658
G01 X10.8819 Y30.7537
G01 X10.8871 Y30.8578
G01 X10.8874 Y30.8713
G01 X10.8872 Y30.9621
G01 X10.8823 Y31.0638
G01 X10.8813 Y31.0773
G01 X10.8728 Y31.1624
G01 X10.8560 Y31.2763
G01 X10.8392 Y31.3610
G01 X10.8362 Y31.3742
G01 X10.8124 Y31.4694
G01 X10.8088 Y31.4824
G01 X10.7853 Y31.5598
G01 X10.7810 Y31.5727
G01 X10.7457 Y31.6711
G01 X10.7121 Y31.7525
G01 X10.7067 Y31.7648
G01 X10.6621 Y31.8589
G01 X10.6197 Y31.9383
G01 X10.5634 Y32.0329
G01 X10.5561 Y32.0443
G01 X10.5112 Y32.1116
G01 X10.4989 Y32.1287
G01 X10.4985 Y32.3185
G01 X10.5212 Y32.3527
G01 X10.5719 Y32.4373
G01 X10.5779 Y32.4477
G01 X10.6167 Y32.5204
G01 X10.6228 Y32.5325
G01 X10.6642 Y32.6200
G01 X10.6992 Y32.7041
G01 X10.7041 Y32.7167
G01 X10.7356 Y32.8047
G01 X10.7398 Y32.8175
G01 X10.7633 Y32.8950
G01 X10.7669 Y32.9080
G01 X10.7918 Y33.0079
G01 X10.8084 Y33.0913
G01 X10.8107 Y33.1046
G01 X10.8258 Y33.2081
G01 X10.8340 Y33.2910
G01 X10.8350 Y33.3045
G01 X10.8396 Y33.3978
G01 X10.8399 Y33.4113
G01 X10.8397 Y33.5021
G01 X10.8350 Y33.5991
G01 X10.8340 Y33.6126
G01 X10.8258 Y33.6955
G01 X10.8107 Y33.7990
G01 X10.8084 Y33.8123
G01 X10.7926 Y33.8917
G01 X10.7896 Y33.9049
G01 X10.7669 Y33.9956
G01 X10.7597 Y34.0205
G00 Z2.0000
G00 X10.7737 Y32.2137
G01 F60.00
G01 Z-0.0700
G01 F120.00
G01 X10.7736 Y32.2389
G01 X10.8078 Y32.2959
G01 X10.8168 Y32.3115
G01 X10.8593 Y32.3908
G01 X10.8685 Y32.4088
G01 X10.9163 Y32.5101
G01 X10.9558 Y32.6052
G01 X10.9630 Y32.6241
G01 X10.9945 Y32.7121
G01 X11.0030 Y32.7377
G01 X11.0265 Y32.8152
G01 X11.0320 Y32.8347
G01 X11.0596 Y32.9457
G01 X11.0793 Y33.0443
G01 X11.0827 Y33.0642
G01 X11.0964 Y33.1567
G01 X11.0996 Y33.1823
G01 X11.1091 Y33.2818
G01 X11.1147 Y33.3966
G01 X11.1149 Y33.4972
G01 X11.1142 Y33.5193
G01 X11.1091 Y33.6218
G01 X11.1041 Y33.6761
G01 X11.1406 Y33.6725
G01 X11.1676 Y33.6705
G01 X11.2609 Y33.6660
G01 X11.2812 Y33.6654
G01 X11.3689 Y33.6653
G01 X11.3891 Y33.6657
G01 X11.4960 Y33.6710
G01 X11.5162 Y33.6725
G01 X11.6027 Y33.6811
G01 X11.6213 Y33.6835
G01 X11.7160 Y33.6975
G01 X11.7426 Y33.7021
G01 X11.8220 Y33.7179
G01 X11.8483 Y33.7238
G01 X11.8835 Y33.7326
G01 X11.8835 Y30.3351
G01 X11.8571 Y30.3421
G01 X11.8034 Y30.3554
G01 X11.7511 Y30.3672
G01 X11.7300 Y30.3715
G01 X11.6736 Y30.3811
G01 X11.6133 Y30.3900
G01 X11.5408 Y30.3987
G01 X11.4694 Y30.4036
G01 X11.4105 Y30.4063
G01 X11.3609 Y30.4074
G01 X11.1083 Y30.4061
G01 X11.1274 Y30.5030
G01 X11.1455 Y30.6253
G01 X11.1549 Y30.7194
G01 X11.1564 Y30.7372
G01 X11.1622 Y30.8566
G01 X11.1622 Y30.9670
G01 X11.1559 Y31.0932
G01 X11.1455 Y31.1983
G01 X11.1293 Y31.3086
G01 X11.1262 Y31.3273
G01 X11.1089 Y31.4146
G01 X11.1048 Y31.4335
G01 X11.0791 Y31.5362
G01 X11.0738 Y31.5557
G01 X11.0435 Y31.6549
G01 X11.0011 Y31.7731
G01 X10.9601 Y31.8717
G01 X10.9063 Y31.9852
G01 X10.8626 Y32.0673
G01 X10.8527 Y32.0849
G01 X10.7992 Y32.1743
G01 X10.7885 Y32.1914
G01 X10.7737 Y32.2137
G01 X11.0858 Y32.2311
G01 X11.1034 Y32.2641
G01 X11.1156 Y32.2882
G01 X11.1628 Y32.3878
G01 X11.1754 Y32.4165
G01 X11.2111 Y32.5030
G01 X11.2219 Y32.5314
G01 X11.2534 Y32.6194
G01 X11.2621 Y32.6450
G01 X11.2896 Y32.7354
G01 X11.2996 Y32.7711
G01 X11.3237 Y32.8674
G01 X11.3320 Y32.9046
G01 X11.3478 Y32.9840
G01 X11.3526 Y33.0105
G01 X11.3685 Y33.1163
G01 X11.3729 Y33.1518
G01 X11.3829 Y33.2552
G01 X11.3843 Y33.2775
G01 X11.3896 Y33.3906
G01 X11.4094 Y33.3913
G01 X11.5128 Y33.3965
G01 X11.5397 Y33.3985
G01 X11.6085 Y33.4053
G01 X11.6085 Y30.6677
G01 X11.5758 Y30.6715
G01 X11.5455 Y30.6742
G01 X11.4884 Y30.6780
G01 X11.4275 Y30.6808
G01 X11.4299 Y30.7072
G01 X11.4315 Y30.7313
G01 X11.4366 Y30.8345
G01 X11.4374 Y30.8689
G01 X11.4374 Y30.9523
G01 X11.4371 Y30.9753
G01 X11.4309 Y31.1030
G01 X11.4288 Y31.1293
G01 X11.4206 Y31.2129
G01 X11.4157 Y31.2519
G01 X11.3982 Y31.3683
G01 X11.3944 Y31.3889
G01 X11.3752 Y31.4847
G01 X11.3700 Y31.5066
G01 X11.3459 Y31.6030
G01 X11.3351 Y31.6420
G01 X11.3116 Y31.7195
G01 X11.3040 Y31.7430
G01 X11.2658 Y31.8503
G01 X11.2577 Y31.8720
G01 X11.2203 Y31.9629
G01 X11.2122 Y31.9817
G01 X11.1613 Y32.0900
G01 X11.1463 Y32.1199
G01 X11.1055 Y32.1962
G01 X11.0858 Y32.2311
G00 Z2.0000
M05
G00 Z2.0000
G00 Z15.00
G00 X0.0 Y0.0

