(G-CODE GENERATED BY FLATCAM v8.991 - www.flatcam.org - Version Date: 2019/12/27)

(Name: 06-Drill_08_Bit.txt_cnc)
(Type: G-code from Excellon)
(Units: MM)

(Created on Wednesday, 12 February 2020 at 10:47)

(Feedrate: 300.0 mm/min)
(Feedrate rapids 1500.0 mm/min)

(Z_Cut: -1.9 mm)
(Z_Move: 2.0 mm)
(Z Toolchange: 15.0 mm)
(X,Y Toolchange: 0.0000, 0.0000 mm)
(Z Start: None mm)
(Z End: 0.5 mm)
(Steps per circle: 64)
(Preprocessor Excellon: default)

(X range:    3.2766 ...   32.1056  mm)
(Y range:    7.6175 ...   38.9865  mm)

(Spindle Speed: None RPM)
G21
G90
G94




G01 F300.00
G00 Z2.0000

M03
G00 X8.8011 Y30.9220
G01 Z-1.9000
G01 Z0
G00 Z2.0000
G00 X8.8011 Y18.2220
G01 Z-1.9000
G01 Z0
G00 Z2.0000
M03
G00 X31.6611 Y33.4620
G01 Z-1.9000
G01 Z0
G00 Z2.0000
G00 X29.1211 Y33.4620
G01 Z-1.9000
G01 Z0
G00 Z2.0000
G00 X26.5811 Y33.4620
G01 Z-1.9000
G01 Z0
G00 Z2.0000
G00 X26.5811 Y25.8420
G01 Z-1.9000
G01 Z0
G00 Z2.0000
G00 X29.1211 Y25.8420
G01 Z-1.9000
G01 Z0
G00 Z2.0000
G00 X31.6611 Y25.8420
G01 Z-1.9000
G01 Z0
G00 Z2.0000
M03
G00 X21.5011 Y36.0020
G01 Z-1.9000
G01 Z0
G00 Z2.0000
G00 X18.9611 Y33.4620
G01 Z-1.9000
G01 Z0
G00 Z2.0000
G00 X11.3411 Y36.0020
G01 Z-1.9000
G01 Z0
G00 Z2.0000
G00 X3.7211 Y38.5420
G01 Z-1.9000
G01 Z0
G00 Z2.0000
G00 X8.8011 Y33.4620
G01 Z-1.9000
G01 Z0
G00 Z2.0000
G00 X8.8011 Y30.9220
G01 Z-1.9000
G01 Z0
G00 Z2.0000
G00 X3.7211 Y28.3820
G01 Z-1.9000
G01 Z0
G00 Z2.0000
G00 X3.7211 Y18.2220
G01 Z-1.9000
G01 Z0
G00 Z2.0000
G00 X6.2611 Y18.2220
G01 Z-1.9000
G01 Z0
G00 Z2.0000
G00 X8.8011 Y18.2220
G01 Z-1.9000
G01 Z0
G00 Z2.0000
G00 X13.8811 Y28.3820
G01 Z-1.9000
G01 Z0
G00 Z2.0000
G00 X13.8811 Y25.8420
G01 Z-1.9000
G01 Z0
G00 Z2.0000
G00 X13.8811 Y23.3020
G01 Z-1.9000
G01 Z0
G00 Z2.0000
G00 X13.8811 Y20.7620
G01 Z-1.9000
G01 Z0
G00 Z2.0000
G00 X13.8811 Y18.2220
G01 Z-1.9000
G01 Z0
G00 Z2.0000
G00 X13.8811 Y15.6820
G01 Z-1.9000
G01 Z0
G00 Z2.0000
G00 X13.8811 Y13.1420
G01 Z-1.9000
G01 Z0
G00 Z2.0000
G00 X13.8811 Y10.6020
G01 Z-1.9000
G01 Z0
G00 Z2.0000
G00 X3.7211 Y8.0620
G01 Z-1.9000
G01 Z0
G00 Z2.0000
G00 X6.2611 Y8.0620
G01 Z-1.9000
G01 Z0
G00 Z2.0000
G00 X13.8811 Y8.0620
G01 Z-1.9000
G01 Z0
G00 Z2.0000
G00 X21.5011 Y8.0620
G01 Z-1.9000
G01 Z0
G00 Z2.0000
G00 X24.0411 Y8.0620
G01 Z-1.9000
G01 Z0
G00 Z2.0000
G00 X31.6611 Y8.0620
G01 Z-1.9000
G01 Z0
G00 Z2.0000
G00 X21.5011 Y10.6020
G01 Z-1.9000
G01 Z0
G00 Z2.0000
G00 X21.5011 Y13.1420
G01 Z-1.9000
G01 Z0
G00 Z2.0000
G00 X21.5011 Y15.6820
G01 Z-1.9000
G01 Z0
G00 Z2.0000
G00 X21.5011 Y18.2220
G01 Z-1.9000
G01 Z0
G00 Z2.0000
G00 X21.5011 Y20.7620
G01 Z-1.9000
G01 Z0
G00 Z2.0000
G00 X21.5011 Y23.3020
G01 Z-1.9000
G01 Z0
G00 Z2.0000
G00 X21.5011 Y25.8420
G01 Z-1.9000
G01 Z0
G00 Z2.0000
G00 X21.5011 Y28.3820
G01 Z-1.9000
G01 Z0
G00 Z2.0000
M05
G00 Z0.50
G00 X0.0 Y0.0

