(G-CODE GENERATED BY FLATCAM v8.991 - www.flatcam.org - Version Date: 2019/12/27)

(Name: gnd.jpg_paint_cnc)
(Type: G-code from Geometry)
(Units: MM)

(Created on Wednesday, 12 February 2020 at 09:56)

(TOOL DIAMETER: 0.3 mm)
(Feedrate: 120.0 mm/min)
(Feedrate_Z: 60.0 mm/min)
(Feedrate rapids 1500.0 mm/min)

(Z_Cut: -0.07 mm)
(Z_Move: 2.0 mm)
(Z Toolchange: 15.0 mm)
(X,Y Toolchange: 0.0000, 0.0000 mm)
(Z Start: None mm)
(Z End: 15.0 mm)
(Steps per circle: 64)
(Preprocessor Geometry: default)

(X range:    1.2448 ...   33.5431  mm)
(Y range:    1.5251 ...   43.2735  mm)

(Spindle Speed: None RPM)
G21
G90
G94




G01 F120.00
G00 Z2.0000

M03
G00 X29.4183 Y36.6167
G01 F60.00
G01 Z-0.0700
G01 F120.00
G01 X29.4314 Y36.6088
G01 X29.4447 Y36.6025
G01 X29.4586 Y36.5976
G01 X29.4728 Y36.5940
G01 X29.4874 Y36.5918
G01 X29.4984 Y36.5911
G01 X29.5566 Y36.5911
G01 X29.5676 Y36.5918
G01 X29.5749 Y36.5927
G01 X29.5893 Y36.5956
G01 X29.5964 Y36.5976
G01 X29.6103 Y36.6025
G01 X29.6170 Y36.6055
G01 X29.6300 Y36.6124
G01 X29.6364 Y36.6165
G01 X29.6619 Y36.6167
G01 X29.6765 Y36.6181
G01 X29.6909 Y36.6210
G01 X29.7050 Y36.6253
G01 X29.7186 Y36.6309
G01 X29.7252 Y36.6342
G01 X29.7378 Y36.6418
G01 X29.7458 Y36.6475
G01 X29.7558 Y36.6507
G01 X29.7627 Y36.6533
G01 X29.7760 Y36.6596
G01 X29.7886 Y36.6672
G01 X29.7966 Y36.6729
G01 X29.8066 Y36.6761
G01 X29.8135 Y36.6787
G01 X29.8268 Y36.6850
G01 X29.8394 Y36.6926
G01 X29.8474 Y36.6983
G01 X29.8574 Y36.7015
G01 X29.8643 Y36.7041
G01 X29.8776 Y36.7104
G01 X29.8902 Y36.7180
G01 X29.8982 Y36.7237
G01 X29.9082 Y36.7269
G01 X29.9151 Y36.7295
G01 X29.9284 Y36.7358
G01 X29.9410 Y36.7434
G01 X29.9490 Y36.7491
G01 X29.9590 Y36.7523
G01 X29.9659 Y36.7549
G01 X29.9792 Y36.7612
G01 X29.9918 Y36.7688
G01 X29.9998 Y36.7745
G01 X30.0098 Y36.7777
G01 X30.0167 Y36.7803
G01 X30.0300 Y36.7866
G01 X30.0426 Y36.7942
G01 X30.0545 Y36.8029
G01 X30.0654 Y36.8128
G01 X30.0704 Y36.8182
G01 X30.0766 Y36.8255
G01 X30.0860 Y36.8285
G01 X30.0996 Y36.8341
G01 X30.1126 Y36.8410
G01 X30.1188 Y36.8450
G01 X30.1268 Y36.8507
G01 X30.1368 Y36.8539
G01 X30.1504 Y36.8595
G01 X30.1570 Y36.8628
G01 X30.1696 Y36.8704
G01 X30.1757 Y36.8746
G01 X30.1870 Y36.8840
G01 X30.1974 Y36.8944
G01 X30.2036 Y36.9017
G01 X30.2130 Y36.9047
G01 X30.2199 Y36.9073
G01 X30.2332 Y36.9136
G01 X30.2396 Y36.9172
G01 X30.2519 Y36.9254
G01 X30.2632 Y36.9348
G01 X30.2736 Y36.9452
G01 X30.2798 Y36.9525
G01 X30.2892 Y36.9555
G01 X30.3028 Y36.9611
G01 X30.3158 Y36.9680
G01 X30.3281 Y36.9762
G01 X30.3339 Y36.9807
G01 X30.3448 Y36.9906
G01 X30.3498 Y36.9960
G01 X30.3567 Y37.0041
G01 X30.3648 Y37.0110
G01 X30.3702 Y37.0160
G01 X30.3752 Y37.0214
G01 X30.3814 Y37.0287
G01 X30.3908 Y37.0317
G01 X30.4044 Y37.0373
G01 X30.4174 Y37.0442
G01 X30.4297 Y37.0524
G01 X30.4410 Y37.0618
G01 X30.4464 Y37.0668
G01 X30.4563 Y37.0777
G01 X30.4650 Y37.0896
G01 X30.4690 Y37.0958
G01 X30.4759 Y37.1088
G01 X30.4789 Y37.1155
G01 X30.4838 Y37.1294
G01 X30.4858 Y37.1365
G01 X30.4887 Y37.1509
G01 X30.4901 Y37.1655
G01 X30.4903 Y37.1729
G01 X30.4903 Y37.2274
G01 X30.4896 Y37.2384
G01 X30.4874 Y37.2530
G01 X30.4838 Y37.2672
G01 X30.4789 Y37.2811
G01 X30.4726 Y37.2944
G01 X30.4650 Y37.3070
G01 X30.4563 Y37.3189
G01 X30.4464 Y37.3298
G01 X30.4410 Y37.3348
G01 X30.4297 Y37.3442
G01 X30.4236 Y37.3484
G01 X30.4110 Y37.3560
G01 X30.3977 Y37.3623
G01 X30.3838 Y37.3672
G01 X30.3767 Y37.3692
G01 X30.3696 Y37.3708
G01 X30.3550 Y37.3730
G01 X30.3403 Y37.3737
G01 X28.7110 Y37.3737
G01 X28.7000 Y37.3730
G01 X28.6927 Y37.3721
G01 X28.6783 Y37.3692
G01 X28.6642 Y37.3649
G01 X28.6506 Y37.3593
G01 X28.6376 Y37.3524
G01 X28.6253 Y37.3442
G01 X28.6140 Y37.3348
G01 X28.6036 Y37.3244
G01 X28.5942 Y37.3131
G01 X28.5900 Y37.3070
G01 X28.5824 Y37.2944
G01 X28.5761 Y37.2811
G01 X28.5712 Y37.2672
G01 X28.5692 Y37.2601
G01 X28.5663 Y37.2457
G01 X28.5654 Y37.2384
G01 X28.5647 Y37.2274
G01 X28.5649 Y37.1909
G01 X28.5663 Y37.1763
G01 X28.5676 Y37.1690
G01 X28.5712 Y37.1548
G01 X28.5735 Y37.1478
G01 X28.5791 Y37.1342
G01 X28.5860 Y37.1212
G01 X28.5942 Y37.1089
G01 X28.5987 Y37.1031
G01 X28.6086 Y37.0922
G01 X28.6140 Y37.0872
G01 X28.6221 Y37.0803
G01 X28.6290 Y37.0722
G01 X28.6340 Y37.0668
G01 X28.6394 Y37.0618
G01 X28.6475 Y37.0549
G01 X28.6544 Y37.0468
G01 X28.6648 Y37.0364
G01 X28.6761 Y37.0270
G01 X28.6822 Y37.0228
G01 X28.6948 Y37.0152
G01 X28.7081 Y37.0089
G01 X28.7150 Y37.0063
G01 X28.7244 Y37.0033
G01 X28.7306 Y36.9960
G01 X28.7356 Y36.9906
G01 X28.7410 Y36.9856
G01 X28.7491 Y36.9787
G01 X28.7560 Y36.9706
G01 X28.7610 Y36.9652
G01 X28.7719 Y36.9553
G01 X28.7777 Y36.9508
G01 X28.7900 Y36.9426
G01 X28.8030 Y36.9357
G01 X28.8166 Y36.9301
G01 X28.8260 Y36.9271
G01 X28.8322 Y36.9198
G01 X28.8372 Y36.9144
G01 X28.8481 Y36.9045
G01 X28.8539 Y36.9000
G01 X28.8662 Y36.8918
G01 X28.8792 Y36.8849
G01 X28.8928 Y36.8793
G01 X28.9022 Y36.8763
G01 X28.9084 Y36.8690
G01 X28.9134 Y36.8636
G01 X28.9243 Y36.8537
G01 X28.9362 Y36.8450
G01 X28.9488 Y36.8374
G01 X28.9621 Y36.8311
G01 X28.9690 Y36.8285
G01 X28.9790 Y36.8253
G01 X28.9870 Y36.8196
G01 X28.9932 Y36.8156
G01 X29.0062 Y36.8087
G01 X29.0198 Y36.8031
G01 X29.0298 Y36.7999
G01 X29.0378 Y36.7942
G01 X29.0440 Y36.7902
G01 X29.0570 Y36.7833
G01 X29.0706 Y36.7777
G01 X29.0806 Y36.7745
G01 X29.0886 Y36.7688
G01 X29.0948 Y36.7648
G01 X29.1078 Y36.7579
G01 X29.1214 Y36.7523
G01 X29.1314 Y36.7491
G01 X29.1394 Y36.7434
G01 X29.1456 Y36.7394
G01 X29.1586 Y36.7325
G01 X29.1722 Y36.7269
G01 X29.1822 Y36.7237
G01 X29.1902 Y36.7180
G01 X29.1964 Y36.7140
G01 X29.2094 Y36.7071
G01 X29.2230 Y36.7015
G01 X29.2330 Y36.6983
G01 X29.2410 Y36.6926
G01 X29.2472 Y36.6886
G01 X29.2602 Y36.6817
G01 X29.2738 Y36.6761
G01 X29.2838 Y36.6729
G01 X29.2918 Y36.6672
G01 X29.2980 Y36.6632
G01 X29.3110 Y36.6563
G01 X29.3246 Y36.6507
G01 X29.3346 Y36.6475
G01 X29.3426 Y36.6418
G01 X29.3488 Y36.6378
G01 X29.3618 Y36.6309
G01 X29.3754 Y36.6253
G01 X29.3895 Y36.6210
G01 X29.4039 Y36.6181
G01 X29.4183 Y36.6167
G00 Z2.0000
G00 X28.1460 Y37.6095
G01 F60.00
G01 Z-0.0700
G01 F120.00
G01 X30.9090 Y37.6095
G01 X30.9064 Y37.6040
G01 X30.8935 Y37.5889
G01 X30.8846 Y37.5772
G01 X30.8783 Y37.5682
G01 X30.8723 Y37.5589
G01 X30.8649 Y37.5461
G01 X30.8556 Y37.5278
G01 X30.8525 Y37.5243
G01 X30.8394 Y37.5120
G01 X30.8271 Y37.4989
G01 X30.8140 Y37.4866
G01 X30.8017 Y37.4735
G01 X30.7886 Y37.4612
G01 X30.7809 Y37.4533
G01 X30.7688 Y37.4394
G01 X30.7576 Y37.4248
G01 X30.7453 Y37.4065
G01 X30.7361 Y37.3905
G01 X30.7286 Y37.3754
G01 X30.7255 Y37.3719
G01 X30.7124 Y37.3596
G01 X30.7001 Y37.3465
G01 X30.6870 Y37.3342
G01 X30.6747 Y37.3211
G01 X30.6616 Y37.3088
G01 X30.6493 Y37.2957
G01 X30.6346 Y37.2818
G01 X30.6322 Y37.2930
G01 X30.6284 Y37.3073
G01 X30.6215 Y37.3282
G01 X30.6130 Y37.3486
G01 X30.6031 Y37.3683
G01 X30.5957 Y37.3811
G01 X30.5897 Y37.3904
G01 X30.5834 Y37.3994
G01 X30.5745 Y37.4111
G01 X30.5601 Y37.4279
G01 X30.5445 Y37.4435
G01 X30.5277 Y37.4579
G01 X30.5160 Y37.4668
G01 X30.5070 Y37.4731
G01 X30.4914 Y37.4829
G01 X30.4719 Y37.4933
G01 X30.4517 Y37.5022
G01 X30.4379 Y37.5074
G01 X30.4274 Y37.5108
G01 X30.4168 Y37.5138
G01 X30.4024 Y37.5172
G01 X30.3807 Y37.5210
G01 X30.3587 Y37.5231
G01 X30.3403 Y37.5237
G01 X28.7147 Y37.5237
G01 X28.7018 Y37.5234
G01 X28.6853 Y37.5223
G01 X28.6743 Y37.5210
G01 X28.6598 Y37.5186
G01 X28.6382 Y37.5138
G01 X28.6276 Y37.5108
G01 X28.6102 Y37.5049
G01 X28.5999 Y37.5009
G01 X28.5831 Y37.4933
G01 X28.5636 Y37.4829
G01 X28.5450 Y37.4711
G01 X28.5331 Y37.4624
G01 X28.5244 Y37.4556
G01 X28.5105 Y37.4435
G01 X28.5026 Y37.4358
G01 X28.4949 Y37.4279
G01 X28.4852 Y37.4168
G01 X28.4716 Y37.3994
G01 X28.4653 Y37.3904
G01 X28.4555 Y37.3748
G01 X28.4451 Y37.3553
G01 X28.4375 Y37.3385
G01 X28.4335 Y37.3282
G01 X28.4266 Y37.3073
G01 X28.4228 Y37.2930
G01 X28.4204 Y37.2818
G01 X28.4057 Y37.2957
G01 X28.3934 Y37.3088
G01 X28.3803 Y37.3211
G01 X28.3680 Y37.3342
G01 X28.3549 Y37.3465
G01 X28.3426 Y37.3596
G01 X28.3295 Y37.3719
G01 X28.3264 Y37.3754
G01 X28.3189 Y37.3905
G01 X28.3097 Y37.4065
G01 X28.3037 Y37.4158
G01 X28.2930 Y37.4307
G01 X28.2838 Y37.4422
G01 X28.2690 Y37.4586
G01 X28.2533 Y37.4735
G01 X28.2410 Y37.4866
G01 X28.2279 Y37.4989
G01 X28.2248 Y37.5024
G01 X28.2173 Y37.5175
G01 X28.2119 Y37.5272
G01 X28.2021 Y37.5428
G01 X28.1958 Y37.5518
G01 X28.1846 Y37.5664
G01 X28.1774 Y37.5748
G01 X28.1648 Y37.5882
G01 X28.1517 Y37.6005
G01 X28.1486 Y37.6040
G01 X28.1460 Y37.6095
G00 Z2.0000
G00 X27.8281 Y38.2578
G01 F60.00
G01 Z-0.0700
G01 F120.00
G01 X27.8281 Y38.2360
G01 X27.8288 Y38.2250
G01 X27.8310 Y38.2104
G01 X27.8346 Y38.1962
G01 X27.8369 Y38.1892
G01 X27.8425 Y38.1756
G01 X27.8494 Y38.1626
G01 X27.8537 Y38.1559
G01 X27.8551 Y38.1415
G01 X27.8564 Y38.1342
G01 X27.8600 Y38.1200
G01 X27.8623 Y38.1130
G01 X27.8649 Y38.1061
G01 X27.8712 Y38.0928
G01 X27.8791 Y38.0797
G01 X27.8805 Y38.0653
G01 X27.8818 Y38.0580
G01 X27.8854 Y38.0438
G01 X27.8877 Y38.0368
G01 X27.8903 Y38.0299
G01 X27.8966 Y38.0166
G01 X27.9045 Y38.0035
G01 X27.9059 Y37.9891
G01 X27.9072 Y37.9818
G01 X27.9108 Y37.9676
G01 X27.9131 Y37.9606
G01 X27.9187 Y37.9470
G01 X27.9220 Y37.9404
G01 X27.9296 Y37.9278
G01 X27.9353 Y37.9198
G01 X27.9385 Y37.9098
G01 X27.9411 Y37.9029
G01 X27.9474 Y37.8896
G01 X27.9550 Y37.8770
G01 X27.9607 Y37.8690
G01 X27.9639 Y37.8590
G01 X27.9665 Y37.8521
G01 X27.9728 Y37.8388
G01 X27.9804 Y37.8262
G01 X27.9891 Y37.8143
G01 X27.9990 Y37.8034
G01 X28.0044 Y37.7984
G01 X28.0157 Y37.7890
G01 X28.0280 Y37.7808
G01 X28.0344 Y37.7772
G01 X28.0477 Y37.7709
G01 X28.0616 Y37.7660
G01 X28.0758 Y37.7624
G01 X28.0831 Y37.7611
G01 X28.0904 Y37.7602
G01 X28.1051 Y37.7595
G01 X30.9573 Y37.7597
G01 X30.9719 Y37.7611
G01 X30.9863 Y37.7640
G01 X31.0004 Y37.7683
G01 X31.0140 Y37.7739
G01 X31.0270 Y37.7808
G01 X31.0393 Y37.7890
G01 X31.0506 Y37.7984
G01 X31.0560 Y37.8034
G01 X31.0659 Y37.8143
G01 X31.0704 Y37.8201
G01 X31.0746 Y37.8262
G01 X31.0822 Y37.8388
G01 X31.0885 Y37.8521
G01 X31.0911 Y37.8590
G01 X31.0943 Y37.8690
G01 X31.1000 Y37.8770
G01 X31.1040 Y37.8832
G01 X31.1109 Y37.8962
G01 X31.1165 Y37.9098
G01 X31.1197 Y37.9198
G01 X31.1254 Y37.9278
G01 X31.1294 Y37.9340
G01 X31.1363 Y37.9470
G01 X31.1419 Y37.9606
G01 X31.1462 Y37.9747
G01 X31.1491 Y37.9891
G01 X31.1505 Y38.0035
G01 X31.1548 Y38.0102
G01 X31.1617 Y38.0232
G01 X31.1673 Y38.0368
G01 X31.1705 Y38.0468
G01 X31.1762 Y38.0548
G01 X31.1838 Y38.0674
G01 X31.1871 Y38.0740
G01 X31.1927 Y38.0876
G01 X31.1950 Y38.0946
G01 X31.1986 Y38.1088
G01 X31.1999 Y38.1161
G01 X31.2013 Y38.1305
G01 X31.2056 Y38.1372
G01 X31.2125 Y38.1502
G01 X31.2181 Y38.1638
G01 X31.2224 Y38.1779
G01 X31.2253 Y38.1923
G01 X31.2262 Y38.1996
G01 X31.2269 Y38.2106
G01 X31.2269 Y38.2324
G01 X31.2310 Y38.2388
G01 X31.2379 Y38.2518
G01 X31.2435 Y38.2654
G01 X31.2478 Y38.2795
G01 X31.2507 Y38.2939
G01 X31.2516 Y38.3012
G01 X31.2523 Y38.3122
G01 X31.2521 Y38.4249
G01 X31.2507 Y38.4395
G01 X31.2478 Y38.4539
G01 X31.2435 Y38.4680
G01 X31.2409 Y38.4749
G01 X31.2346 Y38.4882
G01 X31.2270 Y38.5008
G01 X31.2183 Y38.5127
G01 X31.2084 Y38.5236
G01 X31.2030 Y38.5286
G01 X31.1917 Y38.5380
G01 X31.1794 Y38.5462
G01 X31.1664 Y38.5531
G01 X31.1528 Y38.5587
G01 X31.1387 Y38.5630
G01 X31.1243 Y38.5659
G01 X31.1097 Y38.5673
G01 X27.9453 Y38.5673
G01 X27.9380 Y38.5668
G01 X27.9234 Y38.5646
G01 X27.9163 Y38.5630
G01 X27.9022 Y38.5587
G01 X27.8953 Y38.5561
G01 X27.8820 Y38.5498
G01 X27.8756 Y38.5462
G01 X27.8633 Y38.5380
G01 X27.8520 Y38.5286
G01 X27.8466 Y38.5236
G01 X27.8367 Y38.5127
G01 X27.8322 Y38.5069
G01 X27.8280 Y38.5008
G01 X27.8204 Y38.4882
G01 X27.8171 Y38.4816
G01 X27.8115 Y38.4680
G01 X27.8092 Y38.4610
G01 X27.8056 Y38.4468
G01 X27.8043 Y38.4395
G01 X27.8029 Y38.4249
G01 X27.8027 Y38.3413
G01 X27.8034 Y38.3266
G01 X27.8056 Y38.3120
G01 X27.8092 Y38.2978
G01 X27.8115 Y38.2908
G01 X27.8141 Y38.2839
G01 X27.8204 Y38.2706
G01 X27.8281 Y38.2578
G00 Z2.0000
G00 X27.7108 Y38.8862
G01 F60.00
G01 Z-0.0700
G01 F120.00
G01 X27.7244 Y38.8894
G01 X27.7385 Y38.8935
G01 X27.7524 Y38.8983
G01 X27.7703 Y38.9057
G01 X27.7899 Y38.9076
G01 X27.8044 Y38.9100
G01 X27.8188 Y38.9130
G01 X27.8366 Y38.9178
G01 X27.8471 Y38.9212
G01 X27.8609 Y38.9264
G01 X27.8816 Y38.9356
G01 X27.9022 Y38.9402
G01 X27.9233 Y38.9466
G01 X27.9405 Y38.9531
G01 X27.9578 Y38.9610
G01 X27.9784 Y38.9656
G01 X27.9995 Y38.9720
G01 X28.0167 Y38.9785
G01 X28.0340 Y38.9864
G01 X28.0546 Y38.9910
G01 X28.0757 Y38.9974
G01 X28.0929 Y39.0039
G01 X28.1030 Y39.0084
G01 X28.1195 Y39.0165
G01 X28.1371 Y39.0267
G01 X28.1471 Y39.0308
G01 X28.1610 Y39.0372
G01 X28.1744 Y39.0400
G01 X28.1922 Y39.0448
G01 X28.2096 Y39.0507
G01 X28.2199 Y39.0547
G01 X28.2300 Y39.0592
G01 X28.2433 Y39.0656
G01 X28.2635 Y39.0771
G01 X28.2650 Y39.0629
G01 X28.2681 Y39.0448
G01 X28.2704 Y39.0340
G01 X28.2742 Y39.0197
G01 X28.2811 Y38.9988
G01 X28.2851 Y38.9885
G01 X28.2927 Y38.9717
G01 X28.2977 Y38.9619
G01 X28.3069 Y38.9459
G01 X28.3192 Y38.9276
G01 X28.3304 Y38.9130
G01 X28.3376 Y38.9046
G01 X28.3528 Y38.8886
G01 X28.3636 Y38.8786
G01 X28.3720 Y38.8714
G01 X28.3866 Y38.8602
G01 X28.3956 Y38.8539
G01 X28.4112 Y38.8441
G01 X28.4209 Y38.8387
G01 X28.4307 Y38.8337
G01 X28.4441 Y38.8276
G01 X28.4647 Y38.8196
G01 X28.4752 Y38.8162
G01 X28.4930 Y38.8114
G01 X28.5038 Y38.8091
G01 X28.5219 Y38.8060
G01 X28.5439 Y38.8039
G01 X28.5623 Y38.8033
G01 X30.5181 Y38.8033
G01 X30.5365 Y38.8039
G01 X30.5512 Y38.8051
G01 X30.5658 Y38.8071
G01 X30.5766 Y38.8091
G01 X30.5946 Y38.8132
G01 X30.6052 Y38.8162
G01 X30.6157 Y38.8196
G01 X30.6295 Y38.8248
G01 X30.6497 Y38.8337
G01 X30.6692 Y38.8441
G01 X30.6848 Y38.8539
G01 X30.6938 Y38.8602
G01 X30.7112 Y38.8738
G01 X30.7223 Y38.8835
G01 X30.7302 Y38.8912
G01 X30.7379 Y38.8991
G01 X30.7476 Y38.9102
G01 X30.7612 Y38.9276
G01 X30.7735 Y38.9459
G01 X30.7827 Y38.9619
G01 X30.7877 Y38.9717
G01 X30.7966 Y38.9919
G01 X30.8018 Y39.0057
G01 X30.8052 Y39.0162
G01 X30.8082 Y39.0268
G01 X30.8116 Y39.0412
G01 X30.8155 Y39.0638
G01 X30.8317 Y39.0562
G01 X30.8417 Y39.0521
G01 X30.8625 Y39.0402
G01 X30.8758 Y39.0338
G01 X30.8925 Y39.0267
G01 X30.9133 Y39.0148
G01 X30.9266 Y39.0084
G01 X30.9401 Y39.0026
G01 X30.9539 Y38.9974
G01 X30.9644 Y38.9940
G01 X30.9822 Y38.9892
G01 X30.9956 Y38.9864
G01 X31.0163 Y38.9772
G01 X31.0301 Y38.9720
G01 X31.0406 Y38.9686
G01 X31.0584 Y38.9638
G01 X31.0718 Y38.9610
G01 X31.0891 Y38.9531
G01 X31.0994 Y38.9491
G01 X31.1133 Y38.9443
G01 X31.1274 Y38.9402
G01 X31.1480 Y38.9356
G01 X31.1653 Y38.9277
G01 X31.1756 Y38.9237
G01 X31.1895 Y38.9189
G01 X31.2108 Y38.9130
G01 X31.2216 Y38.9107
G01 X31.2397 Y38.9076
G01 X31.2617 Y38.9055
G01 X31.2864 Y38.9049
G01 X31.3026 Y38.8983
G01 X31.3235 Y38.8914
G01 X31.3378 Y38.8876
G01 X31.3486 Y38.8853
G01 X31.3676 Y38.8821
G01 X31.3585 Y38.8625
G01 X31.3520 Y38.8453
G01 X31.3456 Y38.8242
G01 X31.3410 Y38.8036
G01 X31.3346 Y38.7897
G01 X31.3291 Y38.7760
G01 X31.3232 Y38.7586
G01 X31.3184 Y38.7408
G01 X31.3141 Y38.7192
G01 X31.3114 Y38.6972
G01 X31.3104 Y38.6770
G01 X31.3103 Y38.6336
G01 X31.2926 Y38.6494
G01 X31.2780 Y38.6606
G01 X31.2690 Y38.6669
G01 X31.2534 Y38.6767
G01 X31.2437 Y38.6821
G01 X31.2272 Y38.6902
G01 X31.2171 Y38.6947
G01 X31.1999 Y38.7012
G01 X31.1894 Y38.7046
G01 X31.1716 Y38.7094
G01 X31.1608 Y38.7117
G01 X31.1427 Y38.7148
G01 X31.1317 Y38.7161
G01 X31.1152 Y38.7172
G01 X31.1023 Y38.7175
G01 X27.9472 Y38.7174
G01 X27.9233 Y38.7161
G01 X27.9050 Y38.7137
G01 X27.8942 Y38.7117
G01 X27.8834 Y38.7094
G01 X27.8691 Y38.7056
G01 X27.8482 Y38.6987
G01 X27.8379 Y38.6947
G01 X27.8211 Y38.6871
G01 X27.8016 Y38.6767
G01 X27.7830 Y38.6649
G01 X27.7648 Y38.6513
G01 X27.7620 Y38.6646
G01 X27.7572 Y38.6824
G01 X27.7513 Y38.6998
G01 X27.7448 Y38.7159
G01 X27.7446 Y38.7532
G01 X27.7436 Y38.7734
G01 X27.7409 Y38.7954
G01 X27.7366 Y38.8170
G01 X27.7318 Y38.8348
G01 X27.7259 Y38.8522
G01 X27.7174 Y38.8726
G01 X27.7108 Y38.8862
G01 X28.1554 Y38.8675
G01 X28.1740 Y38.8760
G01 X28.1791 Y38.8675
G01 X28.1554 Y38.8675
G00 Z2.0000
G00 X28.4697 Y39.2467
G01 F60.00
G01 Z-0.0700
G01 F120.00
G01 X28.4616 Y39.2398
G01 X28.4512 Y39.2294
G01 X28.4418 Y39.2181
G01 X28.4376 Y39.2120
G01 X28.4300 Y39.1994
G01 X28.4237 Y39.1861
G01 X28.4211 Y39.1792
G01 X28.4168 Y39.1651
G01 X28.4139 Y39.1507
G01 X28.4125 Y39.1361
G01 X28.4123 Y39.0996
G01 X28.4130 Y39.0886
G01 X28.4139 Y39.0813
G01 X28.4152 Y39.0740
G01 X28.4188 Y39.0598
G01 X28.4211 Y39.0528
G01 X28.4267 Y39.0392
G01 X28.4300 Y39.0326
G01 X28.4376 Y39.0200
G01 X28.4418 Y39.0139
G01 X28.4512 Y39.0026
G01 X28.4616 Y38.9922
G01 X28.4671 Y38.9873
G01 X28.4790 Y38.9786
G01 X28.4916 Y38.9710
G01 X28.4982 Y38.9677
G01 X28.5118 Y38.9621
G01 X28.5259 Y38.9578
G01 X28.5330 Y38.9562
G01 X28.5476 Y38.9540
G01 X28.5549 Y38.9535
G01 X30.5255 Y38.9535
G01 X30.5401 Y38.9549
G01 X30.5545 Y38.9578
G01 X30.5686 Y38.9621
G01 X30.5755 Y38.9647
G01 X30.5888 Y38.9710
G01 X30.6014 Y38.9786
G01 X30.6133 Y38.9873
G01 X30.6242 Y38.9972
G01 X30.6292 Y39.0026
G01 X30.6386 Y39.0139
G01 X30.6468 Y39.0262
G01 X30.6537 Y39.0392
G01 X30.6593 Y39.0528
G01 X30.6636 Y39.0669
G01 X30.6665 Y39.0813
G01 X30.6679 Y39.0959
G01 X30.6681 Y39.1324
G01 X30.6674 Y39.1434
G01 X30.6665 Y39.1507
G01 X30.6652 Y39.1580
G01 X30.6616 Y39.1722
G01 X30.6567 Y39.1861
G01 X30.6504 Y39.1994
G01 X30.6468 Y39.2058
G01 X30.6428 Y39.2120
G01 X30.6341 Y39.2239
G01 X30.6242 Y39.2348
G01 X30.6188 Y39.2398
G01 X30.6107 Y39.2467
G01 X30.6038 Y39.2548
G01 X30.5934 Y39.2652
G01 X30.5821 Y39.2746
G01 X30.5760 Y39.2788
G01 X30.5634 Y39.2864
G01 X30.5501 Y39.2927
G01 X30.5432 Y39.2953
G01 X30.5338 Y39.2983
G01 X30.5276 Y39.3056
G01 X30.5172 Y39.3160
G01 X30.5059 Y39.3254
G01 X30.4936 Y39.3336
G01 X30.4872 Y39.3372
G01 X30.4739 Y39.3435
G01 X30.4670 Y39.3461
G01 X30.4576 Y39.3491
G01 X30.4514 Y39.3564
G01 X30.4464 Y39.3618
G01 X30.4410 Y39.3668
G01 X30.4329 Y39.3737
G01 X30.4260 Y39.3818
G01 X30.4210 Y39.3872
G01 X30.4101 Y39.3971
G01 X30.4043 Y39.4016
G01 X30.3920 Y39.4098
G01 X30.3790 Y39.4167
G01 X30.3654 Y39.4223
G01 X30.3560 Y39.4253
G01 X30.3498 Y39.4326
G01 X30.3448 Y39.4380
G01 X30.3394 Y39.4430
G01 X30.3313 Y39.4499
G01 X30.3244 Y39.4580
G01 X30.3194 Y39.4634
G01 X30.3085 Y39.4733
G01 X30.2966 Y39.4820
G01 X30.2840 Y39.4896
G01 X30.2774 Y39.4929
G01 X30.2638 Y39.4985
G01 X30.2544 Y39.5015
G01 X30.2482 Y39.5088
G01 X30.2432 Y39.5142
G01 X30.2378 Y39.5192
G01 X30.2297 Y39.5261
G01 X30.2228 Y39.5342
G01 X30.2178 Y39.5396
G01 X30.2124 Y39.5446
G01 X30.2043 Y39.5515
G01 X30.1974 Y39.5596
G01 X30.1924 Y39.5650
G01 X30.1870 Y39.5700
G01 X30.1789 Y39.5769
G01 X30.1720 Y39.5850
G01 X30.1670 Y39.5904
G01 X30.1561 Y39.6003
G01 X30.1442 Y39.6090
G01 X30.1316 Y39.6166
G01 X30.1183 Y39.6229
G01 X30.1114 Y39.6255
G01 X30.1020 Y39.6285
G01 X30.0958 Y39.6358
G01 X30.0908 Y39.6412
G01 X30.0854 Y39.6462
G01 X30.0773 Y39.6531
G01 X30.0704 Y39.6612
G01 X30.0654 Y39.6666
G01 X30.0600 Y39.6716
G01 X30.0519 Y39.6785
G01 X30.0450 Y39.6866
G01 X30.0400 Y39.6920
G01 X30.0346 Y39.6970
G01 X30.0265 Y39.7039
G01 X30.0196 Y39.7120
G01 X30.0146 Y39.7174
G01 X30.0092 Y39.7224
G01 X30.0011 Y39.7293
G01 X29.9942 Y39.7374
G01 X29.9892 Y39.7428
G01 X29.9838 Y39.7478
G01 X29.9757 Y39.7547
G01 X29.9688 Y39.7628
G01 X29.9638 Y39.7682
G01 X29.9584 Y39.7732
G01 X29.9503 Y39.7801
G01 X29.9434 Y39.7882
G01 X29.9384 Y39.7936
G01 X29.9275 Y39.8035
G01 X29.9217 Y39.8080
G01 X29.9094 Y39.8162
G01 X29.9030 Y39.8198
G01 X29.8897 Y39.8261
G01 X29.8828 Y39.8287
G01 X29.8728 Y39.8319
G01 X29.8648 Y39.8376
G01 X29.8586 Y39.8416
G01 X29.8456 Y39.8485
G01 X29.8389 Y39.8515
G01 X29.8250 Y39.8564
G01 X29.8108 Y39.8600
G01 X29.8035 Y39.8613
G01 X29.7889 Y39.8627
G01 X29.2698 Y39.8629
G01 X29.2588 Y39.8622
G01 X29.2515 Y39.8613
G01 X29.2371 Y39.8584
G01 X29.2230 Y39.8541
G01 X29.2094 Y39.8485
G01 X29.2028 Y39.8452
G01 X29.1902 Y39.8376
G01 X29.1841 Y39.8334
G01 X29.1728 Y39.8240
G01 X29.1624 Y39.8136
G01 X29.1555 Y39.8055
G01 X29.1474 Y39.7986
G01 X29.1420 Y39.7936
G01 X29.1370 Y39.7882
G01 X29.1301 Y39.7801
G01 X29.1220 Y39.7732
G01 X29.1166 Y39.7682
G01 X29.1116 Y39.7628
G01 X29.1054 Y39.7555
G01 X29.0960 Y39.7525
G01 X29.0891 Y39.7499
G01 X29.0758 Y39.7436
G01 X29.0632 Y39.7360
G01 X29.0571 Y39.7318
G01 X29.0458 Y39.7224
G01 X29.0354 Y39.7120
G01 X29.0285 Y39.7039
G01 X29.0204 Y39.6970
G01 X29.0150 Y39.6920
G01 X29.0100 Y39.6866
G01 X29.0031 Y39.6785
G01 X28.9950 Y39.6716
G01 X28.9896 Y39.6666
G01 X28.9846 Y39.6612
G01 X28.9777 Y39.6531
G01 X28.9696 Y39.6462
G01 X28.9642 Y39.6412
G01 X28.9592 Y39.6358
G01 X28.9523 Y39.6277
G01 X28.9442 Y39.6208
G01 X28.9388 Y39.6158
G01 X28.9338 Y39.6104
G01 X28.9276 Y39.6031
G01 X28.9182 Y39.6001
G01 X28.9046 Y39.5945
G01 X28.8916 Y39.5876
G01 X28.8793 Y39.5794
G01 X28.8735 Y39.5749
G01 X28.8626 Y39.5650
G01 X28.8576 Y39.5596
G01 X28.8507 Y39.5515
G01 X28.8426 Y39.5446
G01 X28.8372 Y39.5396
G01 X28.8322 Y39.5342
G01 X28.8253 Y39.5261
G01 X28.8172 Y39.5192
G01 X28.8118 Y39.5142
G01 X28.8068 Y39.5088
G01 X28.8006 Y39.5015
G01 X28.7912 Y39.4985
G01 X28.7776 Y39.4929
G01 X28.7646 Y39.4860
G01 X28.7584 Y39.4820
G01 X28.7465 Y39.4733
G01 X28.7356 Y39.4634
G01 X28.7306 Y39.4580
G01 X28.7237 Y39.4499
G01 X28.7156 Y39.4430
G01 X28.7102 Y39.4380
G01 X28.7052 Y39.4326
G01 X28.6990 Y39.4253
G01 X28.6896 Y39.4223
G01 X28.6827 Y39.4197
G01 X28.6694 Y39.4134
G01 X28.6568 Y39.4058
G01 X28.6449 Y39.3971
G01 X28.6340 Y39.3872
G01 X28.6290 Y39.3818
G01 X28.6221 Y39.3737
G01 X28.6140 Y39.3668
G01 X28.6086 Y39.3618
G01 X28.6036 Y39.3564
G01 X28.5974 Y39.3491
G01 X28.5880 Y39.3461
G01 X28.5744 Y39.3405
G01 X28.5614 Y39.3336
G01 X28.5491 Y39.3254
G01 X28.5433 Y39.3209
G01 X28.5324 Y39.3110
G01 X28.5274 Y39.3056
G01 X28.5205 Y39.2975
G01 X28.5124 Y39.2906
G01 X28.5070 Y39.2856
G01 X28.5020 Y39.2802
G01 X28.4951 Y39.2721
G01 X28.4870 Y39.2652
G01 X28.4816 Y39.2602
G01 X28.4766 Y39.2548
G01 X28.4697 Y39.2467
G00 Z2.0000
G00 X29.5525 Y40.1381
G01 F60.00
G01 Z-0.0700
G01 F120.00
G01 X29.5596 Y40.1214
G01 X29.5677 Y40.1049
G01 X29.5769 Y40.0889
G01 X29.5849 Y40.0766
G01 X29.5936 Y40.0647
G01 X29.6028 Y40.0532
G01 X29.6176 Y40.0368
G01 X29.6333 Y40.0219
G01 X29.6364 Y40.0184
G01 X29.6390 Y40.0129
G01 X29.4134 Y40.0129
G01 X29.4292 Y40.0306
G01 X29.4404 Y40.0452
G01 X29.4467 Y40.0542
G01 X29.4565 Y40.0698
G01 X29.4619 Y40.0795
G01 X29.4694 Y40.0946
G01 X29.4823 Y40.1097
G01 X29.4912 Y40.1214
G01 X29.4975 Y40.1304
G01 X29.5073 Y40.1460
G01 X29.5127 Y40.1557
G01 X29.5208 Y40.1722
G01 X29.5275 Y40.1880
G01 X29.5312 Y40.1789
G01 X29.5373 Y40.1655
G01 X29.5441 Y40.1525
G01 X29.5525 Y40.1381
G01 X29.6625 Y40.2566
G01 X29.6657 Y40.2466
G01 X29.6713 Y40.2330
G01 X29.6782 Y40.2200
G01 X29.6822 Y40.2138
G01 X29.6879 Y40.2058
G01 X29.6911 Y40.1958
G01 X29.6937 Y40.1889
G01 X29.7000 Y40.1756
G01 X29.7036 Y40.1692
G01 X29.7118 Y40.1569
G01 X29.7212 Y40.1456
G01 X29.7316 Y40.1352
G01 X29.7397 Y40.1283
G01 X29.7466 Y40.1202
G01 X29.7516 Y40.1148
G01 X29.7570 Y40.1098
G01 X29.7643 Y40.1036
G01 X29.7673 Y40.0942
G01 X29.7699 Y40.0873
G01 X29.7762 Y40.0740
G01 X29.7838 Y40.0614
G01 X29.7925 Y40.0495
G01 X29.8024 Y40.0386
G01 X29.8078 Y40.0336
G01 X29.8159 Y40.0267
G01 X29.8228 Y40.0186
G01 X29.8278 Y40.0132
G01 X29.8332 Y40.0082
G01 X29.8413 Y40.0013
G01 X29.8482 Y39.9932
G01 X29.8532 Y39.9878
G01 X29.8586 Y39.9828
G01 X29.8667 Y39.9759
G01 X29.8736 Y39.9678
G01 X29.8786 Y39.9624
G01 X29.8840 Y39.9574
G01 X29.8921 Y39.9505
G01 X29.8990 Y39.9424
G01 X29.9040 Y39.9370
G01 X29.9094 Y39.9320
G01 X29.9175 Y39.9251
G01 X29.9244 Y39.9170
G01 X29.9294 Y39.9116
G01 X29.9348 Y39.9066
G01 X29.9429 Y39.8997
G01 X29.9498 Y39.8916
G01 X29.9548 Y39.8862
G01 X29.9602 Y39.8812
G01 X29.9683 Y39.8743
G01 X29.9752 Y39.8662
G01 X29.9802 Y39.8608
G01 X29.9856 Y39.8558
G01 X29.9937 Y39.8489
G01 X30.0006 Y39.8408
G01 X30.0056 Y39.8354
G01 X30.0110 Y39.8304
G01 X30.0191 Y39.8235
G01 X30.0260 Y39.8154
G01 X30.0310 Y39.8100
G01 X30.0364 Y39.8050
G01 X30.0445 Y39.7981
G01 X30.0514 Y39.7900
G01 X30.0564 Y39.7846
G01 X30.0618 Y39.7796
G01 X30.0699 Y39.7727
G01 X30.0768 Y39.7646
G01 X30.0818 Y39.7592
G01 X30.0872 Y39.7542
G01 X30.0953 Y39.7473
G01 X30.1022 Y39.7392
G01 X30.1072 Y39.7338
G01 X30.1181 Y39.7239
G01 X30.1300 Y39.7152
G01 X30.1426 Y39.7076
G01 X30.1559 Y39.7013
G01 X30.1628 Y39.6987
G01 X30.1722 Y39.6957
G01 X30.1784 Y39.6884
G01 X30.1834 Y39.6830
G01 X30.1888 Y39.6780
G01 X30.1969 Y39.6711
G01 X30.2038 Y39.6630
G01 X30.2088 Y39.6576
G01 X30.2142 Y39.6526
G01 X30.2223 Y39.6457
G01 X30.2292 Y39.6376
G01 X30.2342 Y39.6322
G01 X30.2396 Y39.6272
G01 X30.2477 Y39.6203
G01 X30.2546 Y39.6122
G01 X30.2596 Y39.6068
G01 X30.2705 Y39.5969
G01 X30.2824 Y39.5882
G01 X30.2950 Y39.5806
G01 X30.3083 Y39.5743
G01 X30.3152 Y39.5717
G01 X30.3246 Y39.5687
G01 X30.3308 Y39.5614
G01 X30.3358 Y39.5560
G01 X30.3412 Y39.5510
G01 X30.3493 Y39.5441
G01 X30.3562 Y39.5360
G01 X30.3612 Y39.5306
G01 X30.3666 Y39.5256
G01 X30.3747 Y39.5187
G01 X30.3816 Y39.5106
G01 X30.3866 Y39.5052
G01 X30.3975 Y39.4953
G01 X30.4094 Y39.4866
G01 X30.4220 Y39.4790
G01 X30.4353 Y39.4727
G01 X30.4422 Y39.4701
G01 X30.4516 Y39.4671
G01 X30.4578 Y39.4598
G01 X30.4682 Y39.4494
G01 X30.4795 Y39.4400
G01 X30.4918 Y39.4318
G01 X30.4982 Y39.4282
G01 X30.5115 Y39.4219
G01 X30.5184 Y39.4193
G01 X30.5278 Y39.4163
G01 X30.5340 Y39.4090
G01 X30.5390 Y39.4036
G01 X30.5444 Y39.3986
G01 X30.5525 Y39.3917
G01 X30.5594 Y39.3836
G01 X30.5644 Y39.3782
G01 X30.5753 Y39.3683
G01 X30.5872 Y39.3596
G01 X30.5998 Y39.3520
G01 X30.6064 Y39.3487
G01 X30.6200 Y39.3431
G01 X30.6300 Y39.3399
G01 X30.6380 Y39.3342
G01 X30.6442 Y39.3302
G01 X30.6572 Y39.3233
G01 X30.6708 Y39.3177
G01 X30.6802 Y39.3147
G01 X30.6864 Y39.3074
G01 X30.6914 Y39.3020
G01 X30.7023 Y39.2921
G01 X30.7142 Y39.2834
G01 X30.7268 Y39.2758
G01 X30.7401 Y39.2695
G01 X30.7470 Y39.2669
G01 X30.7570 Y39.2637
G01 X30.7650 Y39.2580
G01 X30.7776 Y39.2504
G01 X30.7909 Y39.2441
G01 X30.7978 Y39.2415
G01 X30.8078 Y39.2383
G01 X30.8158 Y39.2326
G01 X30.8284 Y39.2250
G01 X30.8417 Y39.2187
G01 X30.8486 Y39.2161
G01 X30.8586 Y39.2129
G01 X30.8666 Y39.2072
G01 X30.8792 Y39.1996
G01 X30.8925 Y39.1933
G01 X30.8994 Y39.1907
G01 X30.9094 Y39.1875
G01 X30.9174 Y39.1818
G01 X30.9300 Y39.1742
G01 X30.9433 Y39.1679
G01 X30.9502 Y39.1653
G01 X30.9602 Y39.1621
G01 X30.9682 Y39.1564
G01 X30.9744 Y39.1524
G01 X30.9808 Y39.1488
G01 X30.9941 Y39.1425
G01 X31.0010 Y39.1399
G01 X31.0151 Y39.1356
G01 X31.0295 Y39.1327
G01 X31.0439 Y39.1313
G01 X31.0570 Y39.1234
G01 X31.0703 Y39.1171
G01 X31.0772 Y39.1145
G01 X31.0842 Y39.1122
G01 X31.0984 Y39.1086
G01 X31.1057 Y39.1073
G01 X31.1201 Y39.1059
G01 X31.1332 Y39.0980
G01 X31.1465 Y39.0917
G01 X31.1534 Y39.0891
G01 X31.1604 Y39.0868
G01 X31.1746 Y39.0832
G01 X31.1819 Y39.0819
G01 X31.1963 Y39.0805
G01 X31.2030 Y39.0762
G01 X31.2160 Y39.0693
G01 X31.2296 Y39.0637
G01 X31.2437 Y39.0594
G01 X31.2581 Y39.0565
G01 X31.2727 Y39.0551
G01 X31.3236 Y39.0549
G01 X31.3300 Y39.0508
G01 X31.3430 Y39.0439
G01 X31.3566 Y39.0383
G01 X31.3707 Y39.0340
G01 X31.3851 Y39.0311
G01 X31.3997 Y39.0297
G01 X31.4506 Y39.0295
G01 X31.4634 Y39.0218
G01 X31.4767 Y39.0155
G01 X31.4836 Y39.0129
G01 X31.4977 Y39.0086
G01 X31.5048 Y39.0070
G01 X31.5194 Y39.0048
G01 X31.5341 Y39.0041
G01 X32.1437 Y39.0041
G01 X32.1584 Y39.0048
G01 X32.1730 Y39.0070
G01 X32.1801 Y39.0086
G01 X32.1942 Y39.0129
G01 X32.2011 Y39.0155
G01 X32.2144 Y39.0218
G01 X32.2272 Y39.0295
G01 X32.2781 Y39.0297
G01 X32.2927 Y39.0311
G01 X32.3071 Y39.0340
G01 X32.3212 Y39.0383
G01 X32.3348 Y39.0439
G01 X32.3478 Y39.0508
G01 X32.3545 Y39.0551
G01 X32.3689 Y39.0565
G01 X32.3762 Y39.0578
G01 X32.3904 Y39.0614
G01 X32.3974 Y39.0637
G01 X32.4043 Y39.0663
G01 X32.4176 Y39.0726
G01 X32.4307 Y39.0805
G01 X32.4451 Y39.0819
G01 X32.4524 Y39.0832
G01 X32.4666 Y39.0868
G01 X32.4736 Y39.0891
G01 X32.4872 Y39.0947
G01 X32.4938 Y39.0980
G01 X32.5064 Y39.1056
G01 X32.5144 Y39.1113
G01 X32.5244 Y39.1145
G01 X32.5380 Y39.1201
G01 X32.5510 Y39.1270
G01 X32.5577 Y39.1313
G01 X32.5721 Y39.1327
G01 X32.5865 Y39.1356
G01 X32.6006 Y39.1399
G01 X32.6142 Y39.1455
G01 X32.6272 Y39.1524
G01 X32.6334 Y39.1564
G01 X32.6414 Y39.1621
G01 X32.6514 Y39.1653
G01 X32.6650 Y39.1709
G01 X32.6780 Y39.1778
G01 X32.6842 Y39.1818
G01 X32.6922 Y39.1875
G01 X32.7022 Y39.1907
G01 X32.7158 Y39.1963
G01 X32.7288 Y39.2032
G01 X32.7350 Y39.2072
G01 X32.7430 Y39.2129
G01 X32.7530 Y39.2161
G01 X32.7599 Y39.2187
G01 X32.7732 Y39.2250
G01 X32.7858 Y39.2326
G01 X32.7977 Y39.2413
G01 X32.8086 Y39.2512
G01 X32.8136 Y39.2566
G01 X32.8198 Y39.2639
G01 X32.8292 Y39.2669
G01 X32.8428 Y39.2725
G01 X32.8558 Y39.2794
G01 X32.8681 Y39.2876
G01 X32.8739 Y39.2921
G01 X32.8848 Y39.3020
G01 X32.8898 Y39.3074
G01 X32.8967 Y39.3155
G01 X32.9048 Y39.3224
G01 X32.9102 Y39.3274
G01 X32.9152 Y39.3328
G01 X32.9214 Y39.3401
G01 X32.9308 Y39.3431
G01 X32.9377 Y39.3457
G01 X32.9510 Y39.3520
G01 X32.9636 Y39.3596
G01 X32.9755 Y39.3683
G01 X32.9864 Y39.3782
G01 X32.9914 Y39.3836
G01 X32.9983 Y39.3917
G01 X33.0064 Y39.3986
G01 X33.0118 Y39.4036
G01 X33.0168 Y39.4090
G01 X33.0237 Y39.4171
G01 X33.0318 Y39.4240
G01 X33.0372 Y39.4290
G01 X33.0422 Y39.4344
G01 X33.0491 Y39.4425
G01 X33.0572 Y39.4494
G01 X33.0626 Y39.4544
G01 X33.0676 Y39.4598
G01 X33.0745 Y39.4679
G01 X33.0826 Y39.4748
G01 X33.0880 Y39.4798
G01 X33.0930 Y39.4852
G01 X33.0999 Y39.4933
G01 X33.1080 Y39.5002
G01 X33.1134 Y39.5052
G01 X33.1184 Y39.5106
G01 X33.1253 Y39.5187
G01 X33.1334 Y39.5256
G01 X33.1388 Y39.5306
G01 X33.1438 Y39.5360
G01 X33.1507 Y39.5441
G01 X33.1588 Y39.5510
G01 X33.1642 Y39.5560
G01 X33.1741 Y39.5669
G01 X33.1828 Y39.5788
G01 X33.1904 Y39.5914
G01 X33.1967 Y39.6047
G01 X33.1993 Y39.6116
G01 X33.2023 Y39.6210
G01 X33.2096 Y39.6272
G01 X33.2150 Y39.6322
G01 X33.2249 Y39.6431
G01 X33.2294 Y39.6489
G01 X33.2376 Y39.6612
G01 X33.2445 Y39.6742
G01 X33.2501 Y39.6878
G01 X33.2531 Y39.6972
G01 X33.2604 Y39.7034
G01 X33.2658 Y39.7084
G01 X33.2757 Y39.7193
G01 X33.2844 Y39.7312
G01 X33.2884 Y39.7374
G01 X33.2953 Y39.7504
G01 X33.3009 Y39.7640
G01 X33.3041 Y39.7740
G01 X33.3098 Y39.7820
G01 X33.3174 Y39.7946
G01 X33.3237 Y39.8079
G01 X33.3263 Y39.8148
G01 X33.3295 Y39.8248
G01 X33.3352 Y39.8328
G01 X33.3392 Y39.8390
G01 X33.3461 Y39.8520
G01 X33.3491 Y39.8587
G01 X33.3540 Y39.8726
G01 X33.3560 Y39.8797
G01 X33.3589 Y39.8941
G01 X33.3603 Y39.9085
G01 X33.3682 Y39.9216
G01 X33.3745 Y39.9349
G01 X33.3771 Y39.9418
G01 X33.3794 Y39.9488
G01 X33.3830 Y39.9630
G01 X33.3843 Y39.9703
G01 X33.3857 Y39.9847
G01 X33.3900 Y39.9914
G01 X33.3969 Y40.0044
G01 X33.4025 Y40.0180
G01 X33.4068 Y40.0321
G01 X33.4097 Y40.0465
G01 X33.4111 Y40.0611
G01 X33.4113 Y40.1120
G01 X33.4190 Y40.1248
G01 X33.4253 Y40.1381
G01 X33.4279 Y40.1450
G01 X33.4302 Y40.1520
G01 X33.4338 Y40.1662
G01 X33.4351 Y40.1735
G01 X33.4365 Y40.1881
G01 X33.4367 Y40.5765
G01 X33.4360 Y40.5912
G01 X33.4338 Y40.6058
G01 X33.4302 Y40.6200
G01 X33.4279 Y40.6270
G01 X33.4253 Y40.6339
G01 X33.4190 Y40.6472
G01 X33.4113 Y40.6600
G01 X33.4113 Y40.6818
G01 X33.4106 Y40.6928
G01 X33.4097 Y40.7001
G01 X33.4068 Y40.7145
G01 X33.4025 Y40.7286
G01 X33.3969 Y40.7422
G01 X33.3900 Y40.7552
G01 X33.3857 Y40.7619
G01 X33.3843 Y40.7763
G01 X33.3814 Y40.7907
G01 X33.3771 Y40.8048
G01 X33.3745 Y40.8117
G01 X33.3682 Y40.8250
G01 X33.3646 Y40.8314
G01 X33.3606 Y40.8376
G01 X33.3549 Y40.8456
G01 X33.3517 Y40.8556
G01 X33.3491 Y40.8625
G01 X33.3428 Y40.8758
G01 X33.3352 Y40.8884
G01 X33.3295 Y40.8964
G01 X33.3263 Y40.9064
G01 X33.3237 Y40.9133
G01 X33.3174 Y40.9266
G01 X33.3098 Y40.9392
G01 X33.3041 Y40.9472
G01 X33.3009 Y40.9572
G01 X33.2983 Y40.9641
G01 X33.2920 Y40.9774
G01 X33.2844 Y40.9900
G01 X33.2757 Y41.0019
G01 X33.2658 Y41.0128
G01 X33.2604 Y41.0178
G01 X33.2531 Y41.0240
G01 X33.2501 Y41.0334
G01 X33.2445 Y41.0470
G01 X33.2376 Y41.0600
G01 X33.2294 Y41.0723
G01 X33.2249 Y41.0781
G01 X33.2150 Y41.0890
G01 X33.2096 Y41.0940
G01 X33.2015 Y41.1009
G01 X33.1946 Y41.1090
G01 X33.1896 Y41.1144
G01 X33.1842 Y41.1194
G01 X33.1761 Y41.1263
G01 X33.1692 Y41.1344
G01 X33.1642 Y41.1398
G01 X33.1588 Y41.1448
G01 X33.1515 Y41.1510
G01 X33.1485 Y41.1604
G01 X33.1459 Y41.1673
G01 X33.1396 Y41.1806
G01 X33.1320 Y41.1932
G01 X33.1278 Y41.1993
G01 X33.1184 Y41.2106
G01 X33.1080 Y41.2210
G01 X33.0999 Y41.2279
G01 X33.0930 Y41.2360
G01 X33.0880 Y41.2414
G01 X33.0826 Y41.2464
G01 X33.0745 Y41.2533
G01 X33.0676 Y41.2614
G01 X33.0626 Y41.2668
G01 X33.0572 Y41.2718
G01 X33.0491 Y41.2787
G01 X33.0422 Y41.2868
G01 X33.0372 Y41.2922
G01 X33.0318 Y41.2972
G01 X33.0237 Y41.3041
G01 X33.0168 Y41.3122
G01 X33.0064 Y41.3226
G01 X32.9951 Y41.3320
G01 X32.9890 Y41.3362
G01 X32.9764 Y41.3438
G01 X32.9631 Y41.3501
G01 X32.9562 Y41.3527
G01 X32.9468 Y41.3557
G01 X32.9406 Y41.3630
G01 X32.9356 Y41.3684
G01 X32.9302 Y41.3734
G01 X32.9221 Y41.3803
G01 X32.9152 Y41.3884
G01 X32.9102 Y41.3938
G01 X32.8993 Y41.4037
G01 X32.8874 Y41.4124
G01 X32.8748 Y41.4200
G01 X32.8615 Y41.4263
G01 X32.8546 Y41.4289
G01 X32.8452 Y41.4319
G01 X32.8390 Y41.4392
G01 X32.8286 Y41.4496
G01 X32.8173 Y41.4590
G01 X32.8112 Y41.4632
G01 X32.7986 Y41.4708
G01 X32.7920 Y41.4741
G01 X32.7784 Y41.4797
G01 X32.7684 Y41.4829
G01 X32.7604 Y41.4886
G01 X32.7542 Y41.4926
G01 X32.7412 Y41.4995
G01 X32.7276 Y41.5051
G01 X32.7176 Y41.5083
G01 X32.7096 Y41.5140
G01 X32.7034 Y41.5180
G01 X32.6904 Y41.5249
G01 X32.6768 Y41.5305
G01 X32.6668 Y41.5337
G01 X32.6588 Y41.5394
G01 X32.6526 Y41.5434
G01 X32.6396 Y41.5503
G01 X32.6260 Y41.5559
G01 X32.6160 Y41.5591
G01 X32.6080 Y41.5648
G01 X32.6018 Y41.5688
G01 X32.5888 Y41.5757
G01 X32.5752 Y41.5813
G01 X32.5652 Y41.5845
G01 X32.5572 Y41.5902
G01 X32.5510 Y41.5942
G01 X32.5446 Y41.5978
G01 X32.5313 Y41.6041
G01 X32.5244 Y41.6067
G01 X32.5103 Y41.6110
G01 X32.4959 Y41.6139
G01 X32.4815 Y41.6153
G01 X32.4684 Y41.6232
G01 X32.4551 Y41.6295
G01 X32.4482 Y41.6321
G01 X32.4412 Y41.6344
G01 X32.4270 Y41.6380
G01 X32.4197 Y41.6393
G01 X32.4053 Y41.6407
G01 X32.3922 Y41.6486
G01 X32.3789 Y41.6549
G01 X32.3720 Y41.6575
G01 X32.3650 Y41.6598
G01 X32.3508 Y41.6634
G01 X32.3435 Y41.6647
G01 X32.3291 Y41.6661
G01 X32.3224 Y41.6704
G01 X32.3094 Y41.6773
G01 X32.2958 Y41.6829
G01 X32.2817 Y41.6872
G01 X32.2673 Y41.6901
G01 X32.2527 Y41.6915
G01 X32.2018 Y41.6917
G01 X32.1890 Y41.6994
G01 X32.1757 Y41.7057
G01 X32.1688 Y41.7083
G01 X32.1547 Y41.7126
G01 X32.1476 Y41.7142
G01 X32.1330 Y41.7164
G01 X32.1183 Y41.7171
G01 X32.0240 Y41.7171
G01 X32.0112 Y41.7248
G01 X31.9979 Y41.7311
G01 X31.9910 Y41.7337
G01 X31.9840 Y41.7360
G01 X31.9698 Y41.7396
G01 X31.9552 Y41.7418
G01 X31.9405 Y41.7425
G01 X31.7119 Y41.7425
G01 X31.6972 Y41.7418
G01 X31.6826 Y41.7396
G01 X31.6684 Y41.7360
G01 X31.6614 Y41.7337
G01 X31.6545 Y41.7311
G01 X31.6412 Y41.7248
G01 X31.6284 Y41.7171
G01 X31.5050 Y41.7171
G01 X31.4940 Y41.7164
G01 X31.4867 Y41.7155
G01 X31.4723 Y41.7126
G01 X31.4582 Y41.7083
G01 X31.4446 Y41.7027
G01 X31.4316 Y41.6958
G01 X31.4252 Y41.6917
G01 X31.3997 Y41.6915
G01 X31.3924 Y41.6910
G01 X31.3778 Y41.6888
G01 X31.3636 Y41.6852
G01 X31.3497 Y41.6803
G01 X31.3364 Y41.6740
G01 X31.3236 Y41.6663
G01 X31.3018 Y41.6663
G01 X31.2908 Y41.6656
G01 X31.2762 Y41.6634
G01 X31.2620 Y41.6598
G01 X31.2550 Y41.6575
G01 X31.2414 Y41.6519
G01 X31.2284 Y41.6450
G01 X31.2217 Y41.6407
G01 X31.2073 Y41.6393
G01 X31.2000 Y41.6380
G01 X31.1858 Y41.6344
G01 X31.1788 Y41.6321
G01 X31.1719 Y41.6295
G01 X31.1586 Y41.6232
G01 X31.1455 Y41.6153
G01 X31.1311 Y41.6139
G01 X31.1238 Y41.6126
G01 X31.1096 Y41.6090
G01 X31.1026 Y41.6067
G01 X31.0957 Y41.6041
G01 X31.0824 Y41.5978
G01 X31.0693 Y41.5899
G01 X31.0549 Y41.5885
G01 X31.0476 Y41.5872
G01 X31.0334 Y41.5836
G01 X31.0264 Y41.5813
G01 X31.0128 Y41.5757
G01 X31.0062 Y41.5724
G01 X30.9936 Y41.5648
G01 X30.9856 Y41.5591
G01 X30.9756 Y41.5559
G01 X30.9620 Y41.5503
G01 X30.9490 Y41.5434
G01 X30.9428 Y41.5394
G01 X30.9348 Y41.5337
G01 X30.9248 Y41.5305
G01 X30.9112 Y41.5249
G01 X30.8982 Y41.5180
G01 X30.8915 Y41.5137
G01 X30.8771 Y41.5123
G01 X30.8698 Y41.5110
G01 X30.8556 Y41.5074
G01 X30.8486 Y41.5051
G01 X30.8350 Y41.4995
G01 X30.8284 Y41.4962
G01 X30.8158 Y41.4886
G01 X30.8078 Y41.4829
G01 X30.7978 Y41.4797
G01 X30.7909 Y41.4771
G01 X30.7776 Y41.4708
G01 X30.7650 Y41.4632
G01 X30.7531 Y41.4545
G01 X30.7422 Y41.4446
G01 X30.7372 Y41.4392
G01 X30.7310 Y41.4319
G01 X30.7216 Y41.4289
G01 X30.7080 Y41.4233
G01 X30.6950 Y41.4164
G01 X30.6888 Y41.4124
G01 X30.6808 Y41.4067
G01 X30.6708 Y41.4035
G01 X30.6572 Y41.3979
G01 X30.6442 Y41.3910
G01 X30.6380 Y41.3870
G01 X30.6300 Y41.3813
G01 X30.6200 Y41.3781
G01 X30.6131 Y41.3755
G01 X30.5998 Y41.3692
G01 X30.5934 Y41.3656
G01 X30.5811 Y41.3574
G01 X30.5698 Y41.3480
G01 X30.5594 Y41.3376
G01 X30.5532 Y41.3303
G01 X30.5438 Y41.3273
G01 X30.5369 Y41.3247
G01 X30.5236 Y41.3184
G01 X30.5172 Y41.3148
G01 X30.5049 Y41.3066
G01 X30.4936 Y41.2972
G01 X30.4832 Y41.2868
G01 X30.4770 Y41.2795
G01 X30.4676 Y41.2765
G01 X30.4540 Y41.2709
G01 X30.4410 Y41.2640
G01 X30.4287 Y41.2558
G01 X30.4229 Y41.2513
G01 X30.4120 Y41.2414
G01 X30.4070 Y41.2360
G01 X30.4001 Y41.2279
G01 X30.3920 Y41.2210
G01 X30.3866 Y41.2160
G01 X30.3816 Y41.2106
G01 X30.3754 Y41.2033
G01 X30.3660 Y41.2003
G01 X30.3591 Y41.1977
G01 X30.3458 Y41.1914
G01 X30.3332 Y41.1838
G01 X30.3271 Y41.1796
G01 X30.3158 Y41.1702
G01 X30.3054 Y41.1598
G01 X30.2985 Y41.1517
G01 X30.2904 Y41.1448
G01 X30.2850 Y41.1398
G01 X30.2800 Y41.1344
G01 X30.2731 Y41.1263
G01 X30.2650 Y41.1194
G01 X30.2596 Y41.1144
G01 X30.2546 Y41.1090
G01 X30.2477 Y41.1009
G01 X30.2396 Y41.0940
G01 X30.2342 Y41.0890
G01 X30.2292 Y41.0836
G01 X30.2223 Y41.0755
G01 X30.2142 Y41.0686
G01 X30.2088 Y41.0636
G01 X30.2038 Y41.0582
G01 X30.1969 Y41.0501
G01 X30.1888 Y41.0432
G01 X30.1834 Y41.0382
G01 X30.1784 Y41.0328
G01 X30.1715 Y41.0247
G01 X30.1634 Y41.0178
G01 X30.1580 Y41.0128
G01 X30.1530 Y41.0074
G01 X30.1461 Y40.9993
G01 X30.1380 Y40.9924
G01 X30.1326 Y40.9874
G01 X30.1276 Y40.9820
G01 X30.1207 Y40.9739
G01 X30.1126 Y40.9670
G01 X30.1072 Y40.9620
G01 X30.1022 Y40.9566
G01 X30.0953 Y40.9485
G01 X30.0872 Y40.9416
G01 X30.0818 Y40.9366
G01 X30.0768 Y40.9312
G01 X30.0699 Y40.9231
G01 X30.0618 Y40.9162
G01 X30.0564 Y40.9112
G01 X30.0514 Y40.9058
G01 X30.0445 Y40.8977
G01 X30.0364 Y40.8908
G01 X30.0310 Y40.8858
G01 X30.0260 Y40.8804
G01 X30.0191 Y40.8723
G01 X30.0110 Y40.8654
G01 X30.0056 Y40.8604
G01 X30.0006 Y40.8550
G01 X29.9944 Y40.8477
G01 X29.9850 Y40.8447
G01 X29.9781 Y40.8421
G01 X29.9648 Y40.8358
G01 X29.9584 Y40.8322
G01 X29.9461 Y40.8240
G01 X29.9403 Y40.8195
G01 X29.9294 Y40.8096
G01 X29.9244 Y40.8042
G01 X29.9175 Y40.7961
G01 X29.9094 Y40.7892
G01 X29.8990 Y40.7788
G01 X29.8941 Y40.7733
G01 X29.8854 Y40.7614
G01 X29.8814 Y40.7552
G01 X29.8745 Y40.7422
G01 X29.8689 Y40.7286
G01 X29.8659 Y40.7192
G01 X29.8586 Y40.7130
G01 X29.8532 Y40.7080
G01 X29.8482 Y40.7026
G01 X29.8413 Y40.6945
G01 X29.8332 Y40.6876
G01 X29.8278 Y40.6826
G01 X29.8228 Y40.6772
G01 X29.8159 Y40.6691
G01 X29.8078 Y40.6622
G01 X29.8024 Y40.6572
G01 X29.7974 Y40.6518
G01 X29.7905 Y40.6437
G01 X29.7824 Y40.6368
G01 X29.7770 Y40.6318
G01 X29.7720 Y40.6264
G01 X29.7651 Y40.6183
G01 X29.7570 Y40.6114
G01 X29.7516 Y40.6064
G01 X29.7466 Y40.6010
G01 X29.7397 Y40.5929
G01 X29.7316 Y40.5860
G01 X29.7262 Y40.5810
G01 X29.7163 Y40.5701
G01 X29.7118 Y40.5643
G01 X29.7036 Y40.5520
G01 X29.6967 Y40.5390
G01 X29.6911 Y40.5254
G01 X29.6879 Y40.5154
G01 X29.6822 Y40.5074
G01 X29.6782 Y40.5012
G01 X29.6713 Y40.4882
G01 X29.6657 Y40.4746
G01 X29.6625 Y40.4646
G01 X29.6568 Y40.4566
G01 X29.6528 Y40.4504
G01 X29.6459 Y40.4374
G01 X29.6429 Y40.4307
G01 X29.6380 Y40.4168
G01 X29.6360 Y40.4097
G01 X29.6331 Y40.3953
G01 X29.6322 Y40.3880
G01 X29.6315 Y40.3770
G01 X29.6315 Y40.3442
G01 X29.6322 Y40.3332
G01 X29.6344 Y40.3186
G01 X29.6380 Y40.3044
G01 X29.6403 Y40.2974
G01 X29.6459 Y40.2838
G01 X29.6528 Y40.2708
G01 X29.6568 Y40.2646
G01 X29.6625 Y40.2566
G00 Z2.0000
G00 X29.4375 Y41.1339
G01 F60.00
G01 Z-0.0700
G01 F120.00
G01 X29.4503 Y41.1389
G01 X29.4731 Y41.1453
G01 X29.4923 Y41.1516
G01 X29.5097 Y41.1578
G01 X29.5265 Y41.1643
G01 X29.5493 Y41.1707
G01 X29.5685 Y41.1770
G01 X29.5876 Y41.1838
G01 X29.6115 Y41.1935
G01 X29.6399 Y41.2065
G01 X29.6686 Y41.2216
G01 X29.6907 Y41.2319
G01 X29.7194 Y41.2470
G01 X29.7365 Y41.2549
G01 X29.7522 Y41.2627
G01 X29.7772 Y41.2764
G01 X29.7984 Y41.2893
G01 X29.7277 Y41.2185
G01 X29.7014 Y41.2019
G01 X29.6737 Y41.1821
G01 X29.6520 Y41.1650
G01 X29.6258 Y41.1418
G01 X29.5858 Y41.1024
G01 X29.5693 Y41.0851
G01 X29.5481 Y41.0609
G01 X29.5314 Y41.0398
G01 X29.4375 Y41.1339
G01 X29.0897 Y41.2441
G01 X29.2374 Y41.2443
G01 X29.2686 Y41.2465
G01 X29.2851 Y41.2485
G01 X29.3051 Y41.2517
G01 X29.3177 Y41.2543
G01 X29.3356 Y41.2585
G01 X29.3586 Y41.2651
G01 X29.3812 Y41.2730
G01 X29.4025 Y41.2816
G01 X29.4225 Y41.2868
G01 X29.4365 Y41.2911
G01 X29.4574 Y41.2984
G01 X29.4787 Y41.3070
G01 X29.4916 Y41.3103
G01 X29.5110 Y41.3159
G01 X29.5302 Y41.3225
G01 X29.5473 Y41.3292
G01 X29.5741 Y41.3413
G01 X29.5872 Y41.3480
G01 X29.6012 Y41.3559
G01 X29.6249 Y41.3667
G01 X29.6380 Y41.3734
G01 X29.6520 Y41.3813
G01 X29.6724 Y41.3905
G01 X29.6872 Y41.3980
G01 X29.7017 Y41.4060
G01 X29.7143 Y41.4136
G01 X29.7267 Y41.4215
G01 X29.7388 Y41.4299
G01 X29.7622 Y41.4478
G01 X29.7843 Y41.4673
G01 X29.7949 Y41.4775
G01 X29.8073 Y41.4905
G01 X29.8203 Y41.5029
G01 X29.8327 Y41.5159
G01 X29.8457 Y41.5283
G01 X29.8581 Y41.5413
G01 X29.8711 Y41.5537
G01 X29.8835 Y41.5667
G01 X29.8965 Y41.5791
G01 X29.9142 Y41.5979
G01 X29.9262 Y41.6118
G01 X29.9419 Y41.6322
G01 X29.9535 Y41.6488
G01 X29.9661 Y41.6691
G01 X29.9752 Y41.6852
G01 X29.9835 Y41.7016
G01 X29.9927 Y41.7220
G01 X30.0006 Y41.7360
G01 X30.0073 Y41.7491
G01 X30.0136 Y41.7624
G01 X30.0215 Y41.7810
G01 X30.0286 Y41.8000
G01 X30.0343 Y41.8175
G01 X30.0393 Y41.8352
G01 X30.0435 Y41.8531
G01 X30.0464 Y41.8675
G01 X30.0493 Y41.8857
G01 X30.0515 Y41.9040
G01 X30.0527 Y41.9187
G01 X30.0537 Y41.9453
G01 X30.0537 Y42.1296
G01 X30.0529 Y42.1526
G01 X30.0513 Y42.1718
G01 X30.0482 Y42.1956
G01 X30.0451 Y42.2137
G01 X30.0393 Y42.2388
G01 X30.0343 Y42.2565
G01 X30.0286 Y42.2740
G01 X30.0194 Y42.2981
G01 X30.0120 Y42.3150
G01 X30.0015 Y42.3363
G01 X30.1264 Y42.3365
G01 X30.1558 Y42.3385
G01 X30.1704 Y42.3402
G01 X30.1863 Y42.3426
G01 X30.1940 Y42.3267
G01 X30.2010 Y42.3137
G01 X30.2103 Y42.2978
G01 X30.2191 Y42.2838
G01 X30.2285 Y42.2702
G01 X30.2373 Y42.2584
G01 X30.2464 Y42.2468
G01 X30.2584 Y42.2329
G01 X30.2761 Y42.2141
G01 X30.2891 Y42.2017
G01 X30.3028 Y42.1874
G01 X30.3145 Y42.1763
G01 X30.3269 Y42.1633
G01 X30.3399 Y42.1509
G01 X30.3510 Y42.1392
G01 X30.3653 Y42.1255
G01 X30.3777 Y42.1125
G01 X30.3907 Y42.1001
G01 X30.4031 Y42.0871
G01 X30.4219 Y42.0694
G01 X30.4373 Y42.0563
G01 X30.4592 Y42.0395
G01 X30.4713 Y42.0311
G01 X30.4837 Y42.0232
G01 X30.5047 Y42.0109
G01 X30.5151 Y41.9930
G01 X30.5281 Y41.9729
G01 X30.5421 Y41.9536
G01 X30.5560 Y41.9364
G01 X30.5682 Y41.9226
G01 X30.5796 Y41.9106
G01 X30.5939 Y41.8969
G01 X30.6076 Y41.8826
G01 X30.6193 Y41.8715
G01 X30.6317 Y41.8585
G01 X30.6447 Y41.8461
G01 X30.6571 Y41.8331
G01 X30.6675 Y41.8152
G01 X30.6773 Y41.7997
G01 X30.6879 Y41.7846
G01 X30.7008 Y41.7678
G01 X30.6870 Y41.7608
G01 X30.6730 Y41.7529
G01 X30.6592 Y41.7468
G01 X30.6411 Y41.7379
G01 X30.6201 Y41.7263
G01 X30.6045 Y41.7167
G01 X30.5922 Y41.7085
G01 X30.5773 Y41.6977
G01 X30.5619 Y41.6856
G01 X30.5460 Y41.6767
G01 X30.5223 Y41.6659
G01 X30.5092 Y41.6592
G01 X30.4952 Y41.6513
G01 X30.4748 Y41.6421
G01 X30.4600 Y41.6346
G01 X30.4423 Y41.6247
G01 X30.4267 Y41.6151
G01 X30.4054 Y41.6005
G01 X30.3841 Y41.5840
G01 X30.3661 Y41.5739
G01 X30.3489 Y41.5633
G01 X30.3292 Y41.5497
G01 X30.3079 Y41.5332
G01 X30.2836 Y41.5193
G01 X30.2620 Y41.5053
G01 X30.2471 Y41.4945
G01 X30.2312 Y41.4820
G01 X30.2132 Y41.4662
G01 X30.1999 Y41.4535
G01 X30.1820 Y41.4431
G01 X30.1665 Y41.4333
G01 X30.1455 Y41.4183
G01 X30.1310 Y41.4070
G01 X30.1171 Y41.3950
G01 X30.0983 Y41.3773
G01 X30.0859 Y41.3643
G01 X30.0729 Y41.3519
G01 X30.0605 Y41.3389
G01 X30.0475 Y41.3265
G01 X30.0351 Y41.3135
G01 X30.0221 Y41.3011
G01 X30.0097 Y41.2881
G01 X29.9967 Y41.2757
G01 X29.9843 Y41.2627
G01 X29.9713 Y41.2503
G01 X29.9589 Y41.2373
G01 X29.9459 Y41.2249
G01 X29.9335 Y41.2119
G01 X29.9205 Y41.1995
G01 X29.9081 Y41.1865
G01 X29.8951 Y41.1741
G01 X29.8827 Y41.1611
G01 X29.8697 Y41.1487
G01 X29.8573 Y41.1357
G01 X29.8456 Y41.1246
G01 X29.8319 Y41.1103
G01 X29.8189 Y41.0979
G01 X29.8073 Y41.0913
G01 X29.7901 Y41.0807
G01 X29.7794 Y41.0735
G01 X29.7645 Y41.0627
G01 X29.7500 Y41.0514
G01 X29.7388 Y41.0418
G01 X29.7173 Y41.0217
G01 X29.7049 Y41.0087
G01 X29.6919 Y40.9963
G01 X29.6817 Y40.9857
G01 X29.6718 Y40.9748
G01 X29.6588 Y40.9593
G01 X29.6465 Y40.9432
G01 X29.6359 Y40.9281
G01 X29.6261 Y40.9126
G01 X29.6157 Y40.8947
G01 X29.6033 Y40.8817
G01 X29.5903 Y40.8693
G01 X29.5779 Y40.8563
G01 X29.5649 Y40.8439
G01 X29.5525 Y40.8309
G01 X29.5408 Y40.8198
G01 X29.5312 Y40.8099
G01 X29.5196 Y40.8280
G01 X29.5057 Y40.8475
G01 X29.4932 Y40.8634
G01 X29.4749 Y40.8841
G01 X29.4647 Y40.8947
G01 X29.4517 Y40.9071
G01 X29.4393 Y40.9201
G01 X29.4263 Y40.9325
G01 X29.4139 Y40.9455
G01 X29.4009 Y40.9579
G01 X29.3885 Y40.9709
G01 X29.3755 Y40.9833
G01 X29.3631 Y40.9963
G01 X29.3501 Y41.0087
G01 X29.3377 Y41.0217
G01 X29.3247 Y41.0341
G01 X29.3123 Y41.0471
G01 X29.2993 Y41.0595
G01 X29.2869 Y41.0725
G01 X29.2739 Y41.0849
G01 X29.2615 Y41.0979
G01 X29.2485 Y41.1103
G01 X29.2348 Y41.1246
G01 X29.2146 Y41.1434
G01 X29.2034 Y41.1530
G01 X29.1889 Y41.1643
G01 X29.1740 Y41.1751
G01 X29.1633 Y41.1823
G01 X29.1461 Y41.1929
G01 X29.1345 Y41.1995
G01 X29.1215 Y41.2119
G01 X29.1091 Y41.2249
G01 X29.0961 Y41.2373
G01 X29.0897 Y41.2441
G00 Z2.0000
G00 X28.5649 Y41.8897
G01 F60.00
G01 Z-0.0700
G01 F120.00
G01 X28.5663 Y41.8753
G01 X28.5676 Y41.8680
G01 X28.5712 Y41.8538
G01 X28.5735 Y41.8468
G01 X28.5761 Y41.8399
G01 X28.5824 Y41.8266
G01 X28.5860 Y41.8202
G01 X28.5942 Y41.8079
G01 X28.5987 Y41.8021
G01 X28.6086 Y41.7912
G01 X28.6140 Y41.7862
G01 X28.6221 Y41.7793
G01 X28.6290 Y41.7712
G01 X28.6340 Y41.7658
G01 X28.6394 Y41.7608
G01 X28.6475 Y41.7539
G01 X28.6544 Y41.7458
G01 X28.6594 Y41.7404
G01 X28.6648 Y41.7354
G01 X28.6729 Y41.7285
G01 X28.6798 Y41.7204
G01 X28.6848 Y41.7150
G01 X28.6902 Y41.7100
G01 X28.6983 Y41.7031
G01 X28.7052 Y41.6950
G01 X28.7156 Y41.6846
G01 X28.7211 Y41.6797
G01 X28.7330 Y41.6710
G01 X28.7456 Y41.6634
G01 X28.7589 Y41.6571
G01 X28.7658 Y41.6545
G01 X28.7758 Y41.6513
G01 X28.7838 Y41.6456
G01 X28.7900 Y41.6416
G01 X28.8030 Y41.6347
G01 X28.8166 Y41.6291
G01 X28.8266 Y41.6259
G01 X28.8346 Y41.6202
G01 X28.8408 Y41.6162
G01 X28.8538 Y41.6093
G01 X28.8674 Y41.6037
G01 X28.8774 Y41.6005
G01 X28.8854 Y41.5948
G01 X28.8916 Y41.5908
G01 X28.9046 Y41.5839
G01 X28.9113 Y41.5809
G01 X28.9252 Y41.5760
G01 X28.9394 Y41.5724
G01 X28.9540 Y41.5702
G01 X28.9613 Y41.5697
G01 X28.9868 Y41.5695
G01 X28.9996 Y41.5618
G01 X29.0129 Y41.5555
G01 X29.0198 Y41.5529
G01 X29.0339 Y41.5486
G01 X29.0410 Y41.5470
G01 X29.0556 Y41.5448
G01 X29.0703 Y41.5441
G01 X29.2264 Y41.5441
G01 X29.2374 Y41.5448
G01 X29.2447 Y41.5457
G01 X29.2591 Y41.5486
G01 X29.2732 Y41.5529
G01 X29.2868 Y41.5585
G01 X29.2998 Y41.5654
G01 X29.3065 Y41.5697
G01 X29.3209 Y41.5711
G01 X29.3282 Y41.5724
G01 X29.3424 Y41.5760
G01 X29.3494 Y41.5783
G01 X29.3563 Y41.5809
G01 X29.3696 Y41.5872
G01 X29.3827 Y41.5951
G01 X29.3971 Y41.5965
G01 X29.4115 Y41.5994
G01 X29.4186 Y41.6014
G01 X29.4325 Y41.6063
G01 X29.4392 Y41.6093
G01 X29.4522 Y41.6162
G01 X29.4584 Y41.6202
G01 X29.4664 Y41.6259
G01 X29.4764 Y41.6291
G01 X29.4900 Y41.6347
G01 X29.5030 Y41.6416
G01 X29.5092 Y41.6456
G01 X29.5172 Y41.6513
G01 X29.5272 Y41.6545
G01 X29.5341 Y41.6571
G01 X29.5474 Y41.6634
G01 X29.5538 Y41.6670
G01 X29.5661 Y41.6752
G01 X29.5719 Y41.6797
G01 X29.5828 Y41.6896
G01 X29.5878 Y41.6950
G01 X29.5947 Y41.7031
G01 X29.6028 Y41.7100
G01 X29.6082 Y41.7150
G01 X29.6132 Y41.7204
G01 X29.6201 Y41.7285
G01 X29.6282 Y41.7354
G01 X29.6336 Y41.7404
G01 X29.6386 Y41.7458
G01 X29.6455 Y41.7539
G01 X29.6536 Y41.7608
G01 X29.6590 Y41.7658
G01 X29.6640 Y41.7712
G01 X29.6709 Y41.7793
G01 X29.6790 Y41.7862
G01 X29.6844 Y41.7912
G01 X29.6943 Y41.8021
G01 X29.7030 Y41.8140
G01 X29.7106 Y41.8266
G01 X29.7169 Y41.8399
G01 X29.7195 Y41.8468
G01 X29.7227 Y41.8568
G01 X29.7284 Y41.8648
G01 X29.7324 Y41.8710
G01 X29.7393 Y41.8840
G01 X29.7423 Y41.8907
G01 X29.7472 Y41.9046
G01 X29.7492 Y41.9117
G01 X29.7521 Y41.9261
G01 X29.7530 Y41.9334
G01 X29.7537 Y41.9481
G01 X29.7537 Y42.1259
G01 X29.7530 Y42.1406
G01 X29.7508 Y42.1552
G01 X29.7492 Y42.1623
G01 X29.7449 Y42.1764
G01 X29.7393 Y42.1900
G01 X29.7324 Y42.2030
G01 X29.7284 Y42.2092
G01 X29.7227 Y42.2172
G01 X29.7195 Y42.2272
G01 X29.7139 Y42.2408
G01 X29.7070 Y42.2538
G01 X29.6988 Y42.2661
G01 X29.6943 Y42.2719
G01 X29.6844 Y42.2828
G01 X29.6790 Y42.2878
G01 X29.6709 Y42.2947
G01 X29.6640 Y42.3028
G01 X29.6590 Y42.3082
G01 X29.6536 Y42.3132
G01 X29.6455 Y42.3201
G01 X29.6386 Y42.3282
G01 X29.6336 Y42.3336
G01 X29.6282 Y42.3386
G01 X29.6201 Y42.3455
G01 X29.6132 Y42.3536
G01 X29.6082 Y42.3590
G01 X29.6028 Y42.3640
G01 X29.5947 Y42.3709
G01 X29.5878 Y42.3790
G01 X29.5774 Y42.3894
G01 X29.5719 Y42.3943
G01 X29.5600 Y42.4030
G01 X29.5474 Y42.4106
G01 X29.5341 Y42.4169
G01 X29.5272 Y42.4195
G01 X29.5172 Y42.4227
G01 X29.5092 Y42.4284
G01 X29.4966 Y42.4360
G01 X29.4833 Y42.4423
G01 X29.4764 Y42.4449
G01 X29.4664 Y42.4481
G01 X29.4584 Y42.4538
G01 X29.4458 Y42.4614
G01 X29.4325 Y42.4677
G01 X29.4256 Y42.4703
G01 X29.4156 Y42.4735
G01 X29.4076 Y42.4792
G01 X29.4014 Y42.4832
G01 X29.3884 Y42.4901
G01 X29.3817 Y42.4931
G01 X29.3678 Y42.4980
G01 X29.3607 Y42.5000
G01 X29.3463 Y42.5029
G01 X29.3390 Y42.5038
G01 X29.3243 Y42.5045
G01 X29.2554 Y42.5045
G01 X29.2490 Y42.5086
G01 X29.2360 Y42.5155
G01 X29.2293 Y42.5185
G01 X29.2154 Y42.5234
G01 X29.2083 Y42.5254
G01 X29.1939 Y42.5283
G01 X29.1866 Y42.5292
G01 X29.1756 Y42.5299
G01 X29.0957 Y42.5299
G01 X29.0810 Y42.5292
G01 X29.0664 Y42.5270
G01 X29.0593 Y42.5254
G01 X29.0452 Y42.5211
G01 X29.0383 Y42.5185
G01 X29.0250 Y42.5122
G01 X29.0122 Y42.5045
G01 X28.9613 Y42.5043
G01 X28.9467 Y42.5029
G01 X28.9323 Y42.5000
G01 X28.9182 Y42.4957
G01 X28.9046 Y42.4901
G01 X28.8916 Y42.4832
G01 X28.8854 Y42.4792
G01 X28.8774 Y42.4735
G01 X28.8674 Y42.4703
G01 X28.8538 Y42.4647
G01 X28.8408 Y42.4578
G01 X28.8346 Y42.4538
G01 X28.8266 Y42.4481
G01 X28.8166 Y42.4449
G01 X28.8030 Y42.4393
G01 X28.7900 Y42.4324
G01 X28.7838 Y42.4284
G01 X28.7758 Y42.4227
G01 X28.7658 Y42.4195
G01 X28.7522 Y42.4139
G01 X28.7392 Y42.4070
G01 X28.7330 Y42.4030
G01 X28.7211 Y42.3943
G01 X28.7102 Y42.3844
G01 X28.7052 Y42.3790
G01 X28.6983 Y42.3709
G01 X28.6902 Y42.3640
G01 X28.6848 Y42.3590
G01 X28.6798 Y42.3536
G01 X28.6729 Y42.3455
G01 X28.6648 Y42.3386
G01 X28.6594 Y42.3336
G01 X28.6544 Y42.3282
G01 X28.6475 Y42.3201
G01 X28.6394 Y42.3132
G01 X28.6340 Y42.3082
G01 X28.6241 Y42.2973
G01 X28.6196 Y42.2915
G01 X28.6114 Y42.2792
G01 X28.6078 Y42.2728
G01 X28.6015 Y42.2595
G01 X28.5989 Y42.2526
G01 X28.5957 Y42.2426
G01 X28.5900 Y42.2346
G01 X28.5860 Y42.2284
G01 X28.5791 Y42.2154
G01 X28.5735 Y42.2018
G01 X28.5703 Y42.1918
G01 X28.5646 Y42.1838
G01 X28.5606 Y42.1776
G01 X28.5570 Y42.1712
G01 X28.5507 Y42.1579
G01 X28.5481 Y42.1510
G01 X28.5438 Y42.1369
G01 X28.5422 Y42.1298
G01 X28.5400 Y42.1152
G01 X28.5393 Y42.1005
G01 X28.5393 Y41.9735
G01 X28.5400 Y41.9588
G01 X28.5422 Y41.9442
G01 X28.5438 Y41.9371
G01 X28.5481 Y41.9230
G01 X28.5507 Y41.9161
G01 X28.5570 Y41.9028
G01 X28.5649 Y41.8897
G00 Z2.0000
G00 X30.0633 Y41.5441
G01 F60.00
G01 Z-0.0700
G01 F120.00
G01 X30.0751 Y41.5609
G01 X30.0827 Y41.5724
G01 X30.0910 Y41.5857
G01 X30.1021 Y41.6048
G01 X30.1121 Y41.6234
G01 X30.1270 Y41.6546
G01 X30.1346 Y41.6685
G01 X30.1437 Y41.6866
G01 X30.1570 Y41.7159
G01 X30.1667 Y41.7408
G01 X30.1768 Y41.7704
G01 X30.1834 Y41.7934
G01 X30.1905 Y41.8229
G01 X30.1958 Y41.8510
G01 X30.1999 Y41.8811
G01 X30.2023 Y41.9076
G01 X30.2032 Y41.9242
G01 X30.2037 Y41.9440
G01 X30.2037 Y42.0746
G01 X30.2338 Y42.0448
G01 X30.2462 Y42.0318
G01 X30.2592 Y42.0194
G01 X30.2716 Y42.0064
G01 X30.2846 Y41.9940
G01 X30.2977 Y41.9804
G01 X30.3211 Y41.9583
G01 X30.3400 Y41.9421
G01 X30.3565 Y41.9289
G01 X30.3728 Y41.9169
G01 X30.3954 Y41.9016
G01 X30.4118 Y41.8775
G01 X30.4307 Y41.8526
G01 X30.4509 Y41.8287
G01 X30.4707 Y41.8074
G01 X30.4474 Y41.7961
G01 X30.4278 Y41.7856
G01 X30.4090 Y41.7769
G01 X30.3877 Y41.7661
G01 X30.3652 Y41.7534
G01 X30.3433 Y41.7398
G01 X30.3205 Y41.7242
G01 X30.3006 Y41.7093
G01 X30.2827 Y41.6988
G01 X30.2671 Y41.6890
G01 X30.2443 Y41.6734
G01 X30.2244 Y41.6585
G01 X30.2002 Y41.6441
G01 X30.1764 Y41.6285
G01 X30.1577 Y41.6150
G01 X30.1403 Y41.6014
G01 X30.1234 Y41.5872
G01 X30.1093 Y41.5744
G01 X30.0839 Y41.5585
G01 X30.0633 Y41.5441
G01 X30.9430 Y41.7085
G01 X30.9323 Y41.7029
G01 X30.9179 Y41.6945
G01 X30.9012 Y41.6874
G01 X30.8847 Y41.6793
G01 X30.8671 Y41.6691
G01 X30.8571 Y41.6650
G01 X30.8432 Y41.6586
G01 X30.8298 Y41.6558
G01 X30.8120 Y41.6510
G01 X30.8015 Y41.6476
G01 X30.7843 Y41.6411
G01 X30.7742 Y41.6366
G01 X30.7609 Y41.6302
G01 X30.7401 Y41.6183
G01 X30.7301 Y41.6142
G01 X30.7167 Y41.6081
G01 X30.6972 Y41.5977
G01 X30.6816 Y41.5879
G01 X30.6726 Y41.5816
G01 X30.6609 Y41.5727
G01 X30.6458 Y41.5598
G01 X30.6307 Y41.5523
G01 X30.6131 Y41.5421
G01 X30.6031 Y41.5380
G01 X30.5897 Y41.5319
G01 X30.5767 Y41.5251
G01 X30.5623 Y41.5167
G01 X30.5523 Y41.5126
G01 X30.5389 Y41.5065
G01 X30.5194 Y41.4961
G01 X30.5038 Y41.4863
G01 X30.4948 Y41.4800
G01 X30.4802 Y41.4688
G01 X30.4680 Y41.4582
G01 X30.4529 Y41.4507
G01 X30.4432 Y41.4453
G01 X30.4246 Y41.4335
G01 X30.4069 Y41.4203
G01 X30.3918 Y41.4074
G01 X30.3767 Y41.3999
G01 X30.3670 Y41.3945
G01 X30.3484 Y41.3827
G01 X30.3307 Y41.3695
G01 X30.3194 Y41.3600
G01 X30.3060 Y41.3474
G01 X30.2937 Y41.3343
G01 X30.2902 Y41.3312
G01 X30.2751 Y41.3237
G01 X30.2591 Y41.3145
G01 X30.2408 Y41.3022
G01 X30.2262 Y41.2910
G01 X30.2178 Y41.2838
G01 X30.2044 Y41.2712
G01 X30.1921 Y41.2581
G01 X30.1790 Y41.2458
G01 X30.1667 Y41.2327
G01 X30.1536 Y41.2204
G01 X30.1413 Y41.2073
G01 X30.1282 Y41.1950
G01 X30.1159 Y41.1819
G01 X30.1028 Y41.1696
G01 X30.0905 Y41.1565
G01 X30.0774 Y41.1442
G01 X30.0651 Y41.1311
G01 X30.0520 Y41.1188
G01 X30.0397 Y41.1057
G01 X30.0266 Y41.0934
G01 X30.0143 Y41.0803
G01 X30.0012 Y41.0680
G01 X29.9889 Y41.0549
G01 X29.9758 Y41.0426
G01 X29.9635 Y41.0295
G01 X29.9504 Y41.0172
G01 X29.9381 Y41.0041
G01 X29.9250 Y40.9918
G01 X29.9127 Y40.9787
G01 X29.9092 Y40.9756
G01 X29.8909 Y40.9663
G01 X29.8719 Y40.9550
G01 X29.8598 Y40.9466
G01 X29.8481 Y40.9377
G01 X29.8368 Y40.9282
G01 X29.8260 Y40.9182
G01 X29.8111 Y40.9025
G01 X29.7980 Y40.8902
G01 X29.7903 Y40.8823
G01 X29.7759 Y40.8655
G01 X29.7670 Y40.8538
G01 X29.7607 Y40.8448
G01 X29.7547 Y40.8355
G01 X29.7473 Y40.8227
G01 X29.7380 Y40.8044
G01 X29.7349 Y40.8009
G01 X29.7218 Y40.7886
G01 X29.7095 Y40.7755
G01 X29.6964 Y40.7632
G01 X29.6841 Y40.7501
G01 X29.6710 Y40.7378
G01 X29.6587 Y40.7247
G01 X29.6456 Y40.7124
G01 X29.6333 Y40.6993
G01 X29.6202 Y40.6870
G01 X29.6076 Y40.6736
G01 X29.5936 Y40.6565
G01 X29.5829 Y40.6416
G01 X29.5769 Y40.6323
G01 X29.5695 Y40.6195
G01 X29.5596 Y40.5998
G01 X29.5525 Y40.5831
G01 X29.5423 Y40.5655
G01 X29.5337 Y40.5480
G01 X29.5279 Y40.5577
G01 X29.5208 Y40.5744
G01 X29.5127 Y40.5909
G01 X29.5035 Y40.6069
G01 X29.4912 Y40.6252
G01 X29.4800 Y40.6398
G01 X29.4679 Y40.6537
G01 X29.4602 Y40.6616
G01 X29.4471 Y40.6739
G01 X29.4348 Y40.6870
G01 X29.4217 Y40.6993
G01 X29.4186 Y40.7028
G01 X29.4093 Y40.7211
G01 X29.4019 Y40.7339
G01 X29.3959 Y40.7432
G01 X29.3896 Y40.7522
G01 X29.3807 Y40.7639
G01 X29.3663 Y40.7807
G01 X29.3586 Y40.7886
G01 X29.3455 Y40.8009
G01 X29.3332 Y40.8140
G01 X29.3201 Y40.8263
G01 X29.3078 Y40.8394
G01 X29.2947 Y40.8517
G01 X29.2824 Y40.8648
G01 X29.2693 Y40.8771
G01 X29.2570 Y40.8902
G01 X29.2439 Y40.9025
G01 X29.2316 Y40.9156
G01 X29.2185 Y40.9279
G01 X29.2062 Y40.9410
G01 X29.1931 Y40.9533
G01 X29.1808 Y40.9664
G01 X29.1677 Y40.9787
G01 X29.1554 Y40.9918
G01 X29.1423 Y41.0041
G01 X29.1300 Y41.0172
G01 X29.1221 Y41.0249
G01 X29.1053 Y41.0393
G01 X29.0936 Y41.0482
G01 X29.0846 Y41.0545
G01 X29.0753 Y41.0605
G01 X29.0625 Y41.0679
G01 X29.0442 Y41.0772
G01 X29.0407 Y41.0803
G01 X29.0284 Y41.0934
G01 X29.0153 Y41.1057
G01 X29.0030 Y41.1188
G01 X28.9899 Y41.1311
G01 X28.9776 Y41.1442
G01 X28.9645 Y41.1565
G01 X28.9522 Y41.1696
G01 X28.9391 Y41.1819
G01 X28.9268 Y41.1950
G01 X28.9137 Y41.2073
G01 X28.9014 Y41.2204
G01 X28.8880 Y41.2330
G01 X28.8796 Y41.2402
G01 X28.8650 Y41.2514
G01 X28.8467 Y41.2637
G01 X28.8307 Y41.2729
G01 X28.8156 Y41.2804
G01 X28.8121 Y41.2835
G01 X28.7998 Y41.2966
G01 X28.7867 Y41.3089
G01 X28.7718 Y41.3246
G01 X28.7554 Y41.3394
G01 X28.7439 Y41.3486
G01 X28.7290 Y41.3593
G01 X28.7197 Y41.3653
G01 X28.7037 Y41.3745
G01 X28.6886 Y41.3820
G01 X28.6851 Y41.3851
G01 X28.6728 Y41.3982
G01 X28.6649 Y41.4059
G01 X28.6510 Y41.4180
G01 X28.6423 Y41.4248
G01 X28.6274 Y41.4355
G01 X28.6181 Y41.4415
G01 X28.6021 Y41.4507
G01 X28.5870 Y41.4582
G01 X28.5748 Y41.4688
G01 X28.5661 Y41.4756
G01 X28.5512 Y41.4863
G01 X28.5419 Y41.4923
G01 X28.5227 Y41.5032
G01 X28.5094 Y41.5096
G01 X28.4927 Y41.5167
G01 X28.4751 Y41.5269
G01 X28.4600 Y41.5344
G01 X28.4449 Y41.5473
G01 X28.4332 Y41.5562
G01 X28.4242 Y41.5625
G01 X28.4086 Y41.5723
G01 X28.3891 Y41.5827
G01 X28.3757 Y41.5888
G01 X28.3657 Y41.5929
G01 X28.3449 Y41.6048
G01 X28.3316 Y41.6112
G01 X28.3149 Y41.6183
G01 X28.2941 Y41.6302
G01 X28.2808 Y41.6366
G01 X28.2641 Y41.6437
G01 X28.2465 Y41.6539
G01 X28.2300 Y41.6620
G01 X28.2165 Y41.6678
G01 X28.1957 Y41.6753
G01 X28.1816 Y41.6794
G01 X28.1610 Y41.6840
G01 X28.1471 Y41.6904
G01 X28.1371 Y41.6945
G01 X28.1227 Y41.7029
G01 X28.1120 Y41.7085
G01 X28.1263 Y41.7237
G01 X28.1394 Y41.7360
G01 X28.1517 Y41.7491
G01 X28.1674 Y41.7640
G01 X28.1774 Y41.7748
G01 X28.1869 Y41.7861
G01 X28.2001 Y41.8038
G01 X28.2081 Y41.8161
G01 X28.2173 Y41.8321
G01 X28.2248 Y41.8472
G01 X28.2279 Y41.8507
G01 X28.2410 Y41.8630
G01 X28.2536 Y41.8764
G01 X28.2631 Y41.8877
G01 X28.2763 Y41.9054
G01 X28.2881 Y41.9240
G01 X28.2935 Y41.9337
G01 X28.3010 Y41.9488
G01 X28.3041 Y41.9523
G01 X28.3172 Y41.9646
G01 X28.3295 Y41.9777
G01 X28.3426 Y41.9900
G01 X28.3549 Y42.0031
G01 X28.3680 Y42.0154
G01 X28.3803 Y42.0285
G01 X28.3893 Y42.0368
G01 X28.3896 Y41.9606
G01 X28.3907 Y41.9441
G01 X28.3920 Y41.9331
G01 X28.3958 Y41.9114
G01 X28.4012 Y41.8899
G01 X28.4056 Y41.8759
G01 X28.4121 Y41.8587
G01 X28.4200 Y41.8414
G01 X28.4246 Y41.8208
G01 X28.4310 Y41.7997
G01 X28.4375 Y41.7825
G01 X28.4420 Y41.7724
G01 X28.4519 Y41.7527
G01 X28.4632 Y41.7337
G01 X28.4716 Y41.7216
G01 X28.4828 Y41.7070
G01 X28.4900 Y41.6986
G01 X28.5026 Y41.6852
G01 X28.5157 Y41.6729
G01 X28.5280 Y41.6598
G01 X28.5411 Y41.6475
G01 X28.5534 Y41.6344
G01 X28.5665 Y41.6221
G01 X28.5788 Y41.6090
G01 X28.5919 Y41.5967
G01 X28.6042 Y41.5836
G01 X28.6121 Y41.5759
G01 X28.6232 Y41.5662
G01 X28.6406 Y41.5526
G01 X28.6589 Y41.5403
G01 X28.6749 Y41.5311
G01 X28.6914 Y41.5230
G01 X28.7081 Y41.5159
G01 X28.7225 Y41.5075
G01 X28.7355 Y41.5007
G01 X28.7489 Y41.4946
G01 X28.7589 Y41.4905
G01 X28.7733 Y41.4821
G01 X28.7863 Y41.4753
G01 X28.7997 Y41.4692
G01 X28.8097 Y41.4651
G01 X28.8241 Y41.4567
G01 X28.8371 Y41.4499
G01 X28.8539 Y41.4423
G01 X28.8642 Y41.4383
G01 X28.8816 Y41.4324
G01 X28.8922 Y41.4294
G01 X28.9066 Y41.4260
G01 X28.9283 Y41.4222
G01 X28.9479 Y41.4203
G01 X28.9589 Y41.4156
G01 X28.9727 Y41.4104
G01 X28.9832 Y41.4070
G01 X29.0010 Y41.4022
G01 X29.0226 Y41.3979
G01 X29.0446 Y41.3952
G01 X29.0685 Y41.3941
G01 X29.2245 Y41.3941
G01 X29.2484 Y41.3952
G01 X29.2704 Y41.3979
G01 X29.2920 Y41.4022
G01 X29.3098 Y41.4070
G01 X29.3203 Y41.4104
G01 X29.3341 Y41.4156
G01 X29.3548 Y41.4248
G01 X29.3682 Y41.4276
G01 X29.3860 Y41.4324
G01 X29.3965 Y41.4358
G01 X29.4103 Y41.4410
G01 X29.4310 Y41.4502
G01 X29.4444 Y41.4530
G01 X29.4587 Y41.4568
G01 X29.4796 Y41.4637
G01 X29.4899 Y41.4677
G01 X29.5067 Y41.4753
G01 X29.5197 Y41.4821
G01 X29.5341 Y41.4905
G01 X29.5441 Y41.4946
G01 X29.5575 Y41.5007
G01 X29.5705 Y41.5075
G01 X29.5849 Y41.5159
G01 X29.6016 Y41.5230
G01 X29.6149 Y41.5294
G01 X29.6341 Y41.5403
G01 X29.6524 Y41.5526
G01 X29.6670 Y41.5638
G01 X29.6754 Y41.5710
G01 X29.6862 Y41.5810
G01 X29.7011 Y41.5967
G01 X29.7142 Y41.6090
G01 X29.7265 Y41.6221
G01 X29.7396 Y41.6344
G01 X29.7519 Y41.6475
G01 X29.7650 Y41.6598
G01 X29.7773 Y41.6729
G01 X29.7930 Y41.6878
G01 X29.8030 Y41.6986
G01 X29.8102 Y41.7070
G01 X29.8214 Y41.7216
G01 X29.8337 Y41.7399
G01 X29.8446 Y41.7591
G01 X29.8510 Y41.7724
G01 X29.8581 Y41.7891
G01 X29.8700 Y41.8099
G01 X29.8764 Y41.8232
G01 X29.8809 Y41.8333
G01 X29.8874 Y41.8505
G01 X29.8908 Y41.8610
G01 X29.8956 Y41.8788
G01 X29.8986 Y41.8932
G01 X29.9010 Y41.9077
G01 X29.9023 Y41.9187
G01 X29.9036 Y41.9426
G01 X29.9037 Y42.1259
G01 X29.9034 Y42.1388
G01 X29.9019 Y42.1590
G01 X29.8999 Y42.1736
G01 X29.8979 Y42.1844
G01 X29.8956 Y42.1952
G01 X29.8918 Y42.2095
G01 X29.8849 Y42.2304
G01 X29.8809 Y42.2407
G01 X29.8733 Y42.2575
G01 X29.8665 Y42.2705
G01 X29.8581 Y42.2849
G01 X29.8510 Y42.3016
G01 X29.8429 Y42.3181
G01 X29.8337 Y42.3341
G01 X29.8277 Y42.3434
G01 X29.8214 Y42.3524
G01 X29.8125 Y42.3641
G01 X29.8030 Y42.3754
G01 X29.7904 Y42.3888
G01 X29.7773 Y42.4011
G01 X29.7650 Y42.4142
G01 X29.7519 Y42.4265
G01 X29.7396 Y42.4396
G01 X29.7265 Y42.4519
G01 X29.7142 Y42.4650
G01 X29.7011 Y42.4773
G01 X29.6888 Y42.4904
G01 X29.6754 Y42.5030
G01 X29.6652 Y42.5117
G01 X29.8132 Y42.5117
G01 X29.8225 Y42.5078
G01 X29.8363 Y42.5026
G01 X29.8468 Y42.4992
G01 X29.8646 Y42.4944
G01 X29.8754 Y42.4921
G01 X29.8935 Y42.4890
G01 X29.9045 Y42.4877
G01 X29.9210 Y42.4866
G01 X29.9339 Y42.4863
G01 X30.1117 Y42.4863
G01 X30.1301 Y42.4869
G01 X30.1521 Y42.4890
G01 X30.1702 Y42.4921
G01 X30.1810 Y42.4944
G01 X30.1953 Y42.4982
G01 X30.2162 Y42.5051
G01 X30.2366 Y42.5136
G01 X30.2563 Y42.5235
G01 X30.2691 Y42.5309
G01 X30.2784 Y42.5369
G01 X30.2943 Y42.5483
G01 X30.2946 Y42.5194
G01 X30.2957 Y42.5029
G01 X30.2970 Y42.4919
G01 X30.3008 Y42.4702
G01 X30.3042 Y42.4558
G01 X30.3072 Y42.4452
G01 X30.3106 Y42.4347
G01 X30.3171 Y42.4175
G01 X30.3216 Y42.4074
G01 X30.3280 Y42.3941
G01 X30.3389 Y42.3749
G01 X30.3449 Y42.3656
G01 X30.3556 Y42.3507
G01 X30.3696 Y42.3336
G01 X30.3822 Y42.3202
G01 X30.3953 Y42.3079
G01 X30.4076 Y42.2948
G01 X30.4207 Y42.2825
G01 X30.4330 Y42.2694
G01 X30.4461 Y42.2571
G01 X30.4584 Y42.2440
G01 X30.4715 Y42.2317
G01 X30.4838 Y42.2186
G01 X30.4969 Y42.2063
G01 X30.5092 Y42.1932
G01 X30.5171 Y42.1855
G01 X30.5339 Y42.1711
G01 X30.5456 Y42.1622
G01 X30.5546 Y42.1559
G01 X30.5639 Y42.1499
G01 X30.5767 Y42.1425
G01 X30.5950 Y42.1332
G01 X30.5985 Y42.1301
G01 X30.6108 Y42.1170
G01 X30.6239 Y42.1047
G01 X30.6270 Y42.1012
G01 X30.6363 Y42.0829
G01 X30.6476 Y42.0639
G01 X30.6604 Y42.0459
G01 X30.6696 Y42.0344
G01 X30.6793 Y42.0233
G01 X30.6870 Y42.0154
G01 X30.7001 Y42.0031
G01 X30.7124 Y41.9900
G01 X30.7255 Y41.9777
G01 X30.7378 Y41.9646
G01 X30.7509 Y41.9523
G01 X30.7632 Y41.9392
G01 X30.7763 Y41.9269
G01 X30.7794 Y41.9234
G01 X30.7887 Y41.9051
G01 X30.8000 Y41.8861
G01 X30.8128 Y41.8681
G01 X30.8196 Y41.8594
G01 X30.8302 Y41.8472
G01 X30.8377 Y41.8321
G01 X30.8469 Y41.8161
G01 X30.8592 Y41.7978
G01 X30.8704 Y41.7832
G01 X30.8776 Y41.7748
G01 X30.8876 Y41.7640
G01 X30.9033 Y41.7491
G01 X30.9156 Y41.7360
G01 X30.9287 Y41.7237
G01 X30.9430 Y41.7085
G00 Z2.0000
G00 X27.6757 Y40.4519
G01 F60.00
G01 Z-0.0700
G01 F120.00
G01 X27.6757 Y40.2693
G01 X26.3501 Y40.2693
G01 X26.3501 Y40.4519
G01 X27.6757 Y40.4519
G00 Z2.0000
G00 X25.6437 Y40.6092
G01 F60.00
G01 Z-0.0700
G01 F120.00
G01 X25.6360 Y40.5964
G01 X25.6297 Y40.5831
G01 X25.6271 Y40.5762
G01 X25.6248 Y40.5692
G01 X25.6212 Y40.5550
G01 X25.6199 Y40.5477
G01 X25.6185 Y40.5331
G01 X25.6183 Y40.1955
G01 X25.6190 Y40.1808
G01 X25.6199 Y40.1735
G01 X25.6228 Y40.1591
G01 X25.6248 Y40.1520
G01 X25.6297 Y40.1381
G01 X25.6360 Y40.1248
G01 X25.6437 Y40.1120
G01 X25.6439 Y40.0611
G01 X25.6453 Y40.0465
G01 X25.6482 Y40.0321
G01 X25.6525 Y40.0180
G01 X25.6581 Y40.0044
G01 X25.6650 Y39.9914
G01 X25.6693 Y39.9847
G01 X25.6707 Y39.9703
G01 X25.6720 Y39.9630
G01 X25.6756 Y39.9488
G01 X25.6779 Y39.9418
G01 X25.6805 Y39.9349
G01 X25.6868 Y39.9216
G01 X25.6947 Y39.9085
G01 X25.6961 Y39.8941
G01 X25.6974 Y39.8868
G01 X25.7010 Y39.8726
G01 X25.7033 Y39.8656
G01 X25.7089 Y39.8520
G01 X25.7122 Y39.8454
G01 X25.7198 Y39.8328
G01 X25.7255 Y39.8248
G01 X25.7287 Y39.8148
G01 X25.7313 Y39.8079
G01 X25.7376 Y39.7946
G01 X25.7452 Y39.7820
G01 X25.7509 Y39.7740
G01 X25.7541 Y39.7640
G01 X25.7567 Y39.7571
G01 X25.7630 Y39.7438
G01 X25.7666 Y39.7374
G01 X25.7748 Y39.7251
G01 X25.7842 Y39.7138
G01 X25.7946 Y39.7034
G01 X25.8027 Y39.6965
G01 X25.8096 Y39.6884
G01 X25.8146 Y39.6830
G01 X25.8200 Y39.6780
G01 X25.8273 Y39.6718
G01 X25.8303 Y39.6624
G01 X25.8329 Y39.6555
G01 X25.8392 Y39.6422
G01 X25.8468 Y39.6296
G01 X25.8510 Y39.6235
G01 X25.8604 Y39.6122
G01 X25.8708 Y39.6018
G01 X25.8789 Y39.5949
G01 X25.8858 Y39.5868
G01 X25.8908 Y39.5814
G01 X25.8962 Y39.5764
G01 X25.9043 Y39.5695
G01 X25.9112 Y39.5614
G01 X25.9162 Y39.5560
G01 X25.9216 Y39.5510
G01 X25.9297 Y39.5441
G01 X25.9366 Y39.5360
G01 X25.9416 Y39.5306
G01 X25.9470 Y39.5256
G01 X25.9551 Y39.5187
G01 X25.9620 Y39.5106
G01 X25.9670 Y39.5052
G01 X25.9724 Y39.5002
G01 X25.9805 Y39.4933
G01 X25.9874 Y39.4852
G01 X25.9924 Y39.4798
G01 X25.9978 Y39.4748
G01 X26.0059 Y39.4679
G01 X26.0128 Y39.4598
G01 X26.0178 Y39.4544
G01 X26.0232 Y39.4494
G01 X26.0313 Y39.4425
G01 X26.0382 Y39.4344
G01 X26.0432 Y39.4290
G01 X26.0486 Y39.4240
G01 X26.0567 Y39.4171
G01 X26.0636 Y39.4090
G01 X26.0686 Y39.4036
G01 X26.0740 Y39.3986
G01 X26.0821 Y39.3917
G01 X26.0890 Y39.3836
G01 X26.0940 Y39.3782
G01 X26.1049 Y39.3683
G01 X26.1168 Y39.3596
G01 X26.1294 Y39.3520
G01 X26.1427 Y39.3457
G01 X26.1496 Y39.3431
G01 X26.1590 Y39.3401
G01 X26.1652 Y39.3328
G01 X26.1702 Y39.3274
G01 X26.1756 Y39.3224
G01 X26.1837 Y39.3155
G01 X26.1906 Y39.3074
G01 X26.1956 Y39.3020
G01 X26.2065 Y39.2921
G01 X26.2184 Y39.2834
G01 X26.2310 Y39.2758
G01 X26.2443 Y39.2695
G01 X26.2512 Y39.2669
G01 X26.2606 Y39.2639
G01 X26.2668 Y39.2566
G01 X26.2772 Y39.2462
G01 X26.2885 Y39.2368
G01 X26.3008 Y39.2286
G01 X26.3072 Y39.2250
G01 X26.3205 Y39.2187
G01 X26.3274 Y39.2161
G01 X26.3374 Y39.2129
G01 X26.3454 Y39.2072
G01 X26.3516 Y39.2032
G01 X26.3646 Y39.1963
G01 X26.3782 Y39.1907
G01 X26.3882 Y39.1875
G01 X26.3962 Y39.1818
G01 X26.4024 Y39.1778
G01 X26.4154 Y39.1709
G01 X26.4290 Y39.1653
G01 X26.4390 Y39.1621
G01 X26.4470 Y39.1564
G01 X26.4532 Y39.1524
G01 X26.4662 Y39.1455
G01 X26.4798 Y39.1399
G01 X26.4898 Y39.1367
G01 X26.4978 Y39.1310
G01 X26.5040 Y39.1270
G01 X26.5170 Y39.1201
G01 X26.5306 Y39.1145
G01 X26.5406 Y39.1113
G01 X26.5486 Y39.1056
G01 X26.5548 Y39.1016
G01 X26.5678 Y39.0947
G01 X26.5814 Y39.0891
G01 X26.5955 Y39.0848
G01 X26.6099 Y39.0819
G01 X26.6243 Y39.0805
G01 X26.6310 Y39.0762
G01 X26.6440 Y39.0693
G01 X26.6576 Y39.0637
G01 X26.6717 Y39.0594
G01 X26.6861 Y39.0565
G01 X26.6934 Y39.0556
G01 X26.7044 Y39.0549
G01 X26.7262 Y39.0549
G01 X26.7390 Y39.0472
G01 X26.7523 Y39.0409
G01 X26.7662 Y39.0360
G01 X26.7804 Y39.0324
G01 X26.7950 Y39.0302
G01 X26.8023 Y39.0297
G01 X26.8278 Y39.0295
G01 X26.8406 Y39.0218
G01 X26.8539 Y39.0155
G01 X26.8678 Y39.0106
G01 X26.8820 Y39.0070
G01 X26.8966 Y39.0048
G01 X26.9076 Y39.0041
G01 X27.0564 Y39.0041
G01 X27.0692 Y38.9964
G01 X27.0825 Y38.9901
G01 X27.0894 Y38.9875
G01 X27.0964 Y38.9852
G01 X27.1106 Y38.9816
G01 X27.1252 Y38.9794
G01 X27.1399 Y38.9787
G01 X27.2997 Y38.9789
G01 X27.3070 Y38.9794
G01 X27.3216 Y38.9816
G01 X27.3287 Y38.9832
G01 X27.3428 Y38.9875
G01 X27.3497 Y38.9901
G01 X27.3630 Y38.9964
G01 X27.3758 Y39.0041
G01 X27.5209 Y39.0041
G01 X27.5356 Y39.0048
G01 X27.5429 Y39.0057
G01 X27.5573 Y39.0086
G01 X27.5644 Y39.0106
G01 X27.5783 Y39.0155
G01 X27.5916 Y39.0218
G01 X27.6044 Y39.0295
G01 X27.6516 Y39.0295
G01 X27.6626 Y39.0302
G01 X27.6699 Y39.0311
G01 X27.6843 Y39.0340
G01 X27.6914 Y39.0360
G01 X27.7053 Y39.0409
G01 X27.7186 Y39.0472
G01 X27.7314 Y39.0549
G01 X27.7532 Y39.0549
G01 X27.7642 Y39.0556
G01 X27.7715 Y39.0565
G01 X27.7859 Y39.0594
G01 X27.8000 Y39.0637
G01 X27.8136 Y39.0693
G01 X27.8266 Y39.0762
G01 X27.8333 Y39.0805
G01 X27.8477 Y39.0819
G01 X27.8550 Y39.0832
G01 X27.8692 Y39.0868
G01 X27.8762 Y39.0891
G01 X27.8831 Y39.0917
G01 X27.8964 Y39.0980
G01 X27.9095 Y39.1059
G01 X27.9239 Y39.1073
G01 X27.9312 Y39.1086
G01 X27.9454 Y39.1122
G01 X27.9524 Y39.1145
G01 X27.9593 Y39.1171
G01 X27.9726 Y39.1234
G01 X27.9857 Y39.1313
G01 X28.0001 Y39.1327
G01 X28.0074 Y39.1340
G01 X28.0216 Y39.1376
G01 X28.0286 Y39.1399
G01 X28.0422 Y39.1455
G01 X28.0488 Y39.1488
G01 X28.0614 Y39.1564
G01 X28.0694 Y39.1621
G01 X28.0794 Y39.1653
G01 X28.0930 Y39.1709
G01 X28.1060 Y39.1778
G01 X28.1127 Y39.1821
G01 X28.1271 Y39.1835
G01 X28.1415 Y39.1864
G01 X28.1556 Y39.1907
G01 X28.1692 Y39.1963
G01 X28.1822 Y39.2032
G01 X28.1884 Y39.2072
G01 X28.1964 Y39.2129
G01 X28.2064 Y39.2161
G01 X28.2200 Y39.2217
G01 X28.2330 Y39.2286
G01 X28.2392 Y39.2326
G01 X28.2472 Y39.2383
G01 X28.2572 Y39.2415
G01 X28.2708 Y39.2471
G01 X28.2838 Y39.2540
G01 X28.2900 Y39.2580
G01 X28.2980 Y39.2637
G01 X28.3080 Y39.2669
G01 X28.3216 Y39.2725
G01 X28.3346 Y39.2794
G01 X28.3408 Y39.2834
G01 X28.3488 Y39.2891
G01 X28.3588 Y39.2923
G01 X28.3724 Y39.2979
G01 X28.3854 Y39.3048
G01 X28.3916 Y39.3088
G01 X28.3996 Y39.3145
G01 X28.4096 Y39.3177
G01 X28.4165 Y39.3203
G01 X28.4298 Y39.3266
G01 X28.4424 Y39.3342
G01 X28.4543 Y39.3429
G01 X28.4652 Y39.3528
G01 X28.4702 Y39.3582
G01 X28.4764 Y39.3655
G01 X28.4858 Y39.3685
G01 X28.4994 Y39.3741
G01 X28.5124 Y39.3810
G01 X28.5247 Y39.3892
G01 X28.5305 Y39.3937
G01 X28.5414 Y39.4036
G01 X28.5464 Y39.4090
G01 X28.5526 Y39.4163
G01 X28.5620 Y39.4193
G01 X28.5756 Y39.4249
G01 X28.5886 Y39.4318
G01 X28.6009 Y39.4400
G01 X28.6067 Y39.4445
G01 X28.6176 Y39.4544
G01 X28.6226 Y39.4598
G01 X28.6288 Y39.4671
G01 X28.6382 Y39.4701
G01 X28.6518 Y39.4757
G01 X28.6648 Y39.4826
G01 X28.6771 Y39.4908
G01 X28.6829 Y39.4953
G01 X28.6938 Y39.5052
G01 X28.6988 Y39.5106
G01 X28.7057 Y39.5187
G01 X28.7138 Y39.5256
G01 X28.7192 Y39.5306
G01 X28.7242 Y39.5360
G01 X28.7311 Y39.5441
G01 X28.7392 Y39.5510
G01 X28.7446 Y39.5560
G01 X28.7496 Y39.5614
G01 X28.7565 Y39.5695
G01 X28.7646 Y39.5764
G01 X28.7700 Y39.5814
G01 X28.7750 Y39.5868
G01 X28.7812 Y39.5941
G01 X28.7906 Y39.5971
G01 X28.7975 Y39.5997
G01 X28.8108 Y39.6060
G01 X28.8234 Y39.6136
G01 X28.8353 Y39.6223
G01 X28.8462 Y39.6322
G01 X28.8512 Y39.6376
G01 X28.8581 Y39.6457
G01 X28.8662 Y39.6526
G01 X28.8716 Y39.6576
G01 X28.8766 Y39.6630
G01 X28.8835 Y39.6711
G01 X28.8916 Y39.6780
G01 X28.8970 Y39.6830
G01 X28.9020 Y39.6884
G01 X28.9089 Y39.6965
G01 X28.9170 Y39.7034
G01 X28.9224 Y39.7084
G01 X28.9274 Y39.7138
G01 X28.9343 Y39.7219
G01 X28.9424 Y39.7288
G01 X28.9478 Y39.7338
G01 X28.9528 Y39.7392
G01 X28.9597 Y39.7473
G01 X28.9678 Y39.7542
G01 X28.9732 Y39.7592
G01 X28.9782 Y39.7646
G01 X28.9851 Y39.7727
G01 X28.9932 Y39.7796
G01 X28.9986 Y39.7846
G01 X29.0036 Y39.7900
G01 X29.0105 Y39.7981
G01 X29.0186 Y39.8050
G01 X29.0240 Y39.8100
G01 X29.0290 Y39.8154
G01 X29.0359 Y39.8235
G01 X29.0440 Y39.8304
G01 X29.0494 Y39.8354
G01 X29.0544 Y39.8408
G01 X29.0613 Y39.8489
G01 X29.0694 Y39.8558
G01 X29.0748 Y39.8608
G01 X29.0798 Y39.8662
G01 X29.0867 Y39.8743
G01 X29.0948 Y39.8812
G01 X29.1002 Y39.8862
G01 X29.1052 Y39.8916
G01 X29.1121 Y39.8997
G01 X29.1202 Y39.9066
G01 X29.1256 Y39.9116
G01 X29.1306 Y39.9170
G01 X29.1375 Y39.9251
G01 X29.1456 Y39.9320
G01 X29.1510 Y39.9370
G01 X29.1560 Y39.9424
G01 X29.1629 Y39.9505
G01 X29.1710 Y39.9574
G01 X29.1764 Y39.9624
G01 X29.1814 Y39.9678
G01 X29.1883 Y39.9759
G01 X29.1964 Y39.9828
G01 X29.2018 Y39.9878
G01 X29.2117 Y39.9987
G01 X29.2162 Y40.0045
G01 X29.2244 Y40.0168
G01 X29.2280 Y40.0232
G01 X29.2343 Y40.0365
G01 X29.2369 Y40.0434
G01 X29.2399 Y40.0528
G01 X29.2472 Y40.0590
G01 X29.2526 Y40.0640
G01 X29.2576 Y40.0694
G01 X29.2645 Y40.0775
G01 X29.2726 Y40.0844
G01 X29.2780 Y40.0894
G01 X29.2830 Y40.0948
G01 X29.2899 Y40.1029
G01 X29.2980 Y40.1098
G01 X29.3034 Y40.1148
G01 X29.3133 Y40.1257
G01 X29.3220 Y40.1376
G01 X29.3296 Y40.1502
G01 X29.3359 Y40.1635
G01 X29.3385 Y40.1704
G01 X29.3415 Y40.1798
G01 X29.3488 Y40.1860
G01 X29.3592 Y40.1964
G01 X29.3686 Y40.2077
G01 X29.3768 Y40.2200
G01 X29.3804 Y40.2264
G01 X29.3867 Y40.2397
G01 X29.3893 Y40.2466
G01 X29.3925 Y40.2566
G01 X29.3982 Y40.2646
G01 X29.4058 Y40.2772
G01 X29.4091 Y40.2838
G01 X29.4147 Y40.2974
G01 X29.4190 Y40.3115
G01 X29.4206 Y40.3186
G01 X29.4228 Y40.3332
G01 X29.4235 Y40.3442
G01 X29.4235 Y40.3987
G01 X29.4228 Y40.4134
G01 X29.4206 Y40.4280
G01 X29.4170 Y40.4422
G01 X29.4147 Y40.4492
G01 X29.4091 Y40.4628
G01 X29.4022 Y40.4758
G01 X29.3982 Y40.4820
G01 X29.3925 Y40.4900
G01 X29.3893 Y40.5000
G01 X29.3837 Y40.5136
G01 X29.3768 Y40.5266
G01 X29.3686 Y40.5389
G01 X29.3641 Y40.5447
G01 X29.3542 Y40.5556
G01 X29.3488 Y40.5606
G01 X29.3407 Y40.5675
G01 X29.3338 Y40.5756
G01 X29.3288 Y40.5810
G01 X29.3234 Y40.5860
G01 X29.3153 Y40.5929
G01 X29.3084 Y40.6010
G01 X29.3034 Y40.6064
G01 X29.2980 Y40.6114
G01 X29.2907 Y40.6176
G01 X29.2877 Y40.6270
G01 X29.2851 Y40.6339
G01 X29.2788 Y40.6472
G01 X29.2712 Y40.6598
G01 X29.2670 Y40.6659
G01 X29.2576 Y40.6772
G01 X29.2472 Y40.6876
G01 X29.2391 Y40.6945
G01 X29.2322 Y40.7026
G01 X29.2272 Y40.7080
G01 X29.2218 Y40.7130
G01 X29.2137 Y40.7199
G01 X29.2068 Y40.7280
G01 X29.2018 Y40.7334
G01 X29.1964 Y40.7384
G01 X29.1883 Y40.7453
G01 X29.1814 Y40.7534
G01 X29.1764 Y40.7588
G01 X29.1710 Y40.7638
G01 X29.1629 Y40.7707
G01 X29.1560 Y40.7788
G01 X29.1510 Y40.7842
G01 X29.1456 Y40.7892
G01 X29.1375 Y40.7961
G01 X29.1306 Y40.8042
G01 X29.1256 Y40.8096
G01 X29.1202 Y40.8146
G01 X29.1121 Y40.8215
G01 X29.1052 Y40.8296
G01 X29.1002 Y40.8350
G01 X29.0948 Y40.8400
G01 X29.0867 Y40.8469
G01 X29.0798 Y40.8550
G01 X29.0748 Y40.8604
G01 X29.0694 Y40.8654
G01 X29.0613 Y40.8723
G01 X29.0544 Y40.8804
G01 X29.0494 Y40.8858
G01 X29.0440 Y40.8908
G01 X29.0359 Y40.8977
G01 X29.0290 Y40.9058
G01 X29.0186 Y40.9162
G01 X29.0073 Y40.9256
G01 X29.0012 Y40.9298
G01 X28.9886 Y40.9374
G01 X28.9753 Y40.9437
G01 X28.9684 Y40.9463
G01 X28.9590 Y40.9493
G01 X28.9528 Y40.9566
G01 X28.9478 Y40.9620
G01 X28.9424 Y40.9670
G01 X28.9343 Y40.9739
G01 X28.9274 Y40.9820
G01 X28.9224 Y40.9874
G01 X28.9170 Y40.9924
G01 X28.9089 Y40.9993
G01 X28.9020 Y41.0074
G01 X28.8970 Y41.0128
G01 X28.8916 Y41.0178
G01 X28.8835 Y41.0247
G01 X28.8766 Y41.0328
G01 X28.8716 Y41.0382
G01 X28.8662 Y41.0432
G01 X28.8581 Y41.0501
G01 X28.8512 Y41.0582
G01 X28.8462 Y41.0636
G01 X28.8408 Y41.0686
G01 X28.8327 Y41.0755
G01 X28.8258 Y41.0836
G01 X28.8208 Y41.0890
G01 X28.8154 Y41.0940
G01 X28.8073 Y41.1009
G01 X28.8004 Y41.1090
G01 X28.7900 Y41.1194
G01 X28.7787 Y41.1288
G01 X28.7726 Y41.1330
G01 X28.7600 Y41.1406
G01 X28.7467 Y41.1469
G01 X28.7398 Y41.1495
G01 X28.7304 Y41.1525
G01 X28.7242 Y41.1598
G01 X28.7192 Y41.1652
G01 X28.7138 Y41.1702
G01 X28.7057 Y41.1771
G01 X28.6988 Y41.1852
G01 X28.6938 Y41.1906
G01 X28.6884 Y41.1956
G01 X28.6803 Y41.2025
G01 X28.6734 Y41.2106
G01 X28.6684 Y41.2160
G01 X28.6575 Y41.2259
G01 X28.6456 Y41.2346
G01 X28.6330 Y41.2422
G01 X28.6197 Y41.2485
G01 X28.6128 Y41.2511
G01 X28.6034 Y41.2541
G01 X28.5972 Y41.2614
G01 X28.5922 Y41.2668
G01 X28.5868 Y41.2718
G01 X28.5787 Y41.2787
G01 X28.5718 Y41.2868
G01 X28.5668 Y41.2922
G01 X28.5559 Y41.3021
G01 X28.5440 Y41.3108
G01 X28.5314 Y41.3184
G01 X28.5181 Y41.3247
G01 X28.5112 Y41.3273
G01 X28.5018 Y41.3303
G01 X28.4956 Y41.3376
G01 X28.4852 Y41.3480
G01 X28.4739 Y41.3574
G01 X28.4678 Y41.3616
G01 X28.4552 Y41.3692
G01 X28.4486 Y41.3725
G01 X28.4350 Y41.3781
G01 X28.4250 Y41.3813
G01 X28.4170 Y41.3870
G01 X28.4108 Y41.3910
G01 X28.3978 Y41.3979
G01 X28.3842 Y41.4035
G01 X28.3748 Y41.4065
G01 X28.3686 Y41.4138
G01 X28.3636 Y41.4192
G01 X28.3527 Y41.4291
G01 X28.3408 Y41.4378
G01 X28.3282 Y41.4454
G01 X28.3149 Y41.4517
G01 X28.3080 Y41.4543
G01 X28.2980 Y41.4575
G01 X28.2900 Y41.4632
G01 X28.2774 Y41.4708
G01 X28.2641 Y41.4771
G01 X28.2572 Y41.4797
G01 X28.2472 Y41.4829
G01 X28.2392 Y41.4886
G01 X28.2266 Y41.4962
G01 X28.2133 Y41.5025
G01 X28.2064 Y41.5051
G01 X28.1964 Y41.5083
G01 X28.1884 Y41.5140
G01 X28.1822 Y41.5180
G01 X28.1758 Y41.5216
G01 X28.1625 Y41.5279
G01 X28.1556 Y41.5305
G01 X28.1415 Y41.5348
G01 X28.1271 Y41.5377
G01 X28.1127 Y41.5391
G01 X28.1060 Y41.5434
G01 X28.0930 Y41.5503
G01 X28.0794 Y41.5559
G01 X28.0694 Y41.5591
G01 X28.0614 Y41.5648
G01 X28.0488 Y41.5724
G01 X28.0422 Y41.5757
G01 X28.0286 Y41.5813
G01 X28.0216 Y41.5836
G01 X28.0074 Y41.5872
G01 X28.0001 Y41.5885
G01 X27.9857 Y41.5899
G01 X27.9726 Y41.5978
G01 X27.9593 Y41.6041
G01 X27.9524 Y41.6067
G01 X27.9454 Y41.6090
G01 X27.9312 Y41.6126
G01 X27.9239 Y41.6139
G01 X27.9095 Y41.6153
G01 X27.8964 Y41.6232
G01 X27.8831 Y41.6295
G01 X27.8762 Y41.6321
G01 X27.8692 Y41.6344
G01 X27.8550 Y41.6380
G01 X27.8477 Y41.6393
G01 X27.8333 Y41.6407
G01 X27.8266 Y41.6450
G01 X27.8136 Y41.6519
G01 X27.8000 Y41.6575
G01 X27.7859 Y41.6618
G01 X27.7715 Y41.6647
G01 X27.7569 Y41.6661
G01 X27.7060 Y41.6663
G01 X27.6996 Y41.6704
G01 X27.6866 Y41.6773
G01 X27.6730 Y41.6829
G01 X27.6589 Y41.6872
G01 X27.6445 Y41.6901
G01 X27.6299 Y41.6915
G01 X27.5790 Y41.6917
G01 X27.5662 Y41.6994
G01 X27.5529 Y41.7057
G01 X27.5460 Y41.7083
G01 X27.5319 Y41.7126
G01 X27.5248 Y41.7142
G01 X27.5102 Y41.7164
G01 X27.5029 Y41.7169
G01 X26.9367 Y41.7171
G01 X26.9220 Y41.7164
G01 X26.9074 Y41.7142
G01 X26.9003 Y41.7126
G01 X26.8862 Y41.7083
G01 X26.8793 Y41.7057
G01 X26.8660 Y41.6994
G01 X26.8532 Y41.6917
G01 X26.8060 Y41.6917
G01 X26.7950 Y41.6910
G01 X26.7877 Y41.6901
G01 X26.7733 Y41.6872
G01 X26.7662 Y41.6852
G01 X26.7523 Y41.6803
G01 X26.7390 Y41.6740
G01 X26.7262 Y41.6663
G01 X26.7044 Y41.6663
G01 X26.6934 Y41.6656
G01 X26.6788 Y41.6634
G01 X26.6646 Y41.6598
G01 X26.6576 Y41.6575
G01 X26.6440 Y41.6519
G01 X26.6310 Y41.6450
G01 X26.6243 Y41.6407
G01 X26.6099 Y41.6393
G01 X26.5955 Y41.6364
G01 X26.5814 Y41.6321
G01 X26.5745 Y41.6295
G01 X26.5612 Y41.6232
G01 X26.5548 Y41.6196
G01 X26.5486 Y41.6156
G01 X26.5406 Y41.6099
G01 X26.5306 Y41.6067
G01 X26.5170 Y41.6011
G01 X26.5040 Y41.5942
G01 X26.4973 Y41.5899
G01 X26.4829 Y41.5885
G01 X26.4685 Y41.5856
G01 X26.4614 Y41.5836
G01 X26.4475 Y41.5787
G01 X26.4408 Y41.5757
G01 X26.4278 Y41.5688
G01 X26.4216 Y41.5648
G01 X26.4136 Y41.5591
G01 X26.4036 Y41.5559
G01 X26.3900 Y41.5503
G01 X26.3834 Y41.5470
G01 X26.3708 Y41.5394
G01 X26.3647 Y41.5352
G01 X26.3534 Y41.5258
G01 X26.3430 Y41.5154
G01 X26.3368 Y41.5081
G01 X26.3274 Y41.5051
G01 X26.3138 Y41.4995
G01 X26.3008 Y41.4926
G01 X26.2946 Y41.4886
G01 X26.2866 Y41.4829
G01 X26.2766 Y41.4797
G01 X26.2697 Y41.4771
G01 X26.2564 Y41.4708
G01 X26.2500 Y41.4672
G01 X26.2377 Y41.4590
G01 X26.2264 Y41.4496
G01 X26.2160 Y41.4392
G01 X26.2098 Y41.4319
G01 X26.2004 Y41.4289
G01 X26.1935 Y41.4263
G01 X26.1802 Y41.4200
G01 X26.1676 Y41.4124
G01 X26.1615 Y41.4082
G01 X26.1502 Y41.3988
G01 X26.1398 Y41.3884
G01 X26.1329 Y41.3803
G01 X26.1248 Y41.3734
G01 X26.1194 Y41.3684
G01 X26.1144 Y41.3630
G01 X26.1075 Y41.3549
G01 X26.0994 Y41.3480
G01 X26.0940 Y41.3430
G01 X26.0890 Y41.3376
G01 X26.0821 Y41.3295
G01 X26.0740 Y41.3226
G01 X26.0686 Y41.3176
G01 X26.0636 Y41.3122
G01 X26.0567 Y41.3041
G01 X26.0486 Y41.2972
G01 X26.0432 Y41.2922
G01 X26.0382 Y41.2868
G01 X26.0313 Y41.2787
G01 X26.0232 Y41.2718
G01 X26.0178 Y41.2668
G01 X26.0128 Y41.2614
G01 X26.0059 Y41.2533
G01 X25.9978 Y41.2464
G01 X25.9924 Y41.2414
G01 X25.9874 Y41.2360
G01 X25.9805 Y41.2279
G01 X25.9724 Y41.2210
G01 X25.9670 Y41.2160
G01 X25.9620 Y41.2106
G01 X25.9551 Y41.2025
G01 X25.9470 Y41.1956
G01 X25.9416 Y41.1906
G01 X25.9366 Y41.1852
G01 X25.9297 Y41.1771
G01 X25.9216 Y41.1702
G01 X25.9162 Y41.1652
G01 X25.9112 Y41.1598
G01 X25.9043 Y41.1517
G01 X25.8962 Y41.1448
G01 X25.8908 Y41.1398
G01 X25.8858 Y41.1344
G01 X25.8789 Y41.1263
G01 X25.8708 Y41.1194
G01 X25.8654 Y41.1144
G01 X25.8604 Y41.1090
G01 X25.8535 Y41.1009
G01 X25.8454 Y41.0940
G01 X25.8350 Y41.0836
G01 X25.8256 Y41.0723
G01 X25.8214 Y41.0662
G01 X25.8138 Y41.0536
G01 X25.8075 Y41.0403
G01 X25.8049 Y41.0334
G01 X25.8019 Y41.0240
G01 X25.7946 Y41.0178
G01 X25.7842 Y41.0074
G01 X25.7748 Y40.9961
G01 X25.7706 Y40.9900
G01 X25.7630 Y40.9774
G01 X25.7597 Y40.9708
G01 X25.7541 Y40.9572
G01 X25.7509 Y40.9472
G01 X25.7452 Y40.9392
G01 X25.7412 Y40.9330
G01 X25.7343 Y40.9200
G01 X25.7287 Y40.9064
G01 X25.7255 Y40.8964
G01 X25.7198 Y40.8884
G01 X25.7158 Y40.8822
G01 X25.7089 Y40.8692
G01 X25.7033 Y40.8556
G01 X25.7001 Y40.8456
G01 X25.6944 Y40.8376
G01 X25.6904 Y40.8314
G01 X25.6835 Y40.8184
G01 X25.6779 Y40.8048
G01 X25.6736 Y40.7907
G01 X25.6707 Y40.7763
G01 X25.6693 Y40.7619
G01 X25.6614 Y40.7488
G01 X25.6551 Y40.7355
G01 X25.6525 Y40.7286
G01 X25.6502 Y40.7216
G01 X25.6466 Y40.7074
G01 X25.6453 Y40.7001
G01 X25.6439 Y40.6855
G01 X25.6437 Y40.6092
G01 X25.5627 Y40.6708
G01 X25.5704 Y40.6836
G01 X25.5767 Y40.6969
G01 X25.5793 Y40.7038
G01 X25.5816 Y40.7108
G01 X25.5852 Y40.7250
G01 X25.5865 Y40.7323
G01 X25.5879 Y40.7467
G01 X25.5922 Y40.7534
G01 X25.5991 Y40.7664
G01 X25.6047 Y40.7800
G01 X25.6079 Y40.7900
G01 X25.6136 Y40.7980
G01 X25.6176 Y40.8042
G01 X25.6245 Y40.8172
G01 X25.6301 Y40.8308
G01 X25.6333 Y40.8408
G01 X25.6390 Y40.8488
G01 X25.6430 Y40.8550
G01 X25.6499 Y40.8680
G01 X25.6555 Y40.8816
G01 X25.6587 Y40.8916
G01 X25.6644 Y40.8996
G01 X25.6684 Y40.9058
G01 X25.6753 Y40.9188
G01 X25.6809 Y40.9324
G01 X25.6841 Y40.9424
G01 X25.6898 Y40.9504
G01 X25.6938 Y40.9566
G01 X25.7007 Y40.9696
G01 X25.7063 Y40.9832
G01 X25.7095 Y40.9932
G01 X25.7152 Y41.0012
G01 X25.7192 Y41.0074
G01 X25.7261 Y41.0204
G01 X25.7317 Y41.0340
G01 X25.7347 Y41.0434
G01 X25.7420 Y41.0496
G01 X25.7524 Y41.0600
G01 X25.7618 Y41.0713
G01 X25.7660 Y41.0774
G01 X25.7736 Y41.0900
G01 X25.7769 Y41.0966
G01 X25.7825 Y41.1102
G01 X25.7855 Y41.1196
G01 X25.7928 Y41.1258
G01 X25.7982 Y41.1308
G01 X25.8032 Y41.1362
G01 X25.8101 Y41.1443
G01 X25.8182 Y41.1512
G01 X25.8236 Y41.1562
G01 X25.8335 Y41.1671
G01 X25.8380 Y41.1729
G01 X25.8462 Y41.1852
G01 X25.8531 Y41.1982
G01 X25.8587 Y41.2118
G01 X25.8617 Y41.2212
G01 X25.8690 Y41.2274
G01 X25.8744 Y41.2324
G01 X25.8794 Y41.2378
G01 X25.8863 Y41.2459
G01 X25.8944 Y41.2528
G01 X25.8998 Y41.2578
G01 X25.9048 Y41.2632
G01 X25.9117 Y41.2713
G01 X25.9198 Y41.2782
G01 X25.9252 Y41.2832
G01 X25.9302 Y41.2886
G01 X25.9371 Y41.2967
G01 X25.9452 Y41.3036
G01 X25.9506 Y41.3086
G01 X25.9556 Y41.3140
G01 X25.9625 Y41.3221
G01 X25.9706 Y41.3290
G01 X25.9760 Y41.3340
G01 X25.9810 Y41.3394
G01 X25.9879 Y41.3475
G01 X25.9960 Y41.3544
G01 X26.0014 Y41.3594
G01 X26.0064 Y41.3648
G01 X26.0126 Y41.3721
G01 X26.0220 Y41.3751
G01 X26.0356 Y41.3807
G01 X26.0486 Y41.3876
G01 X26.0548 Y41.3916
G01 X26.0667 Y41.4003
G01 X26.0776 Y41.4102
G01 X26.0826 Y41.4156
G01 X26.0895 Y41.4237
G01 X26.0976 Y41.4306
G01 X26.1030 Y41.4356
G01 X26.1080 Y41.4410
G01 X26.1142 Y41.4483
G01 X26.1236 Y41.4513
G01 X26.1372 Y41.4569
G01 X26.1438 Y41.4602
G01 X26.1564 Y41.4678
G01 X26.1625 Y41.4720
G01 X26.1738 Y41.4814
G01 X26.1842 Y41.4918
G01 X26.1904 Y41.4991
G01 X26.1998 Y41.5021
G01 X26.2134 Y41.5077
G01 X26.2264 Y41.5146
G01 X26.2387 Y41.5228
G01 X26.2445 Y41.5273
G01 X26.2554 Y41.5372
G01 X26.2604 Y41.5426
G01 X26.2666 Y41.5499
G01 X26.2760 Y41.5529
G01 X26.2896 Y41.5585
G01 X26.3026 Y41.5654
G01 X26.3088 Y41.5694
G01 X26.3168 Y41.5751
G01 X26.3268 Y41.5783
G01 X26.3404 Y41.5839
G01 X26.3534 Y41.5908
G01 X26.3596 Y41.5948
G01 X26.3676 Y41.6005
G01 X26.3776 Y41.6037
G01 X26.3845 Y41.6063
G01 X26.3978 Y41.6126
G01 X26.4104 Y41.6202
G01 X26.4223 Y41.6289
G01 X26.4332 Y41.6388
G01 X26.4400 Y41.6462
G01 X26.4507 Y41.6473
G01 X26.4651 Y41.6502
G01 X26.4722 Y41.6522
G01 X26.4861 Y41.6571
G01 X26.4928 Y41.6601
G01 X26.5058 Y41.6670
G01 X26.5120 Y41.6710
G01 X26.5200 Y41.6767
G01 X26.5300 Y41.6799
G01 X26.5436 Y41.6855
G01 X26.5566 Y41.6924
G01 X26.5633 Y41.6967
G01 X26.5777 Y41.6981
G01 X26.5850 Y41.6994
G01 X26.5992 Y41.7030
G01 X26.6062 Y41.7053
G01 X26.6131 Y41.7079
G01 X26.6264 Y41.7142
G01 X26.6395 Y41.7221
G01 X26.6539 Y41.7235
G01 X26.6612 Y41.7248
G01 X26.6754 Y41.7284
G01 X26.6824 Y41.7307
G01 X26.6893 Y41.7333
G01 X26.7026 Y41.7396
G01 X26.7154 Y41.7473
G01 X26.7372 Y41.7473
G01 X26.7482 Y41.7480
G01 X26.7555 Y41.7489
G01 X26.7699 Y41.7518
G01 X26.7840 Y41.7561
G01 X26.7976 Y41.7617
G01 X26.8106 Y41.7686
G01 X26.8170 Y41.7727
G01 X26.8679 Y41.7729
G01 X26.8825 Y41.7743
G01 X26.8898 Y41.7756
G01 X26.9040 Y41.7792
G01 X26.9179 Y41.7841
G01 X26.9312 Y41.7904
G01 X26.9440 Y41.7981
G01 X27.6152 Y41.7981
G01 X27.6280 Y41.7904
G01 X27.6413 Y41.7841
G01 X27.6482 Y41.7815
G01 X27.6552 Y41.7792
G01 X27.6694 Y41.7756
G01 X27.6840 Y41.7734
G01 X27.6987 Y41.7727
G01 X27.9019 Y41.7727
G01 X27.9166 Y41.7734
G01 X27.9239 Y41.7743
G01 X27.9383 Y41.7772
G01 X27.9524 Y41.7815
G01 X27.9660 Y41.7871
G01 X27.9726 Y41.7904
G01 X27.9852 Y41.7980
G01 X27.9971 Y41.8067
G01 X28.0080 Y41.8166
G01 X28.0130 Y41.8220
G01 X28.0199 Y41.8301
G01 X28.0280 Y41.8370
G01 X28.0334 Y41.8420
G01 X28.0384 Y41.8474
G01 X28.0453 Y41.8555
G01 X28.0534 Y41.8624
G01 X28.0588 Y41.8674
G01 X28.0687 Y41.8783
G01 X28.0732 Y41.8841
G01 X28.0814 Y41.8964
G01 X28.0883 Y41.9094
G01 X28.0939 Y41.9230
G01 X28.0969 Y41.9324
G01 X28.1042 Y41.9386
G01 X28.1096 Y41.9436
G01 X28.1146 Y41.9490
G01 X28.1215 Y41.9571
G01 X28.1296 Y41.9640
G01 X28.1350 Y41.9690
G01 X28.1449 Y41.9799
G01 X28.1536 Y41.9918
G01 X28.1612 Y42.0044
G01 X28.1645 Y42.0110
G01 X28.1701 Y42.0246
G01 X28.1731 Y42.0340
G01 X28.1804 Y42.0402
G01 X28.1858 Y42.0452
G01 X28.1908 Y42.0506
G01 X28.1977 Y42.0587
G01 X28.2058 Y42.0656
G01 X28.2112 Y42.0706
G01 X28.2162 Y42.0760
G01 X28.2231 Y42.0841
G01 X28.2312 Y42.0910
G01 X28.2366 Y42.0960
G01 X28.2416 Y42.1014
G01 X28.2485 Y42.1095
G01 X28.2566 Y42.1164
G01 X28.2620 Y42.1214
G01 X28.2670 Y42.1268
G01 X28.2739 Y42.1349
G01 X28.2820 Y42.1418
G01 X28.2874 Y42.1468
G01 X28.2973 Y42.1577
G01 X28.3060 Y42.1696
G01 X28.3136 Y42.1822
G01 X28.3199 Y42.1955
G01 X28.3252 Y42.2106
G01 X28.3403 Y42.2159
G01 X28.3536 Y42.2222
G01 X28.3662 Y42.2298
G01 X28.3781 Y42.2385
G01 X28.3890 Y42.2484
G01 X28.3940 Y42.2538
G01 X28.4009 Y42.2619
G01 X28.4090 Y42.2688
G01 X28.4144 Y42.2738
G01 X28.4194 Y42.2792
G01 X28.4263 Y42.2873
G01 X28.4344 Y42.2942
G01 X28.4398 Y42.2992
G01 X28.4448 Y42.3046
G01 X28.4517 Y42.3127
G01 X28.4598 Y42.3196
G01 X28.4652 Y42.3246
G01 X28.4702 Y42.3300
G01 X28.4771 Y42.3381
G01 X28.4852 Y42.3450
G01 X28.4906 Y42.3500
G01 X28.4956 Y42.3554
G01 X28.5018 Y42.3627
G01 X28.5112 Y42.3657
G01 X28.5181 Y42.3683
G01 X28.5314 Y42.3746
G01 X28.5440 Y42.3822
G01 X28.5501 Y42.3864
G01 X28.5614 Y42.3958
G01 X28.5668 Y42.4008
G01 X28.5767 Y42.4117
G01 X28.5854 Y42.4236
G01 X28.5930 Y42.4362
G01 X28.5963 Y42.4428
G01 X28.5993 Y42.4495
G01 X28.6042 Y42.4634
G01 X28.6062 Y42.4705
G01 X28.6091 Y42.4849
G01 X28.6105 Y42.4995
G01 X28.6107 Y42.5069
G01 X28.6105 Y42.6159
G01 X28.6091 Y42.6305
G01 X28.6078 Y42.6378
G01 X28.6042 Y42.6520
G01 X28.6019 Y42.6590
G01 X28.5963 Y42.6726
G01 X28.5894 Y42.6856
G01 X28.5851 Y42.6923
G01 X28.5837 Y42.7067
G01 X28.5808 Y42.7211
G01 X28.5765 Y42.7352
G01 X28.5739 Y42.7421
G01 X28.5676 Y42.7554
G01 X28.5640 Y42.7618
G01 X28.5600 Y42.7680
G01 X28.5543 Y42.7760
G01 X28.5511 Y42.7860
G01 X28.5455 Y42.7996
G01 X28.5386 Y42.8126
G01 X28.5346 Y42.8188
G01 X28.5289 Y42.8268
G01 X28.5257 Y42.8368
G01 X28.5201 Y42.8504
G01 X28.5132 Y42.8634
G01 X28.5089 Y42.8701
G01 X28.5075 Y42.8845
G01 X28.5062 Y42.8918
G01 X28.5026 Y42.9060
G01 X28.5003 Y42.9130
G01 X28.4947 Y42.9266
G01 X28.4878 Y42.9396
G01 X28.4835 Y42.9463
G01 X28.4821 Y42.9607
G01 X28.4808 Y42.9680
G01 X28.4772 Y42.9822
G01 X28.4749 Y42.9892
G01 X28.4693 Y43.0028
G01 X28.4660 Y43.0094
G01 X28.4584 Y43.0220
G01 X28.4527 Y43.0300
G01 X28.4495 Y43.0400
G01 X28.4439 Y43.0536
G01 X28.4370 Y43.0666
G01 X28.4327 Y43.0733
G01 X28.4313 Y43.0877
G01 X28.4300 Y43.0950
G01 X28.4264 Y43.1092
G01 X28.4241 Y43.1162
G01 X28.4215 Y43.1231
G01 X28.4152 Y43.1364
G01 X28.4075 Y43.1492
G01 X28.4075 Y43.2326
G01 X28.4194 Y43.2444
G01 X28.4256 Y43.2517
G01 X28.4350 Y43.2547
G01 X28.4486 Y43.2603
G01 X28.4616 Y43.2672
G01 X28.4680 Y43.2713
G01 X28.5260 Y43.2713
G01 X28.5378 Y43.2594
G01 X28.5459 Y43.2525
G01 X28.5528 Y43.2444
G01 X28.5578 Y43.2390
G01 X28.5632 Y43.2340
G01 X28.5705 Y43.2278
G01 X28.5735 Y43.2184
G01 X28.5791 Y43.2048
G01 X28.5860 Y43.1918
G01 X28.5900 Y43.1856
G01 X28.5957 Y43.1776
G01 X28.5989 Y43.1676
G01 X28.6045 Y43.1540
G01 X28.6114 Y43.1410
G01 X28.6154 Y43.1348
G01 X28.6211 Y43.1268
G01 X28.6243 Y43.1168
G01 X28.6299 Y43.1032
G01 X28.6368 Y43.0902
G01 X28.6408 Y43.0840
G01 X28.6465 Y43.0760
G01 X28.6497 Y43.0660
G01 X28.6553 Y43.0524
G01 X28.6622 Y43.0394
G01 X28.6662 Y43.0332
G01 X28.6719 Y43.0252
G01 X28.6751 Y43.0152
G01 X28.6807 Y43.0016
G01 X28.6876 Y42.9886
G01 X28.6919 Y42.9819
G01 X28.6933 Y42.9675
G01 X28.6962 Y42.9531
G01 X28.7005 Y42.9390
G01 X28.7031 Y42.9321
G01 X28.7094 Y42.9188
G01 X28.7130 Y42.9124
G01 X28.7170 Y42.9062
G01 X28.7227 Y42.8982
G01 X28.7259 Y42.8882
G01 X28.7315 Y42.8746
G01 X28.7384 Y42.8616
G01 X28.7424 Y42.8554
G01 X28.7481 Y42.8474
G01 X28.7513 Y42.8374
G01 X28.7569 Y42.8238
G01 X28.7638 Y42.8108
G01 X28.7678 Y42.8046
G01 X28.7735 Y42.7966
G01 X28.7767 Y42.7866
G01 X28.7793 Y42.7797
G01 X28.7856 Y42.7664
G01 X28.7892 Y42.7600
G01 X28.7974 Y42.7477
G01 X28.8068 Y42.7364
G01 X28.8172 Y42.7260
G01 X28.8253 Y42.7191
G01 X28.8322 Y42.7110
G01 X28.8372 Y42.7056
G01 X28.8426 Y42.7006
G01 X28.8507 Y42.6937
G01 X28.8576 Y42.6856
G01 X28.8680 Y42.6752
G01 X28.8793 Y42.6658
G01 X28.8916 Y42.6576
G01 X28.9046 Y42.6507
G01 X28.9113 Y42.6477
G01 X28.9252 Y42.6428
G01 X28.9394 Y42.6392
G01 X28.9467 Y42.6379
G01 X28.9613 Y42.6365
G01 X29.1248 Y42.6363
G01 X29.1358 Y42.6370
G01 X29.1431 Y42.6379
G01 X29.1575 Y42.6408
G01 X29.1646 Y42.6428
G01 X29.1785 Y42.6477
G01 X29.1852 Y42.6507
G01 X29.1982 Y42.6576
G01 X29.2046 Y42.6617
G01 X29.8504 Y42.6617
G01 X29.8632 Y42.6540
G01 X29.8765 Y42.6477
G01 X29.8834 Y42.6451
G01 X29.8904 Y42.6428
G01 X29.9046 Y42.6392
G01 X29.9192 Y42.6370
G01 X29.9339 Y42.6363
G01 X30.1117 Y42.6363
G01 X30.1264 Y42.6370
G01 X30.1410 Y42.6392
G01 X30.1552 Y42.6428
G01 X30.1622 Y42.6451
G01 X30.1758 Y42.6507
G01 X30.1888 Y42.6576
G01 X30.1950 Y42.6616
G01 X30.2069 Y42.6703
G01 X30.2178 Y42.6802
G01 X30.2277 Y42.6911
G01 X30.2322 Y42.6969
G01 X30.2404 Y42.7092
G01 X30.2473 Y42.7222
G01 X30.2529 Y42.7358
G01 X30.2559 Y42.7452
G01 X30.2632 Y42.7514
G01 X30.2686 Y42.7564
G01 X30.2785 Y42.7673
G01 X30.2872 Y42.7792
G01 X30.2912 Y42.7854
G01 X30.2981 Y42.7984
G01 X30.3037 Y42.8120
G01 X30.3080 Y42.8261
G01 X30.3109 Y42.8405
G01 X30.3123 Y42.8549
G01 X30.3166 Y42.8616
G01 X30.3235 Y42.8746
G01 X30.3291 Y42.8882
G01 X30.3323 Y42.8982
G01 X30.3380 Y42.9062
G01 X30.3420 Y42.9124
G01 X30.3489 Y42.9254
G01 X30.3545 Y42.9390
G01 X30.3577 Y42.9490
G01 X30.3634 Y42.9570
G01 X30.3674 Y42.9632
G01 X30.3743 Y42.9762
G01 X30.3773 Y42.9829
G01 X30.3822 Y42.9968
G01 X30.3842 Y43.0039
G01 X30.3871 Y43.0183
G01 X30.3885 Y43.0327
G01 X30.3928 Y43.0394
G01 X30.3997 Y43.0524
G01 X30.4053 Y43.0660
G01 X30.4085 Y43.0760
G01 X30.4142 Y43.0840
G01 X30.4182 Y43.0902
G01 X30.4251 Y43.1032
G01 X30.4307 Y43.1168
G01 X30.4339 Y43.1268
G01 X30.4396 Y43.1348
G01 X30.4436 Y43.1410
G01 X30.4505 Y43.1540
G01 X30.4561 Y43.1676
G01 X30.4593 Y43.1776
G01 X30.4650 Y43.1856
G01 X30.4690 Y43.1918
G01 X30.4759 Y43.2048
G01 X30.4815 Y43.2184
G01 X30.4845 Y43.2278
G01 X30.4918 Y43.2340
G01 X30.4972 Y43.2390
G01 X30.5022 Y43.2444
G01 X30.5091 Y43.2525
G01 X30.5172 Y43.2594
G01 X30.5290 Y43.2713
G01 X30.5509 Y43.2715
G01 X30.5582 Y43.2720
G01 X30.5689 Y43.2735
G01 X30.5796 Y43.2720
G01 X30.5869 Y43.2715
G01 X30.6088 Y43.2713
G01 X30.6206 Y43.2594
G01 X30.6287 Y43.2525
G01 X30.6356 Y43.2444
G01 X30.6406 Y43.2390
G01 X30.6460 Y43.2340
G01 X30.6533 Y43.2278
G01 X30.6563 Y43.2184
G01 X30.6589 Y43.2115
G01 X30.6619 Y43.2048
G01 X30.6683 Y43.1927
G01 X30.6619 Y43.1806
G01 X30.6589 Y43.1739
G01 X30.6540 Y43.1600
G01 X30.6504 Y43.1458
G01 X30.6491 Y43.1385
G01 X30.6477 Y43.1241
G01 X30.6434 Y43.1174
G01 X30.6365 Y43.1044
G01 X30.6335 Y43.0977
G01 X30.6286 Y43.0838
G01 X30.6250 Y43.0696
G01 X30.6237 Y43.0623
G01 X30.6223 Y43.0479
G01 X30.6180 Y43.0412
G01 X30.6111 Y43.0282
G01 X30.6055 Y43.0146
G01 X30.6023 Y43.0046
G01 X30.5966 Y42.9966
G01 X30.5926 Y42.9904
G01 X30.5890 Y42.9840
G01 X30.5827 Y42.9707
G01 X30.5801 Y42.9638
G01 X30.5758 Y42.9497
G01 X30.5729 Y42.9353
G01 X30.5715 Y42.9209
G01 X30.5672 Y42.9142
G01 X30.5603 Y42.9012
G01 X30.5547 Y42.8876
G01 X30.5515 Y42.8776
G01 X30.5458 Y42.8696
G01 X30.5418 Y42.8634
G01 X30.5349 Y42.8504
G01 X30.5319 Y42.8437
G01 X30.5270 Y42.8298
G01 X30.5250 Y42.8227
G01 X30.5221 Y42.8083
G01 X30.5207 Y42.7939
G01 X30.5164 Y42.7872
G01 X30.5095 Y42.7742
G01 X30.5039 Y42.7606
G01 X30.5007 Y42.7506
G01 X30.4950 Y42.7426
G01 X30.4910 Y42.7364
G01 X30.4841 Y42.7234
G01 X30.4785 Y42.7098
G01 X30.4753 Y42.6998
G01 X30.4696 Y42.6918
G01 X30.4656 Y42.6856
G01 X30.4587 Y42.6726
G01 X30.4557 Y42.6659
G01 X30.4508 Y42.6520
G01 X30.4488 Y42.6449
G01 X30.4459 Y42.6305
G01 X30.4445 Y42.6159
G01 X30.4443 Y42.6085
G01 X30.4445 Y42.5249
G01 X30.4450 Y42.5176
G01 X30.4472 Y42.5030
G01 X30.4508 Y42.4888
G01 X30.4557 Y42.4749
G01 X30.4587 Y42.4682
G01 X30.4656 Y42.4552
G01 X30.4738 Y42.4429
G01 X30.4832 Y42.4316
G01 X30.4936 Y42.4212
G01 X30.5017 Y42.4143
G01 X30.5086 Y42.4062
G01 X30.5136 Y42.4008
G01 X30.5190 Y42.3958
G01 X30.5271 Y42.3889
G01 X30.5340 Y42.3808
G01 X30.5390 Y42.3754
G01 X30.5444 Y42.3704
G01 X30.5525 Y42.3635
G01 X30.5594 Y42.3554
G01 X30.5644 Y42.3500
G01 X30.5698 Y42.3450
G01 X30.5779 Y42.3381
G01 X30.5848 Y42.3300
G01 X30.5898 Y42.3246
G01 X30.5952 Y42.3196
G01 X30.6033 Y42.3127
G01 X30.6102 Y42.3046
G01 X30.6152 Y42.2992
G01 X30.6261 Y42.2893
G01 X30.6319 Y42.2848
G01 X30.6442 Y42.2766
G01 X30.6506 Y42.2730
G01 X30.6639 Y42.2667
G01 X30.6708 Y42.2641
G01 X30.6802 Y42.2611
G01 X30.6864 Y42.2538
G01 X30.6914 Y42.2484
G01 X30.6968 Y42.2434
G01 X30.7049 Y42.2365
G01 X30.7118 Y42.2284
G01 X30.7168 Y42.2230
G01 X30.7222 Y42.2180
G01 X30.7303 Y42.2111
G01 X30.7372 Y42.2030
G01 X30.7422 Y42.1976
G01 X30.7476 Y42.1926
G01 X30.7549 Y42.1864
G01 X30.7579 Y42.1770
G01 X30.7605 Y42.1701
G01 X30.7668 Y42.1568
G01 X30.7744 Y42.1442
G01 X30.7831 Y42.1323
G01 X30.7930 Y42.1214
G01 X30.7984 Y42.1164
G01 X30.8065 Y42.1095
G01 X30.8134 Y42.1014
G01 X30.8184 Y42.0960
G01 X30.8238 Y42.0910
G01 X30.8319 Y42.0841
G01 X30.8388 Y42.0760
G01 X30.8438 Y42.0706
G01 X30.8492 Y42.0656
G01 X30.8573 Y42.0587
G01 X30.8642 Y42.0506
G01 X30.8692 Y42.0452
G01 X30.8746 Y42.0402
G01 X30.8827 Y42.0333
G01 X30.8896 Y42.0252
G01 X30.8946 Y42.0198
G01 X30.9000 Y42.0148
G01 X30.9073 Y42.0086
G01 X30.9103 Y41.9992
G01 X30.9129 Y41.9923
G01 X30.9192 Y41.9790
G01 X30.9228 Y41.9726
G01 X30.9310 Y41.9603
G01 X30.9404 Y41.9490
G01 X30.9508 Y41.9386
G01 X30.9581 Y41.9324
G01 X30.9611 Y41.9230
G01 X30.9637 Y41.9161
G01 X30.9700 Y41.9028
G01 X30.9736 Y41.8964
G01 X30.9818 Y41.8841
G01 X30.9863 Y41.8783
G01 X30.9962 Y41.8674
G01 X31.0016 Y41.8624
G01 X31.0097 Y41.8555
G01 X31.0166 Y41.8474
G01 X31.0216 Y41.8420
G01 X31.0270 Y41.8370
G01 X31.0351 Y41.8301
G01 X31.0420 Y41.8220
G01 X31.0470 Y41.8166
G01 X31.0524 Y41.8116
G01 X31.0605 Y41.8047
G01 X31.0674 Y41.7966
G01 X31.0724 Y41.7912
G01 X31.0833 Y41.7813
G01 X31.0952 Y41.7726
G01 X31.1078 Y41.7650
G01 X31.1211 Y41.7587
G01 X31.1280 Y41.7561
G01 X31.1421 Y41.7518
G01 X31.1492 Y41.7502
G01 X31.1638 Y41.7480
G01 X31.1711 Y41.7475
G01 X31.2113 Y41.7475
G01 X31.2259 Y41.7489
G01 X31.2332 Y41.7502
G01 X31.2474 Y41.7538
G01 X31.2613 Y41.7587
G01 X31.2746 Y41.7650
G01 X31.2874 Y41.7727
G01 X31.3854 Y41.7727
G01 X31.3964 Y41.7734
G01 X31.4037 Y41.7743
G01 X31.4181 Y41.7772
G01 X31.4252 Y41.7792
G01 X31.4391 Y41.7841
G01 X31.4524 Y41.7904
G01 X31.4652 Y41.7981
G01 X32.1364 Y41.7981
G01 X32.1492 Y41.7904
G01 X32.1625 Y41.7841
G01 X32.1764 Y41.7792
G01 X32.1906 Y41.7756
G01 X32.1979 Y41.7743
G01 X32.2125 Y41.7729
G01 X32.2634 Y41.7727
G01 X32.2762 Y41.7650
G01 X32.2895 Y41.7587
G01 X32.2964 Y41.7561
G01 X32.3034 Y41.7538
G01 X32.3176 Y41.7502
G01 X32.3249 Y41.7489
G01 X32.3393 Y41.7475
G01 X32.3524 Y41.7396
G01 X32.3657 Y41.7333
G01 X32.3726 Y41.7307
G01 X32.3796 Y41.7284
G01 X32.3938 Y41.7248
G01 X32.4011 Y41.7235
G01 X32.4155 Y41.7221
G01 X32.4286 Y41.7142
G01 X32.4419 Y41.7079
G01 X32.4488 Y41.7053
G01 X32.4558 Y41.7030
G01 X32.4700 Y41.6994
G01 X32.4773 Y41.6981
G01 X32.4917 Y41.6967
G01 X32.4984 Y41.6924
G01 X32.5114 Y41.6855
G01 X32.5250 Y41.6799
G01 X32.5350 Y41.6767
G01 X32.5430 Y41.6710
G01 X32.5492 Y41.6670
G01 X32.5556 Y41.6634
G01 X32.5689 Y41.6571
G01 X32.5758 Y41.6545
G01 X32.5899 Y41.6502
G01 X32.6043 Y41.6473
G01 X32.6187 Y41.6459
G01 X32.6254 Y41.6416
G01 X32.6384 Y41.6347
G01 X32.6520 Y41.6291
G01 X32.6620 Y41.6259
G01 X32.6700 Y41.6202
G01 X32.6762 Y41.6162
G01 X32.6892 Y41.6093
G01 X32.7028 Y41.6037
G01 X32.7122 Y41.6007
G01 X32.7184 Y41.5934
G01 X32.7288 Y41.5830
G01 X32.7401 Y41.5736
G01 X32.7524 Y41.5654
G01 X32.7588 Y41.5618
G01 X32.7721 Y41.5555
G01 X32.7790 Y41.5529
G01 X32.7890 Y41.5497
G01 X32.7970 Y41.5440
G01 X32.8032 Y41.5400
G01 X32.8162 Y41.5331
G01 X32.8298 Y41.5275
G01 X32.8392 Y41.5245
G01 X32.8454 Y41.5172
G01 X32.8558 Y41.5068
G01 X32.8671 Y41.4974
G01 X32.8732 Y41.4932
G01 X32.8858 Y41.4856
G01 X32.8924 Y41.4823
G01 X32.9060 Y41.4767
G01 X32.9154 Y41.4737
G01 X32.9216 Y41.4664
G01 X32.9266 Y41.4610
G01 X32.9320 Y41.4560
G01 X32.9401 Y41.4491
G01 X32.9470 Y41.4410
G01 X32.9520 Y41.4356
G01 X32.9629 Y41.4257
G01 X32.9687 Y41.4212
G01 X32.9810 Y41.4130
G01 X32.9940 Y41.4061
G01 X33.0076 Y41.4005
G01 X33.0170 Y41.3975
G01 X33.0232 Y41.3902
G01 X33.0282 Y41.3848
G01 X33.0336 Y41.3798
G01 X33.0417 Y41.3729
G01 X33.0486 Y41.3648
G01 X33.0536 Y41.3594
G01 X33.0590 Y41.3544
G01 X33.0671 Y41.3475
G01 X33.0740 Y41.3394
G01 X33.0790 Y41.3340
G01 X33.0844 Y41.3290
G01 X33.0925 Y41.3221
G01 X33.0994 Y41.3140
G01 X33.1044 Y41.3086
G01 X33.1098 Y41.3036
G01 X33.1179 Y41.2967
G01 X33.1248 Y41.2886
G01 X33.1298 Y41.2832
G01 X33.1352 Y41.2782
G01 X33.1433 Y41.2713
G01 X33.1502 Y41.2632
G01 X33.1552 Y41.2578
G01 X33.1606 Y41.2528
G01 X33.1687 Y41.2459
G01 X33.1756 Y41.2378
G01 X33.1806 Y41.2324
G01 X33.1860 Y41.2274
G01 X33.1941 Y41.2205
G01 X33.2010 Y41.2124
G01 X33.2060 Y41.2070
G01 X33.2114 Y41.2020
G01 X33.2187 Y41.1958
G01 X33.2217 Y41.1864
G01 X33.2273 Y41.1728
G01 X33.2342 Y41.1598
G01 X33.2424 Y41.1475
G01 X33.2469 Y41.1417
G01 X33.2568 Y41.1308
G01 X33.2622 Y41.1258
G01 X33.2703 Y41.1189
G01 X33.2772 Y41.1108
G01 X33.2822 Y41.1054
G01 X33.2876 Y41.1004
G01 X33.2949 Y41.0942
G01 X33.2979 Y41.0848
G01 X33.3035 Y41.0712
G01 X33.3068 Y41.0646
G01 X33.3144 Y41.0520
G01 X33.3186 Y41.0459
G01 X33.3280 Y41.0346
G01 X33.3384 Y41.0242
G01 X33.3457 Y41.0180
G01 X33.3487 Y41.0086
G01 X33.3543 Y40.9950
G01 X33.3612 Y40.9820
G01 X33.3652 Y40.9758
G01 X33.3709 Y40.9678
G01 X33.3741 Y40.9578
G01 X33.3797 Y40.9442
G01 X33.3866 Y40.9312
G01 X33.3906 Y40.9250
G01 X33.3963 Y40.9170
G01 X33.3995 Y40.9070
G01 X33.4051 Y40.8934
G01 X33.4120 Y40.8804
G01 X33.4160 Y40.8742
G01 X33.4217 Y40.8662
G01 X33.4249 Y40.8562
G01 X33.4305 Y40.8426
G01 X33.4374 Y40.8296
G01 X33.4417 Y40.8229
G01 X33.4431 Y40.8085
G01 X33.4444 Y40.8012
G01 X33.4480 Y40.7870
G01 X33.4503 Y40.7800
G01 X33.4529 Y40.7731
G01 X33.4592 Y40.7598
G01 X33.4671 Y40.7467
G01 X33.4685 Y40.7323
G01 X33.4698 Y40.7250
G01 X33.4734 Y40.7108
G01 X33.4757 Y40.7038
G01 X33.4783 Y40.6969
G01 X33.4846 Y40.6836
G01 X33.4923 Y40.6708
G01 X33.4923 Y40.6490
G01 X33.4930 Y40.6380
G01 X33.4939 Y40.6307
G01 X33.4968 Y40.6163
G01 X33.5011 Y40.6022
G01 X33.5067 Y40.5886
G01 X33.5136 Y40.5756
G01 X33.5177 Y40.5692
G01 X33.5179 Y40.5183
G01 X33.5193 Y40.5037
G01 X33.5206 Y40.4964
G01 X33.5242 Y40.4822
G01 X33.5291 Y40.4683
G01 X33.5354 Y40.4550
G01 X33.5431 Y40.4422
G01 X33.5431 Y40.2790
G01 X33.5390 Y40.2726
G01 X33.5321 Y40.2596
G01 X33.5265 Y40.2460
G01 X33.5222 Y40.2319
G01 X33.5193 Y40.2175
G01 X33.5179 Y40.2029
G01 X33.5177 Y40.1266
G01 X33.5136 Y40.1202
G01 X33.5067 Y40.1072
G01 X33.5011 Y40.0936
G01 X33.4988 Y40.0866
G01 X33.4952 Y40.0724
G01 X33.4930 Y40.0578
G01 X33.4923 Y40.0468
G01 X33.4923 Y40.0250
G01 X33.4846 Y40.0122
G01 X33.4783 Y39.9989
G01 X33.4757 Y39.9920
G01 X33.4734 Y39.9850
G01 X33.4698 Y39.9708
G01 X33.4685 Y39.9635
G01 X33.4671 Y39.9491
G01 X33.4628 Y39.9424
